190897.MPF
;This Post Processor is distributed on an "AS IS" BASIS,
;WITHOUT WARRANTIES OR CONDITIONS OF ANY KIND, either express or implied.

N1 M05
N2 M01
N3 T10 D10
N4 L6
N5 MSG("10MM CRB 2FL 22 LOC")
N6 S2700 M03
N7 G00 G90 X-44.388 Y27.271
N8 Z25. M08
N9 Z.5
N10 G01 Z1.497 F300.
N11 G54 G41 X-41.459 Y22.974 Z1.478 F900.
N12 X-41.181 Y22.701 Z1.477
N13 X-40.819 Y22.555 Z1.475
N14 X-39.837 Y22.369 Z1.472 F1200.
N15 X-1.565 Y10.302 Z1.326
N16 X-.854 Y10.124 Z1.324
N17 X-.286 Y10.055 Z1.322
N18 X.286 Z1.32
N19 X.854 Y10.124 Z1.318
N20 X1.565 Y10.302 Z1.315
N21 X39.837 Y22.369 Z1.17
N22 X41.435 Y22.672 Z1.164
N23 X43.37 Y22.576 Z1.157
N24 X45.227 Y22.03 Z1.15
N25 X46.902 Y21.066 Z1.143
N26 X48.304 Y19.742 Z1.136
N27 X49.359 Y18.133 Z1.129
N28 X50.013 Y16.327 Z1.122
N29 X50.2 Y14.722 Z1.116
N30 Y-7.373 Z1.036
N31 X50.119 Y-8.523 Z1.032
N32 X49.878 Y-9.649 Z1.028
N33 X49.481 Y-10.73 Z1.023
N34 X48.937 Y-11.746 Z1.019
N35 X48.256 Y-12.675 Z1.015
N36 X47.451 Y-13.499 Z1.011
N37 X46.539 Y-14.203 Z1.007
N38 X45.537 Y-14.771 Z1.003
N39 X44.466 Y-15.194 Z.998
N40 X22.004 Y-22.276 Z.913
N41 X20.786 Y-22.56 Z.909
N42 X19.538 Y-22.656 Z.904
N43 X-19.538 Z.763
N44 X-20.786 Y-22.56 Z.758
N45 X-22.004 Y-22.276 Z.754
N46 X-44.466 Y-15.194 Z.668
N47 X-45.537 Y-14.771 Z.664
N48 X-46.539 Y-14.203 Z.66
N49 X-47.451 Y-13.499 Z.656
N50 X-48.256 Y-12.675 Z.652
N51 X-48.937 Y-11.746 Z.647
N52 X-49.481 Y-10.73 Z.643
N53 X-49.878 Y-9.649 Z.639
N54 X-50.119 Y-8.523 Z.635
N55 X-50.2 Y-7.373 Z.631
N56 Y14.722 Z.551
N57 X-50.013 Y16.327 Z.545
N58 X-49.359 Y18.133 Z.538
N59 X-48.304 Y19.742 Z.531
N60 X-46.902 Y21.066 Z.524
N61 X-45.227 Y22.03 Z.517
N62 X-43.37 Y22.576 Z.51
N63 X-41.435 Y22.672 Z.503
N64 X-39.837 Y22.369 Z.497
N65 X-1.565 Y10.302 Z.423
N66 X-.854 Y10.124 Z.421
N67 X-.286 Y10.055 Z.42
N68 X.286 Z.419
N69 X.854 Y10.124 Z.418
N70 X1.565 Y10.302 Z.417
N71 X39.837 Y22.369 Z.342
N72 X41.435 Y22.672 Z.339
N73 X43.37 Y22.576 Z.335
N74 X45.227 Y22.03 Z.332
N75 X46.902 Y21.066 Z.328
N76 X48.304 Y19.742 Z.325
N77 X49.359 Y18.133 Z.321
N78 X50.013 Y16.327 Z.318
N79 X50.2 Y14.722 Z.315
N80 Y-7.373 Z.274
N81 X50.119 Y-8.523 Z.271
N82 X49.878 Y-9.649 Z.269
N83 X49.481 Y-10.73 Z.267
N84 X48.937 Y-11.746 Z.265
N85 X48.256 Y-12.675 Z.263
N86 X47.451 Y-13.499 Z.261
N87 X46.539 Y-14.203 Z.259
N88 X45.537 Y-14.771 Z.256
N89 X44.466 Y-15.194 Z.254
N90 X22.004 Y-22.276 Z.21
N91 X20.786 Y-22.56 Z.208
N92 X19.538 Y-22.656 Z.206
N93 X-19.538 Z.133
N94 X-20.786 Y-22.56 Z.131
N95 X-22.004 Y-22.276 Z.129
N96 X-44.466 Y-15.194 Z.085
N97 X-45.537 Y-14.771 Z.083
N98 X-46.539 Y-14.203 Z.081
N99 X-47.451 Y-13.499 Z.078
N100 X-48.256 Y-12.675 Z.076
N101 X-48.937 Y-11.746 Z.074
N102 X-49.481 Y-10.73 Z.072
N103 X-49.878 Y-9.649 Z.07
N104 X-50.119 Y-8.523 Z.068
N105 X-50.2 Y-7.373 Z.066
N106 Y14.722 Z.025
N107 X-50.013 Y16.327 Z.022
N108 X-49.359 Y18.133 Z.018
N109 X-48.304 Y19.742 Z.014
N110 X-46.902 Y21.066 Z.011
N111 X-45.227 Y22.03 Z.007
N112 X-43.37 Y22.576 Z.004
N113 X-41.435 Y22.672 Z0
N114 X-39.837 Y22.369 Z-.003
N115 X-1.565 Y10.302 Z-.077
N116 X-.854 Y10.124 Z-.079
N117 X-.286 Y10.055 Z-.08
N118 X.286 Z-.081
N119 X.854 Y10.124 Z-.082
N120 X1.565 Y10.302 Z-.083
N121 X39.837 Y22.369 Z-.158
N122 X41.435 Y22.672 Z-.161
N123 X43.37 Y22.576 Z-.165
N124 X45.227 Y22.03 Z-.168
N125 X46.902 Y21.066 Z-.172
N126 X48.304 Y19.742 Z-.175
N127 X49.359 Y18.133 Z-.179
N128 X50.013 Y16.327 Z-.182
N129 X50.2 Y14.722 Z-.185
N130 Y-7.373 Z-.226
N131 X50.119 Y-8.523 Z-.229
N132 X49.878 Y-9.649 Z-.231
N133 X49.481 Y-10.73 Z-.233
N134 X48.937 Y-11.746 Z-.235
N135 X48.256 Y-12.675 Z-.237
N136 X47.451 Y-13.499 Z-.239
N137 X46.539 Y-14.203 Z-.241
N138 X45.537 Y-14.771 Z-.244
N139 X44.466 Y-15.194 Z-.246
N140 X22.004 Y-22.276 Z-.29
N141 X20.786 Y-22.56 Z-.292
N142 X19.538 Y-22.656 Z-.294
N143 X-19.538 Z-.367
N144 X-20.786 Y-22.56 Z-.369
N145 X-22.004 Y-22.276 Z-.371
N146 X-44.466 Y-15.194 Z-.415
N147 X-45.537 Y-14.771 Z-.417
N148 X-46.539 Y-14.203 Z-.419
N149 X-47.451 Y-13.499 Z-.422
N150 X-48.256 Y-12.675 Z-.424
N151 X-48.937 Y-11.746 Z-.426
N152 X-49.481 Y-10.73 Z-.428
N153 X-49.878 Y-9.649 Z-.43
N154 X-50.119 Y-8.523 Z-.432
N155 X-50.2 Y-7.373 Z-.434
N156 Y14.722 Z-.475
N157 X-50.013 Y16.327 Z-.478
N158 X-49.359 Y18.133 Z-.482
N159 X-48.304 Y19.742 Z-.486
N160 X-46.902 Y21.066 Z-.489
N161 X-45.227 Y22.03 Z-.493
N162 X-43.37 Y22.576 Z-.496
N163 X-41.435 Y22.672 Z-.5
N164 X-39.837 Y22.369 Z-.503
N165 X-1.565 Y10.302 Z-.577
N166 X-.854 Y10.124 Z-.579
N167 X-.286 Y10.055 Z-.58
N168 X.286 Z-.581
N169 X.854 Y10.124 Z-.582
N170 X1.565 Y10.302 Z-.583
N171 X39.837 Y22.369 Z-.658
N172 X41.435 Y22.672 Z-.661
N173 X43.37 Y22.576 Z-.665
N174 X45.227 Y22.03 Z-.668
N175 X46.902 Y21.066 Z-.672
N176 X48.304 Y19.742 Z-.675
N177 X49.359 Y18.133 Z-.679
N178 X50.013 Y16.327 Z-.682
N179 X50.2 Y14.722 Z-.685
N180 Y-7.373 Z-.726
N181 X50.119 Y-8.523 Z-.729
N182 X49.878 Y-9.649 Z-.731
N183 X49.481 Y-10.73 Z-.733
N184 X48.937 Y-11.746 Z-.735
N185 X48.256 Y-12.675 Z-.737
N186 X47.451 Y-13.499 Z-.739
N187 X46.539 Y-14.203 Z-.741
N188 X45.537 Y-14.771 Z-.744
N189 X44.466 Y-15.194 Z-.746
N190 X22.004 Y-22.276 Z-.79
N191 X20.786 Y-22.56 Z-.792
N192 X19.538 Y-22.656 Z-.794
N193 X-19.538 Z-.867
N194 X-20.786 Y-22.56 Z-.869
N195 X-22.004 Y-22.276 Z-.871
N196 X-44.466 Y-15.194 Z-.915
N197 X-45.537 Y-14.771 Z-.917
N198 X-46.539 Y-14.203 Z-.919
N199 X-47.451 Y-13.499 Z-.922
N200 X-48.256 Y-12.675 Z-.924
N201 X-48.937 Y-11.746 Z-.926
N202 X-49.481 Y-10.73 Z-.928
N203 X-49.878 Y-9.649 Z-.93
N204 X-50.119 Y-8.523 Z-.932
N205 X-50.2 Y-7.373 Z-.934
N206 Y14.722 Z-.975
N207 X-50.013 Y16.327 Z-.978
N208 X-49.359 Y18.133 Z-.982
N209 X-48.304 Y19.742 Z-.986
N210 X-46.902 Y21.066 Z-.989
N211 X-45.227 Y22.03 Z-.993
N212 X-43.37 Y22.576 Z-.996
N213 X-41.435 Y22.672 Z-1.
N214 X-39.837 Y22.369 Z-1.003
N215 X-1.565 Y10.302 Z-1.077
N216 X-.854 Y10.124 Z-1.079
N217 X-.286 Y10.055 Z-1.08
N218 X.286 Z-1.081
N219 X.854 Y10.124 Z-1.082
N220 X1.565 Y10.302 Z-1.083
N221 X39.837 Y22.369 Z-1.158
N222 X41.435 Y22.672 Z-1.161
N223 X43.37 Y22.576 Z-1.165
N224 X45.227 Y22.03 Z-1.168
N225 X46.902 Y21.066 Z-1.172
N226 X48.304 Y19.742 Z-1.175
N227 X49.359 Y18.133 Z-1.179
N228 X50.013 Y16.327 Z-1.182
N229 X50.2 Y14.722 Z-1.185
N230 Y-7.373 Z-1.226
N231 X50.119 Y-8.523 Z-1.229
N232 X49.878 Y-9.649 Z-1.231
N233 X49.481 Y-10.73 Z-1.233
N234 X48.937 Y-11.746 Z-1.235
N235 X48.256 Y-12.675 Z-1.237
N236 X47.451 Y-13.499 Z-1.239
N237 X46.539 Y-14.203 Z-1.241
N238 X45.537 Y-14.771 Z-1.244
N239 X44.466 Y-15.194 Z-1.246
N240 X22.004 Y-22.276 Z-1.29
N241 X20.786 Y-22.56 Z-1.292
N242 X19.538 Y-22.656 Z-1.294
N243 X-19.538 Z-1.367
N244 X-20.786 Y-22.56 Z-1.369
N245 X-22.004 Y-22.276 Z-1.371
N246 X-44.466 Y-15.194 Z-1.415
N247 X-45.537 Y-14.771 Z-1.417
N248 X-46.539 Y-14.203 Z-1.419
N249 X-47.451 Y-13.499 Z-1.422
N250 X-48.256 Y-12.675 Z-1.424
N251 X-48.937 Y-11.746 Z-1.426
N252 X-49.481 Y-10.73 Z-1.428
N253 X-49.878 Y-9.649 Z-1.43
N254 X-50.119 Y-8.523 Z-1.432
N255 X-50.2 Y-7.373 Z-1.434
N256 Y14.722 Z-1.475
N257 X-50.013 Y16.327 Z-1.478
N258 X-49.359 Y18.133 Z-1.482
N259 X-48.304 Y19.742 Z-1.486
N260 X-46.902 Y21.066 Z-1.489
N261 X-45.227 Y22.03 Z-1.493
N262 X-43.37 Y22.576 Z-1.496
N263 X-41.435 Y22.672 Z-1.5
N264 X-39.837 Y22.369 Z-1.503
N265 X-1.565 Y10.302 Z-1.577
N266 X-.854 Y10.124 Z-1.579
N267 X-.286 Y10.055 Z-1.58
N268 X.286 Z-1.581
N269 X.854 Y10.124 Z-1.582
N270 X1.565 Y10.302 Z-1.583
N271 X39.837 Y22.369 Z-1.658
N272 X41.435 Y22.672 Z-1.661
N273 X43.37 Y22.576 Z-1.665
N274 X45.227 Y22.03 Z-1.668
N275 X46.902 Y21.066 Z-1.672
N276 X48.304 Y19.742 Z-1.675
N277 X49.359 Y18.133 Z-1.679
N278 X50.013 Y16.327 Z-1.682
N279 X50.2 Y14.722 Z-1.685
N280 Y-7.373 Z-1.726
N281 X50.119 Y-8.523 Z-1.729
N282 X49.878 Y-9.649 Z-1.731
N283 X49.481 Y-10.73 Z-1.733
N284 X48.937 Y-11.746 Z-1.735
N285 X48.256 Y-12.675 Z-1.737
N286 X47.451 Y-13.499 Z-1.739
N287 X46.539 Y-14.203 Z-1.741
N288 X45.537 Y-14.771 Z-1.744
N289 X44.466 Y-15.194 Z-1.746
N290 X22.004 Y-22.276 Z-1.79
N291 X20.786 Y-22.56 Z-1.792
N292 X19.538 Y-22.656 Z-1.794
N293 X-19.538 Z-1.867
N294 X-20.786 Y-22.56 Z-1.869
N295 X-22.004 Y-22.276 Z-1.871
N296 X-44.466 Y-15.194 Z-1.915
N297 X-45.537 Y-14.771 Z-1.917
N298 X-46.539 Y-14.203 Z-1.919
N299 X-47.451 Y-13.499 Z-1.922
N300 X-48.256 Y-12.675 Z-1.924
N301 X-48.937 Y-11.746 Z-1.926
N302 X-49.481 Y-10.73 Z-1.928
N303 X-49.878 Y-9.649 Z-1.93
N304 X-50.119 Y-8.523 Z-1.932
N305 X-50.2 Y-7.373 Z-1.934
N306 Y14.722 Z-1.975
N307 X-50.013 Y16.327 Z-1.978
N308 X-49.359 Y18.133 Z-1.982
N309 X-48.304 Y19.742 Z-1.986
N310 X-46.902 Y21.066 Z-1.989
N311 X-45.227 Y22.03 Z-1.993
N312 X-43.37 Y22.576 Z-1.996
N313 X-41.435 Y22.672 Z-2.
N314 X-39.837 Y22.369 Z-2.003
N315 X-1.565 Y10.302 Z-2.077
N316 X-.854 Y10.124 Z-2.079
N317 X-.286 Y10.055 Z-2.08
N318 X.286 Z-2.081
N319 X.854 Y10.124 Z-2.082
N320 X1.565 Y10.302 Z-2.083
N321 X39.837 Y22.369 Z-2.158
N322 X41.435 Y22.672 Z-2.161
N323 X43.37 Y22.576 Z-2.165
N324 X45.227 Y22.03 Z-2.168
N325 X46.902 Y21.066 Z-2.172
N326 X48.304 Y19.742 Z-2.175
N327 X49.359 Y18.133 Z-2.179
N328 X50.013 Y16.327 Z-2.182
N329 X50.2 Y14.722 Z-2.185
N330 Y-7.373 Z-2.226
N331 X50.119 Y-8.523 Z-2.229
N332 X49.878 Y-9.649 Z-2.231
N333 X49.481 Y-10.73 Z-2.233
N334 X48.937 Y-11.746 Z-2.235
N335 X48.256 Y-12.675 Z-2.237
N336 X47.451 Y-13.499 Z-2.239
N337 X46.539 Y-14.203 Z-2.241
N338 X45.537 Y-14.771 Z-2.244
N339 X44.466 Y-15.194 Z-2.246
N340 X22.004 Y-22.276 Z-2.29
N341 X20.786 Y-22.56 Z-2.292
N342 X19.538 Y-22.656 Z-2.294
N343 X-19.538 Z-2.367
N344 X-20.786 Y-22.56 Z-2.369
N345 X-22.004 Y-22.276 Z-2.371
N346 X-44.466 Y-15.194 Z-2.415
N347 X-45.537 Y-14.771 Z-2.417
N348 X-46.539 Y-14.203 Z-2.419
N349 X-47.451 Y-13.499 Z-2.422
N350 X-48.256 Y-12.675 Z-2.424
N351 X-48.937 Y-11.746 Z-2.426
N352 X-49.481 Y-10.73 Z-2.428
N353 X-49.878 Y-9.649 Z-2.43
N354 X-50.119 Y-8.523 Z-2.432
N355 X-50.2 Y-7.373 Z-2.434
N356 Y14.722 Z-2.475
N357 X-50.013 Y16.327 Z-2.478
N358 X-49.359 Y18.133 Z-2.482
N359 X-48.304 Y19.742 Z-2.486
N360 X-46.902 Y21.066 Z-2.489
N361 X-45.227 Y22.03 Z-2.493
N362 X-43.37 Y22.576 Z-2.496
N363 X-41.435 Y22.672 Z-2.5
N364 X-39.837 Y22.369 Z-2.503
N365 X-1.565 Y10.302 Z-2.577
N366 X-.854 Y10.124 Z-2.579
N367 X-.286 Y10.055 Z-2.58
N368 X.286 Z-2.581
N369 X.854 Y10.124 Z-2.582
N370 X1.565 Y10.302 Z-2.583
N371 X39.837 Y22.369 Z-2.658
N372 X41.435 Y22.672 Z-2.661
N373 X43.37 Y22.576 Z-2.665
N374 X45.227 Y22.03 Z-2.668
N375 X46.902 Y21.066 Z-2.672
N376 X48.304 Y19.742 Z-2.675
N377 X49.359 Y18.133 Z-2.679
N378 X50.013 Y16.327 Z-2.682
N379 X50.2 Y14.722 Z-2.685
N380 Y-7.373 Z-2.726
N381 X50.119 Y-8.523 Z-2.729
N382 X49.878 Y-9.649 Z-2.731
N383 X49.481 Y-10.73 Z-2.733
N384 X48.937 Y-11.746 Z-2.735
N385 X48.256 Y-12.675 Z-2.737
N386 X47.451 Y-13.499 Z-2.739
N387 X46.539 Y-14.203 Z-2.741
N388 X45.537 Y-14.771 Z-2.744
N389 X44.466 Y-15.194 Z-2.746
N390 X22.004 Y-22.276 Z-2.79
N391 X20.786 Y-22.56 Z-2.792
N392 X19.538 Y-22.656 Z-2.794
N393 X-19.538 Z-2.867
N394 X-20.786 Y-22.56 Z-2.869
N395 X-22.004 Y-22.276 Z-2.871
N396 X-44.466 Y-15.194 Z-2.915
N397 X-45.537 Y-14.771 Z-2.917
N398 X-46.539 Y-14.203 Z-2.919
N399 X-47.451 Y-13.499 Z-2.922
N400 X-48.256 Y-12.675 Z-2.924
N401 X-48.937 Y-11.746 Z-2.926
N402 X-49.481 Y-10.73 Z-2.928
N403 X-49.878 Y-9.649 Z-2.93
N404 X-50.119 Y-8.523 Z-2.932
N405 X-50.2 Y-7.373 Z-2.934
N406 Y14.722 Z-2.975
N407 X-50.013 Y16.327 Z-2.978
N408 X-49.359 Y18.133 Z-2.982
N409 X-48.304 Y19.742 Z-2.986
N410 X-46.902 Y21.066 Z-2.989
N411 X-45.227 Y22.03 Z-2.993
N412 X-43.37 Y22.576 Z-2.996
N413 X-41.435 Y22.672 Z-3.
N414 X-39.837 Y22.369 Z-3.003
N415 X-1.565 Y10.302 Z-3.077
N416 X-.854 Y10.124 Z-3.079
N417 X-.286 Y10.055 Z-3.08
N418 X.286 Z-3.081
N419 X.854 Y10.124 Z-3.082
N420 X1.565 Y10.302 Z-3.083
N421 X39.837 Y22.369 Z-3.158
N422 X41.435 Y22.672 Z-3.161
N423 X43.37 Y22.576 Z-3.165
N424 X45.227 Y22.03 Z-3.168
N425 X46.902 Y21.066 Z-3.172
N426 X48.304 Y19.742 Z-3.175
N427 X49.359 Y18.133 Z-3.179
N428 X50.013 Y16.327 Z-3.182
N429 X50.2 Y14.722 Z-3.185
N430 Y-7.373 Z-3.226
N431 X50.119 Y-8.523 Z-3.229
N432 X49.878 Y-9.649 Z-3.231
N433 X49.481 Y-10.73 Z-3.233
N434 X48.937 Y-11.746 Z-3.235
N435 X48.256 Y-12.675 Z-3.237
N436 X47.451 Y-13.499 Z-3.239
N437 X46.539 Y-14.203 Z-3.241
N438 X45.537 Y-14.771 Z-3.244
N439 X44.466 Y-15.194 Z-3.246
N440 X22.004 Y-22.276 Z-3.29
N441 X20.786 Y-22.56 Z-3.292
N442 X19.538 Y-22.656 Z-3.294
N443 X-19.538 Z-3.367
N444 X-20.786 Y-22.56 Z-3.369
N445 X-22.004 Y-22.276 Z-3.371
N446 X-44.466 Y-15.194 Z-3.415
N447 X-45.537 Y-14.771 Z-3.417
N448 X-46.539 Y-14.203 Z-3.419
N449 X-47.451 Y-13.499 Z-3.422
N450 X-48.256 Y-12.675 Z-3.424
N451 X-48.937 Y-11.746 Z-3.426
N452 X-49.481 Y-10.73 Z-3.428
N453 X-49.878 Y-9.649 Z-3.43
N454 X-50.119 Y-8.523 Z-3.432
N455 X-50.2 Y-7.373 Z-3.434
N456 Y14.722 Z-3.475
N457 X-50.013 Y16.327 Z-3.478
N458 X-49.359 Y18.133 Z-3.482
N459 X-48.304 Y19.742 Z-3.486
N460 X-46.902 Y21.066 Z-3.489
N461 X-45.227 Y22.03 Z-3.493
N462 X-43.37 Y22.576 Z-3.496
N463 X-41.435 Y22.672 Z-3.5
N464 X-39.837 Y22.369 Z-3.503
N465 X-1.565 Y10.302 Z-3.577
N466 X-.854 Y10.124 Z-3.579
N467 X-.286 Y10.055 Z-3.58
N468 X.286 Z-3.581
N469 X.854 Y10.124 Z-3.582
N470 X1.565 Y10.302 Z-3.583
N471 X39.837 Y22.369 Z-3.658
N472 X41.435 Y22.672 Z-3.661
N473 X43.37 Y22.576 Z-3.665
N474 X45.227 Y22.03 Z-3.668
N475 X46.902 Y21.066 Z-3.672
N476 X48.304 Y19.742 Z-3.675
N477 X49.359 Y18.133 Z-3.679
N478 X50.013 Y16.327 Z-3.682
N479 X50.2 Y14.722 Z-3.685
N480 Y-7.373 Z-3.726
N481 X50.119 Y-8.523 Z-3.729
N482 X49.878 Y-9.649 Z-3.731
N483 X49.481 Y-10.73 Z-3.733
N484 X48.937 Y-11.746 Z-3.735
N485 X48.256 Y-12.675 Z-3.737
N486 X47.451 Y-13.499 Z-3.739
N487 X46.539 Y-14.203 Z-3.741
N488 X45.537 Y-14.771 Z-3.744
N489 X44.466 Y-15.194 Z-3.746
N490 X22.004 Y-22.276 Z-3.79
N491 X20.786 Y-22.56 Z-3.792
N492 X19.538 Y-22.656 Z-3.794
N493 X-19.538 Z-3.867
N494 X-20.786 Y-22.56 Z-3.869
N495 X-22.004 Y-22.276 Z-3.871
N496 X-44.466 Y-15.194 Z-3.915
N497 X-45.537 Y-14.771 Z-3.917
N498 X-46.539 Y-14.203 Z-3.919
N499 X-47.451 Y-13.499 Z-3.922
N500 X-48.256 Y-12.675 Z-3.924
N501 X-48.937 Y-11.746 Z-3.926
N502 X-49.481 Y-10.73 Z-3.928
N503 X-49.878 Y-9.649 Z-3.93
N504 X-50.119 Y-8.523 Z-3.932
N505 X-50.2 Y-7.373 Z-3.934
N506 Y14.722 Z-3.975
N507 X-50.013 Y16.327 Z-3.978
N508 X-49.359 Y18.133 Z-3.982
N509 X-48.304 Y19.742 Z-3.986
N510 X-46.902 Y21.066 Z-3.989
N511 X-45.227 Y22.03 Z-3.993
N512 X-43.37 Y22.576 Z-3.996
N513 X-41.435 Y22.672 Z-4.
N514 X-39.837 Y22.369 Z-4.003
N515 X-1.565 Y10.302 Z-4.077
N516 X-.854 Y10.124 Z-4.079
N517 X-.286 Y10.055 Z-4.08
N518 X.286 Z-4.081
N519 X.854 Y10.124 Z-4.082
N520 X1.565 Y10.302 Z-4.083
N521 X39.837 Y22.369 Z-4.158
N522 X41.435 Y22.672 Z-4.161
N523 X43.37 Y22.576 Z-4.165
N524 X45.227 Y22.03 Z-4.168
N525 X46.902 Y21.066 Z-4.172
N526 X48.304 Y19.742 Z-4.175
N527 X49.359 Y18.133 Z-4.179
N528 X50.013 Y16.327 Z-4.182
N529 X50.2 Y14.722 Z-4.185
N530 Y-7.373 Z-4.226
N531 X50.119 Y-8.523 Z-4.229
N532 X49.878 Y-9.649 Z-4.231
N533 X49.481 Y-10.73 Z-4.233
N534 X48.937 Y-11.746 Z-4.235
N535 X48.256 Y-12.675 Z-4.237
N536 X47.451 Y-13.499 Z-4.239
N537 X46.539 Y-14.203 Z-4.241
N538 X45.537 Y-14.771 Z-4.244
N539 X44.466 Y-15.194 Z-4.246
N540 X22.004 Y-22.276 Z-4.29
N541 X20.786 Y-22.56 Z-4.292
N542 X19.538 Y-22.656 Z-4.294
N543 X-19.538 Z-4.367
N544 X-20.786 Y-22.56 Z-4.369
N545 X-22.004 Y-22.276 Z-4.371
N546 X-44.466 Y-15.194 Z-4.415
N547 X-45.537 Y-14.771 Z-4.417
N548 X-46.539 Y-14.203 Z-4.419
N549 X-47.451 Y-13.499 Z-4.422
N550 X-48.256 Y-12.675 Z-4.424
N551 X-48.937 Y-11.746 Z-4.426
N552 X-49.481 Y-10.73 Z-4.428
N553 X-49.878 Y-9.649 Z-4.43
N554 X-50.119 Y-8.523 Z-4.432
N555 X-50.2 Y-7.373 Z-4.434
N556 Y14.722 Z-4.475
N557 X-50.013 Y16.327 Z-4.478
N558 X-49.359 Y18.133 Z-4.482
N559 X-48.304 Y19.742 Z-4.486
N560 X-46.902 Y21.066 Z-4.489
N561 X-45.227 Y22.03 Z-4.493
N562 X-43.37 Y22.576 Z-4.496
N563 X-41.435 Y22.672 Z-4.5
N564 X-39.837 Y22.369 Z-4.503
N565 X-1.565 Y10.302 Z-4.577
N566 X-.854 Y10.124 Z-4.579
N567 X-.286 Y10.055 Z-4.58
N568 X.286 Z-4.581
N569 X.854 Y10.124 Z-4.582
N570 X1.565 Y10.302 Z-4.583
N571 X39.837 Y22.369 Z-4.658
N572 X41.435 Y22.672 Z-4.661
N573 X43.37 Y22.576 Z-4.665
N574 X45.227 Y22.03 Z-4.668
N575 X46.902 Y21.066 Z-4.672
N576 X48.304 Y19.742 Z-4.675
N577 X49.359 Y18.133 Z-4.679
N578 X50.013 Y16.327 Z-4.682
N579 X50.2 Y14.722 Z-4.685
N580 Y-7.373 Z-4.726
N581 X50.119 Y-8.523 Z-4.729
N582 X49.878 Y-9.649 Z-4.731
N583 X49.481 Y-10.73 Z-4.733
N584 X48.937 Y-11.746 Z-4.735
N585 X48.256 Y-12.675 Z-4.737
N586 X47.451 Y-13.499 Z-4.739
N587 X46.539 Y-14.203 Z-4.741
N588 X45.537 Y-14.771 Z-4.744
N589 X44.466 Y-15.194 Z-4.746
N590 X22.004 Y-22.276 Z-4.79
N591 X20.786 Y-22.56 Z-4.792
N592 X19.538 Y-22.656 Z-4.794
N593 X-19.538 Z-4.867
N594 X-20.786 Y-22.56 Z-4.869
N595 X-22.004 Y-22.276 Z-4.871
N596 X-44.466 Y-15.194 Z-4.915
N597 X-45.537 Y-14.771 Z-4.917
N598 X-46.539 Y-14.203 Z-4.919
N599 X-47.451 Y-13.499 Z-4.922
N600 X-48.256 Y-12.675 Z-4.924
N601 X-48.937 Y-11.746 Z-4.926
N602 X-49.481 Y-10.73 Z-4.928
N603 X-49.878 Y-9.649 Z-4.93
N604 X-50.119 Y-8.523 Z-4.932
N605 X-50.2 Y-7.373 Z-4.934
N606 Y14.722 Z-4.975
N607 X-50.013 Y16.327 Z-4.978
N608 X-49.359 Y18.133 Z-4.982
N609 X-48.304 Y19.742 Z-4.986
N610 X-46.902 Y21.066 Z-4.989
N611 X-45.227 Y22.03 Z-4.993
N612 X-43.37 Y22.576 Z-4.996
N613 X-41.435 Y22.672 Z-5.
N614 X-39.837 Y22.369 Z-5.003
N615 X-1.565 Y10.302 Z-5.077
N616 X-.854 Y10.124 Z-5.079
N617 X-.286 Y10.055 Z-5.08
N618 X.286 Z-5.081
N619 X.854 Y10.124 Z-5.082
N620 X1.565 Y10.302 Z-5.083
N621 X39.837 Y22.369 Z-5.158
N622 X41.435 Y22.672 Z-5.161
N623 X43.37 Y22.576 Z-5.165
N624 X45.227 Y22.03 Z-5.168
N625 X46.902 Y21.066 Z-5.172
N626 X48.304 Y19.742 Z-5.175
N627 X49.359 Y18.133 Z-5.179
N628 X50.013 Y16.327 Z-5.182
N629 X50.2 Y14.722 Z-5.185
N630 Y-7.373 Z-5.226
N631 X50.119 Y-8.523 Z-5.229
N632 X49.878 Y-9.649 Z-5.231
N633 X49.481 Y-10.73 Z-5.233
N634 X48.937 Y-11.746 Z-5.235
N635 X48.256 Y-12.675 Z-5.237
N636 X47.451 Y-13.499 Z-5.239
N637 X46.539 Y-14.203 Z-5.241
N638 X45.537 Y-14.771 Z-5.244
N639 X44.466 Y-15.194 Z-5.246
N640 X22.004 Y-22.276 Z-5.29
N641 X20.786 Y-22.56 Z-5.292
N642 X19.538 Y-22.656 Z-5.294
N643 X-19.538 Z-5.367
N644 X-20.786 Y-22.56 Z-5.369
N645 X-22.004 Y-22.276 Z-5.371
N646 X-44.466 Y-15.194 Z-5.415
N647 X-45.537 Y-14.771 Z-5.417
N648 X-46.539 Y-14.203 Z-5.419
N649 X-47.451 Y-13.499 Z-5.422
N650 X-48.256 Y-12.675 Z-5.424
N651 X-48.937 Y-11.746 Z-5.426
N652 X-49.481 Y-10.73 Z-5.428
N653 X-49.878 Y-9.649 Z-5.43
N654 X-50.119 Y-8.523 Z-5.432
N655 X-50.2 Y-7.373 Z-5.434
N656 Y14.722 Z-5.475
N657 X-50.013 Y16.327 Z-5.478
N658 X-49.359 Y18.133 Z-5.482
N659 X-48.304 Y19.742 Z-5.486
N660 X-46.902 Y21.066 Z-5.489
N661 X-45.227 Y22.03 Z-5.493
N662 X-43.37 Y22.576 Z-5.496
N663 X-41.435 Y22.672 Z-5.5
N664 X-39.837 Y22.369 Z-5.503
N665 X-1.565 Y10.302 Z-5.577
N666 X-.854 Y10.124 Z-5.579
N667 X-.286 Y10.055 Z-5.58
N668 X.286 Z-5.581
N669 X.854 Y10.124 Z-5.582
N670 X1.565 Y10.302 Z-5.583
N671 X39.837 Y22.369 Z-5.658
N672 X41.435 Y22.672 Z-5.661
N673 X43.37 Y22.576 Z-5.665
N674 X45.227 Y22.03 Z-5.668
N675 X46.902 Y21.066 Z-5.672
N676 X48.304 Y19.742 Z-5.675
N677 X49.359 Y18.133 Z-5.679
N678 X50.013 Y16.327 Z-5.682
N679 X50.2 Y14.722 Z-5.685
N680 Y-7.373 Z-5.726
N681 X50.119 Y-8.523 Z-5.729
N682 X49.878 Y-9.649 Z-5.731
N683 X49.481 Y-10.73 Z-5.733
N684 X48.937 Y-11.746 Z-5.735
N685 X48.256 Y-12.675 Z-5.737
N686 X47.451 Y-13.499 Z-5.739
N687 X46.539 Y-14.203 Z-5.741
N688 X45.537 Y-14.771 Z-5.744
N689 X44.466 Y-15.194 Z-5.746
N690 X22.004 Y-22.276 Z-5.79
N691 X20.786 Y-22.56 Z-5.792
N692 X19.538 Y-22.656 Z-5.794
N693 X-19.538 Z-5.867
N694 X-20.786 Y-22.56 Z-5.869
N695 X-22.004 Y-22.276 Z-5.871
N696 X-44.466 Y-15.194 Z-5.915
N697 X-45.537 Y-14.771 Z-5.917
N698 X-46.539 Y-14.203 Z-5.919
N699 X-47.451 Y-13.499 Z-5.922
N700 X-48.256 Y-12.675 Z-5.924
N701 X-48.937 Y-11.746 Z-5.926
N702 X-49.481 Y-10.73 Z-5.928
N703 X-49.878 Y-9.649 Z-5.93
N704 X-50.119 Y-8.523 Z-5.932
N705 X-50.2 Y-7.373 Z-5.934
N706 Y14.722 Z-5.975
N707 X-50.013 Y16.327 Z-5.978
N708 X-49.359 Y18.133 Z-5.982
N709 X-48.304 Y19.742 Z-5.986
N710 X-46.902 Y21.066 Z-5.989
N711 X-45.227 Y22.03 Z-5.993
N712 X-43.37 Y22.576 Z-5.996
N713 X-41.435 Y22.672 Z-6.
N714 X-39.837 Y22.369 Z-6.003
N715 X-1.565 Y10.302 Z-6.077
N716 X-.854 Y10.124 Z-6.079
N717 X-.286 Y10.055 Z-6.08
N718 X.286 Z-6.081
N719 X.854 Y10.124 Z-6.082
N720 X1.565 Y10.302 Z-6.083
N721 X39.837 Y22.369 Z-6.158
N722 X41.435 Y22.672 Z-6.161
N723 X43.37 Y22.576 Z-6.165
N724 X45.227 Y22.03 Z-6.168
N725 X46.902 Y21.066 Z-6.172
N726 X48.304 Y19.742 Z-6.175
N727 X49.359 Y18.133 Z-6.179
N728 X50.013 Y16.327 Z-6.182
N729 X50.2 Y14.722 Z-6.185
N730 Y-7.373 Z-6.226
N731 X50.119 Y-8.523 Z-6.229
N732 X49.878 Y-9.649 Z-6.231
N733 X49.481 Y-10.73 Z-6.233
N734 X48.937 Y-11.746 Z-6.235
N735 X48.256 Y-12.675 Z-6.237
N736 X47.451 Y-13.499 Z-6.239
N737 X46.539 Y-14.203 Z-6.241
N738 X45.537 Y-14.771 Z-6.244
N739 X44.466 Y-15.194 Z-6.246
N740 X22.004 Y-22.276 Z-6.29
N741 X20.786 Y-22.56 Z-6.292
N742 X19.538 Y-22.656 Z-6.294
N743 X-19.538 Z-6.367
N744 X-20.786 Y-22.56 Z-6.369
N745 X-22.004 Y-22.276 Z-6.371
N746 X-44.466 Y-15.194 Z-6.415
N747 X-45.537 Y-14.771 Z-6.417
N748 X-46.539 Y-14.203 Z-6.419
N749 X-47.451 Y-13.499 Z-6.422
N750 X-48.256 Y-12.675 Z-6.424
N751 X-48.937 Y-11.746 Z-6.426
N752 X-49.481 Y-10.73 Z-6.428
N753 X-49.878 Y-9.649 Z-6.43
N754 X-50.119 Y-8.523 Z-6.432
N755 X-50.2 Y-7.373 Z-6.434
N756 Y14.722 Z-6.475
N757 X-50.013 Y16.327 Z-6.478
N758 X-49.359 Y18.133 Z-6.482
N759 X-48.304 Y19.742 Z-6.486
N760 X-46.902 Y21.066 Z-6.489
N761 X-45.227 Y22.03 Z-6.493
N762 X-43.37 Y22.576 Z-6.496
N763 X-41.435 Y22.672 Z-6.5
N764 X-39.837 Y22.369 Z-6.503
N765 X-1.565 Y10.302 Z-6.577
N766 X-.854 Y10.124 Z-6.579
N767 X-.286 Y10.055 Z-6.58
N768 X.286 Z-6.581
N769 X.854 Y10.124 Z-6.582
N770 X1.565 Y10.302 Z-6.583
N771 X39.837 Y22.369 Z-6.658
N772 X41.435 Y22.672 Z-6.661
N773 X43.37 Y22.576 Z-6.665
N774 X45.227 Y22.03 Z-6.668
N775 X46.902 Y21.066 Z-6.672
N776 X48.304 Y19.742 Z-6.675
N777 X49.359 Y18.133 Z-6.679
N778 X50.013 Y16.327 Z-6.682
N779 X50.2 Y14.722 Z-6.685
N780 Y-7.373 Z-6.726
N781 X50.119 Y-8.523 Z-6.729
N782 X49.878 Y-9.649 Z-6.731
N783 X49.481 Y-10.73 Z-6.733
N784 X48.937 Y-11.746 Z-6.735
N785 X48.256 Y-12.675 Z-6.737
N786 X47.451 Y-13.499 Z-6.739
N787 X46.539 Y-14.203 Z-6.741
N788 X45.537 Y-14.771 Z-6.744
N789 X44.466 Y-15.194 Z-6.746
N790 X22.004 Y-22.276 Z-6.79
N791 X20.786 Y-22.56 Z-6.792
N792 X19.538 Y-22.656 Z-6.794
N793 X-19.538 Z-6.867
N794 X-20.786 Y-22.56 Z-6.869
N795 X-22.004 Y-22.276 Z-6.871
N796 X-44.466 Y-15.194 Z-6.915
N797 X-45.537 Y-14.771 Z-6.917
N798 X-46.539 Y-14.203 Z-6.919
N799 X-47.451 Y-13.499 Z-6.922
N800 X-48.256 Y-12.675 Z-6.924
N801 X-48.937 Y-11.746 Z-6.926
N802 X-49.481 Y-10.73 Z-6.928
N803 X-49.878 Y-9.649 Z-6.93
N804 X-50.119 Y-8.523 Z-6.932
N805 X-50.2 Y-7.373 Z-6.934
N806 Y14.722 Z-6.975
N807 X-50.013 Y16.327 Z-6.978
N808 X-49.359 Y18.133 Z-6.982
N809 X-48.304 Y19.742 Z-6.986
N810 X-46.902 Y21.066 Z-6.989
N811 X-45.227 Y22.03 Z-6.993
N812 X-43.37 Y22.576 Z-6.996
N813 X-41.435 Y22.672 Z-7.
N814 X-39.837 Y22.369 Z-7.003
N815 X-1.565 Y10.302 Z-7.077
N816 X-.854 Y10.124 Z-7.079
N817 X-.286 Y10.055 Z-7.08
N818 X.286 Z-7.081
N819 X.854 Y10.124 Z-7.082
N820 X1.565 Y10.302 Z-7.083
N821 X39.837 Y22.369 Z-7.158
N822 X41.435 Y22.672 Z-7.161
N823 X43.37 Y22.576 Z-7.165
N824 X45.227 Y22.03 Z-7.168
N825 X46.902 Y21.066 Z-7.172
N826 X48.304 Y19.742 Z-7.175
N827 X49.359 Y18.133 Z-7.179
N828 X50.013 Y16.327 Z-7.182
N829 X50.2 Y14.722 Z-7.185
N830 Y-7.373 Z-7.226
N831 X50.119 Y-8.523 Z-7.229
N832 X49.878 Y-9.649 Z-7.231
N833 X49.481 Y-10.73 Z-7.233
N834 X48.937 Y-11.746 Z-7.235
N835 X48.256 Y-12.675 Z-7.237
N836 X47.451 Y-13.499 Z-7.239
N837 X46.539 Y-14.203 Z-7.241
N838 X45.537 Y-14.771 Z-7.244
N839 X44.466 Y-15.194 Z-7.246
N840 X22.004 Y-22.276 Z-7.29
N841 X20.786 Y-22.56 Z-7.292
N842 X19.538 Y-22.656 Z-7.294
N843 X-19.538 Z-7.367
N844 X-20.786 Y-22.56 Z-7.369
N845 X-22.004 Y-22.276 Z-7.371
N846 X-44.466 Y-15.194 Z-7.415
N847 X-45.537 Y-14.771 Z-7.417
N848 X-46.539 Y-14.203 Z-7.419
N849 X-47.451 Y-13.499 Z-7.422
N850 X-48.256 Y-12.675 Z-7.424
N851 X-48.937 Y-11.746 Z-7.426
N852 X-49.481 Y-10.73 Z-7.428
N853 X-49.878 Y-9.649 Z-7.43
N854 X-50.119 Y-8.523 Z-7.432
N855 X-50.2 Y-7.373 Z-7.434
N856 Y14.722 Z-7.475
N857 X-50.013 Y16.327 Z-7.478
N858 X-49.359 Y18.133 Z-7.482
N859 X-48.304 Y19.742 Z-7.486
N860 X-46.902 Y21.066 Z-7.489
N861 X-45.227 Y22.03 Z-7.493
N862 X-43.37 Y22.576 Z-7.496
N863 X-41.435 Y22.672 Z-7.5
N864 X-39.837 Y22.369 Z-7.503
N865 X-1.565 Y10.302 Z-7.577
N866 X-.854 Y10.124 Z-7.579
N867 X-.286 Y10.055 Z-7.58
N868 X.286 Z-7.581
N869 X.854 Y10.124 Z-7.582
N870 X1.565 Y10.302 Z-7.583
N871 X39.837 Y22.369 Z-7.658
N872 X41.435 Y22.672 Z-7.661
N873 X43.37 Y22.576 Z-7.665
N874 X45.227 Y22.03 Z-7.668
N875 X46.902 Y21.066 Z-7.672
N876 X48.304 Y19.742 Z-7.675
N877 X49.359 Y18.133 Z-7.679
N878 X50.013 Y16.327 Z-7.682
N879 X50.2 Y14.722 Z-7.685
N880 Y-7.373 Z-7.726
N881 X50.119 Y-8.523 Z-7.729
N882 X49.878 Y-9.649 Z-7.731
N883 X49.481 Y-10.73 Z-7.733
N884 X48.937 Y-11.746 Z-7.735
N885 X48.256 Y-12.675 Z-7.737
N886 X47.451 Y-13.499 Z-7.739
N887 X46.539 Y-14.203 Z-7.741
N888 X45.537 Y-14.771 Z-7.744
N889 X44.466 Y-15.194 Z-7.746
N890 X22.004 Y-22.276 Z-7.79
N891 X20.786 Y-22.56 Z-7.792
N892 X19.538 Y-22.656 Z-7.794
N893 X-19.538 Z-7.867
N894 X-20.786 Y-22.56 Z-7.869
N895 X-22.004 Y-22.276 Z-7.871
N896 X-44.466 Y-15.194 Z-7.915
N897 X-45.537 Y-14.771 Z-7.917
N898 X-46.539 Y-14.203 Z-7.919
N899 X-47.451 Y-13.499 Z-7.922
N900 X-48.256 Y-12.675 Z-7.924
N901 X-48.937 Y-11.746 Z-7.926
N902 X-49.481 Y-10.73 Z-7.928
N903 X-49.878 Y-9.649 Z-7.93
N904 X-50.119 Y-8.523 Z-7.932
N905 X-50.2 Y-7.373 Z-7.934
N906 Y14.722 Z-7.975
N907 X-50.013 Y16.327 Z-7.978
N908 X-49.359 Y18.133 Z-7.982
N909 X-48.304 Y19.742 Z-7.986
N910 X-46.902 Y21.066 Z-7.989
N911 X-45.227 Y22.03 Z-7.993
N912 X-43.37 Y22.576 Z-7.996
N913 X-41.435 Y22.672 Z-8.
N914 X-39.837 Y22.369 Z-8.003
N915 X-1.565 Y10.302 Z-8.077
N916 X-.854 Y10.124 Z-8.079
N917 X-.286 Y10.055 Z-8.08
N918 X.286 Z-8.081
N919 X.854 Y10.124 Z-8.082
N920 X1.565 Y10.302 Z-8.083
N921 X39.837 Y22.369 Z-8.158
N922 X41.435 Y22.672 Z-8.161
N923 X43.37 Y22.576 Z-8.165
N924 X45.227 Y22.03 Z-8.168
N925 X46.902 Y21.066 Z-8.172
N926 X48.304 Y19.742 Z-8.175
N927 X49.359 Y18.133 Z-8.179
N928 X50.013 Y16.327 Z-8.182
N929 X50.2 Y14.722 Z-8.185
N930 Y-7.373 Z-8.226
N931 X50.119 Y-8.523 Z-8.229
N932 X49.878 Y-9.649 Z-8.231
N933 X49.481 Y-10.73 Z-8.233
N934 X48.937 Y-11.746 Z-8.235
N935 X48.256 Y-12.675 Z-8.237
N936 X47.451 Y-13.499 Z-8.239
N937 X46.539 Y-14.203 Z-8.241
N938 X45.537 Y-14.771 Z-8.244
N939 X44.466 Y-15.194 Z-8.246
N940 X22.004 Y-22.276 Z-8.29
N941 X20.786 Y-22.56 Z-8.292
N942 X19.538 Y-22.656 Z-8.294
N943 X-19.538 Z-8.367
N944 X-20.786 Y-22.56 Z-8.369
N945 X-22.004 Y-22.276 Z-8.371
N946 X-44.466 Y-15.194 Z-8.415
N947 X-45.537 Y-14.771 Z-8.417
N948 X-46.539 Y-14.203 Z-8.419
N949 X-47.451 Y-13.499 Z-8.422
N950 X-48.256 Y-12.675 Z-8.424
N951 X-48.937 Y-11.746 Z-8.426
N952 X-49.481 Y-10.73 Z-8.428
N953 X-49.878 Y-9.649 Z-8.43
N954 X-50.119 Y-8.523 Z-8.432
N955 X-50.2 Y-7.373 Z-8.434
N956 Y14.722 Z-8.475
N957 X-50.013 Y16.327 Z-8.478
N958 X-49.359 Y18.133 Z-8.482
N959 X-48.304 Y19.742 Z-8.486
N960 X-46.902 Y21.066 Z-8.489
N961 X-45.227 Y22.03 Z-8.493
N962 X-43.37 Y22.576 Z-8.496
N963 X-41.435 Y22.672 Z-8.5
N964 X-39.837 Y22.369 Z-8.503
N965 X-1.565 Y10.302 Z-8.577
N966 X-.854 Y10.124 Z-8.579
N967 X-.286 Y10.055 Z-8.58
N968 X.286 Z-8.581
N969 X.854 Y10.124 Z-8.582
N970 X1.565 Y10.302 Z-8.583
N971 X39.837 Y22.369 Z-8.658
N972 X41.435 Y22.672 Z-8.661
N973 X43.37 Y22.576 Z-8.665
N974 X45.227 Y22.03 Z-8.668
N975 X46.902 Y21.066 Z-8.672
N976 X48.304 Y19.742 Z-8.675
N977 X49.359 Y18.133 Z-8.679
N978 X50.013 Y16.327 Z-8.682
N979 X50.2 Y14.722 Z-8.685
N980 Y-7.373 Z-8.726
N981 X50.119 Y-8.523 Z-8.729
N982 X49.878 Y-9.649 Z-8.731
N983 X49.481 Y-10.73 Z-8.733
N984 X48.937 Y-11.746 Z-8.735
N985 X48.256 Y-12.675 Z-8.737
N986 X47.451 Y-13.499 Z-8.739
N987 X46.539 Y-14.203 Z-8.741
N988 X45.537 Y-14.771 Z-8.744
N989 X44.466 Y-15.194 Z-8.746
N990 X22.004 Y-22.276 Z-8.79
N991 X20.786 Y-22.56 Z-8.792
N992 X19.538 Y-22.656 Z-8.794
N993 X-19.538 Z-8.867
N994 X-20.786 Y-22.56 Z-8.869
N995 X-22.004 Y-22.276 Z-8.871
N996 X-44.466 Y-15.194 Z-8.915
N997 X-45.537 Y-14.771 Z-8.917
N998 X-46.539 Y-14.203 Z-8.919
N999 X-47.451 Y-13.499 Z-8.922
N1000 X-48.256 Y-12.675 Z-8.924
N1001 X-48.937 Y-11.746 Z-8.926
N1002 X-49.481 Y-10.73 Z-8.928
N1003 X-49.878 Y-9.649 Z-8.93
N1004 X-50.119 Y-8.523 Z-8.932
N1005 X-50.2 Y-7.373 Z-8.934
N1006 Y14.722 Z-8.975
N1007 X-50.013 Y16.327 Z-8.978
N1008 X-49.359 Y18.133 Z-8.982
N1009 X-48.304 Y19.742 Z-8.986
N1010 X-46.902 Y21.066 Z-8.989
N1011 X-45.227 Y22.03 Z-8.993
N1012 X-43.37 Y22.576 Z-8.996
N1013 X-41.435 Y22.672 Z-9.
N1014 X-39.837 Y22.369 Z-9.003
N1015 X-1.565 Y10.302 Z-9.077
N1016 X-.854 Y10.124 Z-9.079
N1017 X-.286 Y10.055 Z-9.08
N1018 X.286 Z-9.081
N1019 X.854 Y10.124 Z-9.082
N1020 X1.565 Y10.302 Z-9.083
N1021 X39.837 Y22.369 Z-9.158
N1022 X41.435 Y22.672 Z-9.161
N1023 X43.37 Y22.576 Z-9.165
N1024 X45.227 Y22.03 Z-9.168
N1025 X46.902 Y21.066 Z-9.172
N1026 X48.304 Y19.742 Z-9.175
N1027 X49.359 Y18.133 Z-9.179
N1028 X50.013 Y16.327 Z-9.182
N1029 X50.2 Y14.722 Z-9.185
N1030 Y-7.373 Z-9.226
N1031 X50.119 Y-8.523 Z-9.229
N1032 X49.878 Y-9.649 Z-9.231
N1033 X49.481 Y-10.73 Z-9.233
N1034 X48.937 Y-11.746 Z-9.235
N1035 X48.256 Y-12.675 Z-9.237
N1036 X47.451 Y-13.499 Z-9.239
N1037 X46.539 Y-14.203 Z-9.241
N1038 X45.537 Y-14.771 Z-9.244
N1039 X44.466 Y-15.194 Z-9.246
N1040 X22.004 Y-22.276 Z-9.29
N1041 X20.786 Y-22.56 Z-9.292
N1042 X19.538 Y-22.656 Z-9.294
N1043 X-19.538 Z-9.367
N1044 X-20.786 Y-22.56 Z-9.369
N1045 X-22.004 Y-22.276 Z-9.371
N1046 X-44.466 Y-15.194 Z-9.415
N1047 X-45.537 Y-14.771 Z-9.417
N1048 X-46.539 Y-14.203 Z-9.419
N1049 X-47.451 Y-13.499 Z-9.422
N1050 X-48.256 Y-12.675 Z-9.424
N1051 X-48.937 Y-11.746 Z-9.426
N1052 X-49.481 Y-10.73 Z-9.428
N1053 X-49.878 Y-9.649 Z-9.43
N1054 X-50.119 Y-8.523 Z-9.432
N1055 X-50.2 Y-7.373 Z-9.434
N1056 Y14.722 Z-9.475
N1057 X-50.013 Y16.327 Z-9.478
N1058 X-49.359 Y18.133 Z-9.482
N1059 X-48.304 Y19.742 Z-9.486
N1060 X-46.902 Y21.066 Z-9.489
N1061 X-45.227 Y22.03 Z-9.493
N1062 X-43.37 Y22.576 Z-9.496
N1063 X-41.435 Y22.672 Z-9.5
N1064 X-39.837 Y22.369 Z-9.503
N1065 X-1.565 Y10.302 Z-9.577
N1066 X-.854 Y10.124 Z-9.579
N1067 X-.286 Y10.055 Z-9.58
N1068 X.286 Z-9.581
N1069 X.854 Y10.124 Z-9.582
N1070 X1.565 Y10.302 Z-9.583
N1071 X39.837 Y22.369 Z-9.658
N1072 X41.435 Y22.672 Z-9.661
N1073 X43.37 Y22.576 Z-9.665
N1074 X45.227 Y22.03 Z-9.668
N1075 X46.902 Y21.066 Z-9.672
N1076 X48.304 Y19.742 Z-9.675
N1077 X49.359 Y18.133 Z-9.679
N1078 X50.013 Y16.327 Z-9.682
N1079 X50.2 Y14.722 Z-9.685
N1080 Y-7.373 Z-9.726
N1081 X50.119 Y-8.523 Z-9.729
N1082 X49.878 Y-9.649 Z-9.731
N1083 X49.481 Y-10.73 Z-9.733
N1084 X48.937 Y-11.746 Z-9.735
N1085 X48.256 Y-12.675 Z-9.737
N1086 X47.451 Y-13.499 Z-9.739
N1087 X46.539 Y-14.203 Z-9.741
N1088 X45.537 Y-14.771 Z-9.744
N1089 X44.466 Y-15.194 Z-9.746
N1090 X22.004 Y-22.276 Z-9.79
N1091 X20.786 Y-22.56 Z-9.792
N1092 X19.538 Y-22.656 Z-9.794
N1093 X-19.538 Z-9.867
N1094 X-20.786 Y-22.56 Z-9.869
N1095 X-22.004 Y-22.276 Z-9.871
N1096 X-44.466 Y-15.194 Z-9.915
N1097 X-45.537 Y-14.771 Z-9.917
N1098 X-46.539 Y-14.203 Z-9.919
N1099 X-47.451 Y-13.499 Z-9.922
N1100 X-48.256 Y-12.675 Z-9.924
N1101 X-48.937 Y-11.746 Z-9.926
N1102 X-49.481 Y-10.73 Z-9.928
N1103 X-49.878 Y-9.649 Z-9.93
N1104 X-50.119 Y-8.523 Z-9.932
N1105 X-50.2 Y-7.373 Z-9.934
N1106 Y14.722 Z-9.975
N1107 X-50.013 Y16.327 Z-9.978
N1108 X-49.359 Y18.133 Z-9.982
N1109 X-48.304 Y19.742 Z-9.986
N1110 X-46.902 Y21.066 Z-9.989
N1111 X-45.227 Y22.03 Z-9.993
N1112 X-43.37 Y22.576 Z-9.996
N1113 X-41.435 Y22.672 Z-10.
N1114 X-39.837 Y22.369 Z-10.003
N1115 X-1.565 Y10.302 Z-10.077
N1116 X-.854 Y10.124 Z-10.079
N1117 X-.286 Y10.055 Z-10.08
N1118 X.286 Z-10.081
N1119 X.854 Y10.124 Z-10.082
N1120 X1.565 Y10.302 Z-10.083
N1121 X39.837 Y22.369 Z-10.158
N1122 X41.435 Y22.672 Z-10.161
N1123 X43.37 Y22.576 Z-10.165
N1124 X45.227 Y22.03 Z-10.168
N1125 X46.902 Y21.066 Z-10.172
N1126 X48.304 Y19.742 Z-10.175
N1127 X49.359 Y18.133 Z-10.179
N1128 X50.013 Y16.327 Z-10.182
N1129 X50.2 Y14.722 Z-10.185
N1130 Y-7.373 Z-10.226
N1131 X50.119 Y-8.523 Z-10.229
N1132 X49.878 Y-9.649 Z-10.231
N1133 X49.481 Y-10.73 Z-10.233
N1134 X48.937 Y-11.746 Z-10.235
N1135 X48.256 Y-12.675 Z-10.237
N1136 X47.451 Y-13.499 Z-10.239
N1137 X46.539 Y-14.203 Z-10.241
N1138 X45.537 Y-14.771 Z-10.244
N1139 X44.466 Y-15.194 Z-10.246
N1140 X22.004 Y-22.276 Z-10.29
N1141 X20.786 Y-22.56 Z-10.292
N1142 X19.538 Y-22.656 Z-10.294
N1143 X-19.538 Z-10.367
N1144 X-20.786 Y-22.56 Z-10.369
N1145 X-22.004 Y-22.276 Z-10.371
N1146 X-44.466 Y-15.194 Z-10.415
N1147 X-45.537 Y-14.771 Z-10.417
N1148 X-46.539 Y-14.203 Z-10.419
N1149 X-47.451 Y-13.499 Z-10.422
N1150 X-48.256 Y-12.675 Z-10.424
N1151 X-48.937 Y-11.746 Z-10.426
N1152 X-49.481 Y-10.73 Z-10.428
N1153 X-49.878 Y-9.649 Z-10.43
N1154 X-50.119 Y-8.523 Z-10.432
N1155 X-50.2 Y-7.373 Z-10.434
N1156 Y14.722 Z-10.475
N1157 X-50.013 Y16.327 Z-10.478
N1158 X-49.359 Y18.133 Z-10.482
N1159 X-48.304 Y19.742 Z-10.486
N1160 X-46.902 Y21.066 Z-10.489
N1161 X-45.227 Y22.03 Z-10.493
N1162 X-43.37 Y22.576 Z-10.496
N1163 X-41.435 Y22.672 Z-10.5
N1164 X-39.837 Y22.369 Z-10.503
N1165 X-1.565 Y10.302 Z-10.577
N1166 X-.854 Y10.124 Z-10.579
N1167 X-.286 Y10.055 Z-10.58
N1168 X.286 Z-10.581
N1169 X.854 Y10.124 Z-10.582
N1170 X1.565 Y10.302 Z-10.583
N1171 X39.837 Y22.369 Z-10.658
N1172 X41.435 Y22.672 Z-10.661
N1173 X43.37 Y22.576 Z-10.665
N1174 X45.227 Y22.03 Z-10.668
N1175 X46.902 Y21.066 Z-10.672
N1176 X48.304 Y19.742 Z-10.675
N1177 X49.359 Y18.133 Z-10.679
N1178 X50.013 Y16.327 Z-10.682
N1179 X50.2 Y14.722 Z-10.685
N1180 Y-7.373 Z-10.726
N1181 X50.119 Y-8.523 Z-10.729
N1182 X49.878 Y-9.649 Z-10.731
N1183 X49.481 Y-10.73 Z-10.733
N1184 X48.937 Y-11.746 Z-10.735
N1185 X48.256 Y-12.675 Z-10.737
N1186 X47.451 Y-13.499 Z-10.739
N1187 X46.539 Y-14.203 Z-10.741
N1188 X45.537 Y-14.771 Z-10.744
N1189 X44.466 Y-15.194 Z-10.746
N1190 X22.004 Y-22.276 Z-10.79
N1191 X20.786 Y-22.56 Z-10.792
N1192 X19.538 Y-22.656 Z-10.794
N1193 X-19.538 Z-10.867
N1194 X-20.786 Y-22.56 Z-10.869
N1195 X-22.004 Y-22.276 Z-10.871
N1196 X-44.466 Y-15.194 Z-10.915
N1197 X-45.537 Y-14.771 Z-10.917
N1198 X-46.539 Y-14.203 Z-10.919
N1199 X-47.451 Y-13.499 Z-10.922
N1200 X-48.256 Y-12.675 Z-10.924
N1201 X-48.937 Y-11.746 Z-10.926
N1202 X-49.481 Y-10.73 Z-10.928
N1203 X-49.878 Y-9.649 Z-10.93
N1204 X-50.119 Y-8.523 Z-10.932
N1205 X-50.2 Y-7.373 Z-10.934
N1206 Y14.722 Z-10.975
N1207 X-50.013 Y16.327 Z-10.978
N1208 X-49.359 Y18.133 Z-10.982
N1209 X-48.304 Y19.742 Z-10.986
N1210 X-46.902 Y21.066 Z-10.989
N1211 X-45.227 Y22.03 Z-10.993
N1212 X-43.37 Y22.576 Z-10.996
N1213 X-41.435 Y22.672 Z-11.
N1214 X-39.837 Y22.369 Z-11.003
N1215 X-1.565 Y10.302 Z-11.077
N1216 X-.854 Y10.124 Z-11.079
N1217 X-.286 Y10.055 Z-11.08
N1218 X.286 Z-11.081
N1219 X.854 Y10.124 Z-11.082
N1220 X1.565 Y10.302 Z-11.083
N1221 X39.837 Y22.369 Z-11.158
N1222 X41.435 Y22.672 Z-11.161
N1223 X43.37 Y22.576 Z-11.165
N1224 X45.227 Y22.03 Z-11.168
N1225 X46.902 Y21.066 Z-11.172
N1226 X48.304 Y19.742 Z-11.175
N1227 X49.359 Y18.133 Z-11.179
N1228 X50.013 Y16.327 Z-11.182
N1229 X50.2 Y14.722 Z-11.185
N1230 Y-7.373 Z-11.226
N1231 X50.119 Y-8.523 Z-11.229
N1232 X49.878 Y-9.649 Z-11.231
N1233 X49.481 Y-10.73 Z-11.233
N1234 X48.937 Y-11.746 Z-11.235
N1235 X48.256 Y-12.675 Z-11.237
N1236 X47.451 Y-13.499 Z-11.239
N1237 X46.539 Y-14.203 Z-11.241
N1238 X45.537 Y-14.771 Z-11.244
N1239 X44.466 Y-15.194 Z-11.246
N1240 X22.004 Y-22.276 Z-11.29
N1241 X20.786 Y-22.56 Z-11.292
N1242 X19.538 Y-22.656 Z-11.294
N1243 X-19.538 Z-11.367
N1244 X-20.786 Y-22.56 Z-11.369
N1245 X-22.004 Y-22.276 Z-11.371
N1246 X-44.466 Y-15.194 Z-11.415
N1247 X-45.537 Y-14.771 Z-11.417
N1248 X-46.539 Y-14.203 Z-11.419
N1249 X-47.451 Y-13.499 Z-11.422
N1250 X-48.256 Y-12.675 Z-11.424
N1251 X-48.937 Y-11.746 Z-11.426
N1252 X-49.481 Y-10.73 Z-11.428
N1253 X-49.878 Y-9.649 Z-11.43
N1254 X-50.119 Y-8.523 Z-11.432
N1255 X-50.2 Y-7.373 Z-11.434
N1256 Y14.722 Z-11.475
N1257 X-50.013 Y16.327 Z-11.478
N1258 X-49.359 Y18.133 Z-11.482
N1259 X-48.304 Y19.742 Z-11.486
N1260 X-46.902 Y21.066 Z-11.489
N1261 X-45.227 Y22.03 Z-11.493
N1262 X-43.37 Y22.576 Z-11.496
N1263 X-41.435 Y22.672 Z-11.5
N1264 X-39.837 Y22.369 Z-11.503
N1265 X-1.565 Y10.302 Z-11.577
N1266 X-.854 Y10.124 Z-11.579
N1267 X-.286 Y10.055 Z-11.58
N1268 X.286 Z-11.581
N1269 X.854 Y10.124 Z-11.582
N1270 X1.565 Y10.302 Z-11.583
N1271 X39.837 Y22.369 Z-11.658
N1272 X41.435 Y22.672 Z-11.661
N1273 X43.37 Y22.576 Z-11.665
N1274 X45.227 Y22.03 Z-11.668
N1275 X46.902 Y21.066 Z-11.672
N1276 X48.304 Y19.742 Z-11.675
N1277 X49.359 Y18.133 Z-11.679
N1278 X50.013 Y16.327 Z-11.682
N1279 X50.2 Y14.722 Z-11.685
N1280 Y-7.373 Z-11.726
N1281 X50.119 Y-8.523 Z-11.729
N1282 X49.878 Y-9.649 Z-11.731
N1283 X49.481 Y-10.73 Z-11.733
N1284 X48.937 Y-11.746 Z-11.735
N1285 X48.256 Y-12.675 Z-11.737
N1286 X47.451 Y-13.499 Z-11.739
N1287 X46.539 Y-14.203 Z-11.741
N1288 X45.537 Y-14.771 Z-11.744
N1289 X44.466 Y-15.194 Z-11.746
N1290 X22.004 Y-22.276 Z-11.79
N1291 X20.786 Y-22.56 Z-11.792
N1292 X19.538 Y-22.656 Z-11.794
N1293 X-19.538 Z-11.867
N1294 X-20.786 Y-22.56 Z-11.869
N1295 X-22.004 Y-22.276 Z-11.871
N1296 X-44.466 Y-15.194 Z-11.915
N1297 X-45.537 Y-14.771 Z-11.917
N1298 X-46.539 Y-14.203 Z-11.919
N1299 X-47.451 Y-13.499 Z-11.922
N1300 X-48.256 Y-12.675 Z-11.924
N1301 X-48.937 Y-11.746 Z-11.926
N1302 X-49.481 Y-10.73 Z-11.928
N1303 X-49.878 Y-9.649 Z-11.93
N1304 X-50.119 Y-8.523 Z-11.932
N1305 X-50.2 Y-7.373 Z-11.934
N1306 Y14.722 Z-11.975
N1307 X-50.013 Y16.327 Z-11.978
N1308 X-49.359 Y18.133 Z-11.982
N1309 X-48.304 Y19.742 Z-11.986
N1310 X-46.902 Y21.066 Z-11.989
N1311 X-45.227 Y22.03 Z-11.993
N1312 X-43.37 Y22.576 Z-11.996
N1313 X-41.435 Y22.672 Z-12.
N1314 X-39.837 Y22.369 Z-12.003
N1315 X-1.565 Y10.302 Z-12.077
N1316 X-.854 Y10.124 Z-12.079
N1317 X-.286 Y10.055 Z-12.08
N1318 X.286 Z-12.081
N1319 X.854 Y10.124 Z-12.082
N1320 X1.565 Y10.302 Z-12.083
N1321 X39.837 Y22.369 Z-12.158
N1322 X41.435 Y22.672 Z-12.161
N1323 X43.37 Y22.576 Z-12.165
N1324 X45.227 Y22.03 Z-12.168
N1325 X46.902 Y21.066 Z-12.172
N1326 X48.304 Y19.742 Z-12.175
N1327 X49.359 Y18.133 Z-12.179
N1328 X50.013 Y16.327 Z-12.182
N1329 X50.2 Y14.722 Z-12.185
N1330 Y-7.373 Z-12.226
N1331 X50.119 Y-8.523 Z-12.229
N1332 X49.878 Y-9.649 Z-12.231
N1333 X49.481 Y-10.73 Z-12.233
N1334 X48.937 Y-11.746 Z-12.235
N1335 X48.256 Y-12.675 Z-12.237
N1336 X47.451 Y-13.499 Z-12.239
N1337 X46.539 Y-14.203 Z-12.241
N1338 X45.537 Y-14.771 Z-12.244
N1339 X44.466 Y-15.194 Z-12.246
N1340 X22.004 Y-22.276 Z-12.29
N1341 X20.786 Y-22.56 Z-12.292
N1342 X19.538 Y-22.656 Z-12.294
N1343 X-19.538 Z-12.367
N1344 X-20.786 Y-22.56 Z-12.369
N1345 X-22.004 Y-22.276 Z-12.371
N1346 X-44.466 Y-15.194 Z-12.415
N1347 X-45.537 Y-14.771 Z-12.417
N1348 X-46.539 Y-14.203 Z-12.419
N1349 X-47.451 Y-13.499 Z-12.422
N1350 X-48.256 Y-12.675 Z-12.424
N1351 X-48.937 Y-11.746 Z-12.426
N1352 X-49.481 Y-10.73 Z-12.428
N1353 X-49.878 Y-9.649 Z-12.43
N1354 X-50.119 Y-8.523 Z-12.432
N1355 X-50.2 Y-7.373 Z-12.434
N1356 Y14.722 Z-12.475
N1357 X-50.013 Y16.327 Z-12.478
N1358 X-49.359 Y18.133 Z-12.482
N1359 X-48.304 Y19.742 Z-12.486
N1360 X-46.902 Y21.066 Z-12.489
N1361 X-45.227 Y22.03 Z-12.493
N1362 X-43.37 Y22.576 Z-12.496
N1363 X-41.435 Y22.672 Z-12.5
N1364 X-39.837 Y22.369 Z-12.503
N1365 X-1.565 Y10.302 Z-12.577
N1366 X-.854 Y10.124 Z-12.579
N1367 X-.286 Y10.055 Z-12.58
N1368 X.286 Z-12.581
N1369 X.854 Y10.124 Z-12.582
N1370 X1.565 Y10.302 Z-12.583
N1371 X39.837 Y22.369 Z-12.658
N1372 X41.435 Y22.672 Z-12.661
N1373 X43.37 Y22.576 Z-12.665
N1374 X45.227 Y22.03 Z-12.668
N1375 X46.902 Y21.066 Z-12.672
N1376 X48.304 Y19.742 Z-12.675
N1377 X49.359 Y18.133 Z-12.679
N1378 X50.013 Y16.327 Z-12.682
N1379 X50.2 Y14.722 Z-12.685
N1380 Y-7.373 Z-12.726
N1381 X50.119 Y-8.523 Z-12.729
N1382 X49.878 Y-9.649 Z-12.731
N1383 X49.481 Y-10.73 Z-12.733
N1384 X48.937 Y-11.746 Z-12.735
N1385 X48.256 Y-12.675 Z-12.737
N1386 X47.451 Y-13.499 Z-12.739
N1387 X46.539 Y-14.203 Z-12.741
N1388 X45.537 Y-14.771 Z-12.744
N1389 X44.466 Y-15.194 Z-12.746
N1390 X22.004 Y-22.276 Z-12.79
N1391 X20.786 Y-22.56 Z-12.792
N1392 X19.538 Y-22.656 Z-12.794
N1393 X-19.538 Z-12.867
N1394 X-20.786 Y-22.56 Z-12.869
N1395 X-22.004 Y-22.276 Z-12.871
N1396 X-44.466 Y-15.194 Z-12.915
N1397 X-45.537 Y-14.771 Z-12.917
N1398 X-46.539 Y-14.203 Z-12.919
N1399 X-47.451 Y-13.499 Z-12.922
N1400 X-48.256 Y-12.675 Z-12.924
N1401 X-48.937 Y-11.746 Z-12.926
N1402 X-49.481 Y-10.73 Z-12.928
N1403 X-49.878 Y-9.649 Z-12.93
N1404 X-50.119 Y-8.523 Z-12.932
N1405 X-50.2 Y-7.373 Z-12.934
N1406 Y14.722 Z-12.975
N1407 X-50.013 Y16.327 Z-12.978
N1408 X-49.359 Y18.133 Z-12.982
N1409 X-48.304 Y19.742 Z-12.986
N1410 X-46.902 Y21.066 Z-12.989
N1411 X-45.227 Y22.03 Z-12.993
N1412 X-43.37 Y22.576 Z-12.996
N1413 X-41.435 Y22.672 Z-13.
N1414 X-39.837 Y22.369 Z-13.003
N1415 X-1.565 Y10.302 Z-13.077
N1416 X-.854 Y10.124 Z-13.079
N1417 X-.286 Y10.055 Z-13.08
N1418 X.286 Z-13.081
N1419 X.854 Y10.124 Z-13.082
N1420 X1.565 Y10.302 Z-13.083
N1421 X39.837 Y22.369 Z-13.158
N1422 X41.435 Y22.672 Z-13.161
N1423 X43.37 Y22.576 Z-13.165
N1424 X45.227 Y22.03 Z-13.168
N1425 X46.902 Y21.066 Z-13.172
N1426 X48.304 Y19.742 Z-13.175
N1427 X49.359 Y18.133 Z-13.179
N1428 X50.013 Y16.327 Z-13.182
N1429 X50.2 Y14.722 Z-13.185
N1430 Y-7.373 Z-13.226
N1431 X50.119 Y-8.523 Z-13.229
N1432 X49.878 Y-9.649 Z-13.231
N1433 X49.481 Y-10.73 Z-13.233
N1434 X48.937 Y-11.746 Z-13.235
N1435 X48.256 Y-12.675 Z-13.237
N1436 X47.451 Y-13.499 Z-13.239
N1437 X46.539 Y-14.203 Z-13.241
N1438 X45.537 Y-14.771 Z-13.244
N1439 X44.466 Y-15.194 Z-13.246
N1440 X22.004 Y-22.276 Z-13.29
N1441 X20.786 Y-22.56 Z-13.292
N1442 X19.538 Y-22.656 Z-13.294
N1443 X-19.538 Z-13.367
N1444 X-20.786 Y-22.56 Z-13.369
N1445 X-22.004 Y-22.276 Z-13.371
N1446 X-44.466 Y-15.194 Z-13.415
N1447 X-45.537 Y-14.771 Z-13.417
N1448 X-46.539 Y-14.203 Z-13.419
N1449 X-47.451 Y-13.499 Z-13.422
N1450 X-48.256 Y-12.675 Z-13.424
N1451 X-48.937 Y-11.746 Z-13.426
N1452 X-49.481 Y-10.73 Z-13.428
N1453 X-49.878 Y-9.649 Z-13.43
N1454 X-50.119 Y-8.523 Z-13.432
N1455 X-50.2 Y-7.373 Z-13.434
N1456 Y14.722 Z-13.475
N1457 X-50.013 Y16.327 Z-13.478
N1458 X-49.359 Y18.133 Z-13.482
N1459 X-48.304 Y19.742 Z-13.486
N1460 X-46.902 Y21.066 Z-13.489
N1461 X-45.227 Y22.03 Z-13.493
N1462 X-43.37 Y22.576 Z-13.496
N1463 X-41.435 Y22.672 Z-13.5
N1464 X-39.837 Y22.369 Z-13.503
N1465 X-1.565 Y10.302 Z-13.577
N1466 X-.854 Y10.124 Z-13.579
N1467 X-.286 Y10.055 Z-13.58
N1468 X.286 Z-13.581
N1469 X.854 Y10.124 Z-13.582
N1470 X1.565 Y10.302 Z-13.583
N1471 X39.837 Y22.369 Z-13.658
N1472 X41.435 Y22.672 Z-13.661
N1473 X43.37 Y22.576 Z-13.665
N1474 X45.227 Y22.03 Z-13.668
N1475 X46.902 Y21.066 Z-13.672
N1476 X48.304 Y19.742 Z-13.675
N1477 X49.359 Y18.133 Z-13.679
N1478 X50.013 Y16.327 Z-13.682
N1479 X50.2 Y14.722 Z-13.685
N1480 Y-7.373 Z-13.726
N1481 X50.119 Y-8.523 Z-13.729
N1482 X49.878 Y-9.649 Z-13.731
N1483 X49.481 Y-10.73 Z-13.733
N1484 X48.937 Y-11.746 Z-13.735
N1485 X48.256 Y-12.675 Z-13.737
N1486 X47.451 Y-13.499 Z-13.739
N1487 X46.539 Y-14.203 Z-13.741
N1488 X45.537 Y-14.771 Z-13.744
N1489 X44.466 Y-15.194 Z-13.746
N1490 X22.004 Y-22.276 Z-13.79
N1491 X20.786 Y-22.56 Z-13.792
N1492 X19.538 Y-22.656 Z-13.794
N1493 X-19.538 Z-13.867
N1494 X-20.786 Y-22.56 Z-13.869
N1495 X-22.004 Y-22.276 Z-13.871
N1496 X-44.466 Y-15.194 Z-13.915
N1497 X-45.537 Y-14.771 Z-13.917
N1498 X-46.539 Y-14.203 Z-13.919
N1499 X-47.451 Y-13.499 Z-13.922
N1500 X-48.256 Y-12.675 Z-13.924
N1501 X-48.937 Y-11.746 Z-13.926
N1502 X-49.481 Y-10.73 Z-13.928
N1503 X-49.878 Y-9.649 Z-13.93
N1504 X-50.119 Y-8.523 Z-13.932
N1505 X-50.2 Y-7.373 Z-13.934
N1506 Y14.722 Z-13.975
N1507 X-50.013 Y16.327 Z-13.978
N1508 X-49.359 Y18.133 Z-13.982
N1509 X-48.304 Y19.742 Z-13.986
N1510 X-46.902 Y21.066 Z-13.989
N1511 X-45.227 Y22.03 Z-13.993
N1512 X-43.37 Y22.576 Z-13.996
N1513 X-41.435 Y22.672 Z-14.
N1514 X-39.837 Y22.369 Z-14.003
N1515 X-1.565 Y10.302 Z-14.077
N1516 X-.854 Y10.124 Z-14.079
N1517 X-.286 Y10.055 Z-14.08
N1518 X.286 Z-14.081
N1519 X.854 Y10.124 Z-14.082
N1520 X1.565 Y10.302 Z-14.083
N1521 X39.837 Y22.369 Z-14.158
N1522 X41.435 Y22.672 Z-14.161
N1523 X43.37 Y22.576 Z-14.165
N1524 X45.227 Y22.03 Z-14.168
N1525 X46.902 Y21.066 Z-14.172
N1526 X48.304 Y19.742 Z-14.175
N1527 X49.359 Y18.133 Z-14.179
N1528 X50.013 Y16.327 Z-14.182
N1529 X50.2 Y14.722 Z-14.185
N1530 Y-7.373 Z-14.226
N1531 X50.119 Y-8.523 Z-14.229
N1532 X49.878 Y-9.649 Z-14.231
N1533 X49.481 Y-10.73 Z-14.233
N1534 X48.937 Y-11.746 Z-14.235
N1535 X48.256 Y-12.675 Z-14.237
N1536 X47.451 Y-13.499 Z-14.239
N1537 X46.539 Y-14.203 Z-14.241
N1538 X45.537 Y-14.771 Z-14.244
N1539 X44.466 Y-15.194 Z-14.246
N1540 X22.004 Y-22.276 Z-14.29
N1541 X20.786 Y-22.56 Z-14.292
N1542 X19.538 Y-22.656 Z-14.294
N1543 X-19.538 Z-14.367
N1544 X-20.786 Y-22.56 Z-14.369
N1545 X-22.004 Y-22.276 Z-14.371
N1546 X-44.466 Y-15.194 Z-14.415
N1547 X-45.537 Y-14.771 Z-14.417
N1548 X-46.539 Y-14.203 Z-14.419
N1549 X-47.451 Y-13.499 Z-14.422
N1550 X-48.256 Y-12.675 Z-14.424
N1551 X-48.937 Y-11.746 Z-14.426
N1552 X-49.481 Y-10.73 Z-14.428
N1553 X-49.878 Y-9.649 Z-14.43
N1554 X-50.119 Y-8.523 Z-14.432
N1555 X-50.2 Y-7.373 Z-14.434
N1556 Y14.722 Z-14.475
N1557 X-50.013 Y16.327 Z-14.478
N1558 X-49.359 Y18.133 Z-14.482
N1559 X-48.304 Y19.742 Z-14.486
N1560 X-46.902 Y21.066 Z-14.489
N1561 X-45.227 Y22.03 Z-14.493
N1562 X-43.37 Y22.576 Z-14.496
N1563 X-41.435 Y22.672 Z-14.5
N1564 X-39.837 Y22.369 Z-14.503
N1565 X-1.565 Y10.302 Z-14.577
N1566 X-.854 Y10.124 Z-14.579
N1567 X-.286 Y10.055 Z-14.58
N1568 X.286 Z-14.581
N1569 X.854 Y10.124 Z-14.582
N1570 X1.565 Y10.302 Z-14.583
N1571 X39.837 Y22.369 Z-14.658
N1572 X41.435 Y22.672 Z-14.661
N1573 X43.37 Y22.576 Z-14.665
N1574 X45.227 Y22.03 Z-14.668
N1575 X46.902 Y21.066 Z-14.672
N1576 X48.304 Y19.742 Z-14.675
N1577 X49.359 Y18.133 Z-14.679
N1578 X50.013 Y16.327 Z-14.682
N1579 X50.2 Y14.722 Z-14.685
N1580 Y-7.373 Z-14.726
N1581 X50.119 Y-8.523 Z-14.729
N1582 X49.878 Y-9.649 Z-14.731
N1583 X49.481 Y-10.73 Z-14.733
N1584 X48.937 Y-11.746 Z-14.735
N1585 X48.256 Y-12.675 Z-14.737
N1586 X47.451 Y-13.499 Z-14.739
N1587 X46.539 Y-14.203 Z-14.741
N1588 X45.537 Y-14.771 Z-14.744
N1589 X44.466 Y-15.194 Z-14.746
N1590 X22.004 Y-22.276 Z-14.79
N1591 X20.786 Y-22.56 Z-14.792
N1592 X19.538 Y-22.656 Z-14.794
N1593 X-19.538 Z-14.867
N1594 X-20.786 Y-22.56 Z-14.869
N1595 X-22.004 Y-22.276 Z-14.871
N1596 X-44.466 Y-15.194 Z-14.915
N1597 X-45.537 Y-14.771 Z-14.917
N1598 X-46.539 Y-14.203 Z-14.919
N1599 X-47.451 Y-13.499 Z-14.922
N1600 X-48.256 Y-12.675 Z-14.924
N1601 X-48.937 Y-11.746 Z-14.926
N1602 X-49.481 Y-10.73 Z-14.928
N1603 X-49.878 Y-9.649 Z-14.93
N1604 X-50.119 Y-8.523 Z-14.932
N1605 X-50.2 Y-7.373 Z-14.934
N1606 Y14.722 Z-14.975
N1607 X-50.013 Y16.327 Z-14.978
N1608 X-49.359 Y18.133 Z-14.982
N1609 X-48.304 Y19.742 Z-14.986
N1610 X-46.902 Y21.066 Z-14.989
N1611 X-45.227 Y22.03 Z-14.993
N1612 X-43.37 Y22.576 Z-14.996
N1613 X-41.435 Y22.672 Z-15.
N1614 X-39.837 Y22.369 Z-15.003
N1615 X-1.565 Y10.302 Z-15.077
N1616 X-.854 Y10.124 Z-15.079
N1617 X-.286 Y10.055 Z-15.08
N1618 X.286 Z-15.081
N1619 X.854 Y10.124 Z-15.082
N1620 X1.565 Y10.302 Z-15.083
N1621 X39.837 Y22.369 Z-15.158
N1622 X41.435 Y22.672 Z-15.161
N1623 X43.37 Y22.576 Z-15.165
N1624 X45.227 Y22.03 Z-15.168
N1625 X46.902 Y21.066 Z-15.172
N1626 X48.304 Y19.742 Z-15.175
N1627 X49.359 Y18.133 Z-15.179
N1628 X50.013 Y16.327 Z-15.182
N1629 X50.2 Y14.722 Z-15.185
N1630 Y-7.373 Z-15.226
N1631 X50.119 Y-8.523 Z-15.229
N1632 X49.878 Y-9.649 Z-15.231
N1633 X49.481 Y-10.73 Z-15.233
N1634 X48.937 Y-11.746 Z-15.235
N1635 X48.256 Y-12.675 Z-15.237
N1636 X47.451 Y-13.499 Z-15.239
N1637 X46.539 Y-14.203 Z-15.241
N1638 X45.537 Y-14.771 Z-15.244
N1639 X44.466 Y-15.194 Z-15.246
N1640 X22.004 Y-22.276 Z-15.29
N1641 X20.786 Y-22.56 Z-15.292
N1642 X19.538 Y-22.656 Z-15.294
N1643 X-19.538 Z-15.367
N1644 X-20.786 Y-22.56 Z-15.369
N1645 X-22.004 Y-22.276 Z-15.371
N1646 X-44.466 Y-15.194 Z-15.415
N1647 X-45.537 Y-14.771 Z-15.417
N1648 X-46.539 Y-14.203 Z-15.419
N1649 X-47.451 Y-13.499 Z-15.422
N1650 X-48.256 Y-12.675 Z-15.424
N1651 X-48.937 Y-11.746 Z-15.426
N1652 X-49.481 Y-10.73 Z-15.428
N1653 X-49.878 Y-9.649 Z-15.43
N1654 X-50.119 Y-8.523 Z-15.432
N1655 X-50.2 Y-7.373 Z-15.434
N1656 Y14.722 Z-15.475
N1657 X-50.013 Y16.327 Z-15.478
N1658 X-49.359 Y18.133 Z-15.482
N1659 X-48.304 Y19.742 Z-15.486
N1660 X-46.902 Y21.066 Z-15.489
N1661 X-45.227 Y22.03 Z-15.493
N1662 X-43.37 Y22.576 Z-15.496
N1663 X-41.435 Y22.672 Z-15.5
N1664 X-39.837 Y22.369 Z-15.503
N1665 X-1.565 Y10.302 Z-15.577
N1666 X-.854 Y10.124 Z-15.579
N1667 X-.286 Y10.055 Z-15.58
N1668 X.286 Z-15.581
N1669 X.854 Y10.124 Z-15.582
N1670 X1.565 Y10.302 Z-15.583
N1671 X39.837 Y22.369 Z-15.658
N1672 X41.435 Y22.672 Z-15.661
N1673 X43.37 Y22.576 Z-15.665
N1674 X45.227 Y22.03 Z-15.668
N1675 X46.902 Y21.066 Z-15.672
N1676 X48.304 Y19.742 Z-15.675
N1677 X49.359 Y18.133 Z-15.679
N1678 X50.013 Y16.327 Z-15.682
N1679 X50.2 Y14.722 Z-15.685
N1680 Y-7.373 Z-15.726
N1681 X50.119 Y-8.523 Z-15.729
N1682 X49.878 Y-9.649 Z-15.731
N1683 X49.481 Y-10.73 Z-15.733
N1684 X48.937 Y-11.746 Z-15.735
N1685 X48.256 Y-12.675 Z-15.737
N1686 X47.451 Y-13.499 Z-15.739
N1687 X46.539 Y-14.203 Z-15.741
N1688 X45.537 Y-14.771 Z-15.744
N1689 X44.466 Y-15.194 Z-15.746
N1690 X22.004 Y-22.276 Z-15.79
N1691 X20.786 Y-22.56 Z-15.792
N1692 X19.538 Y-22.656 Z-15.794
N1693 X-19.538 Z-15.867
N1694 X-20.786 Y-22.56 Z-15.869
N1695 X-22.004 Y-22.276 Z-15.871
N1696 X-44.466 Y-15.194 Z-15.915
N1697 X-45.537 Y-14.771 Z-15.917
N1698 X-46.539 Y-14.203 Z-15.919
N1699 X-47.451 Y-13.499 Z-15.922
N1700 X-48.256 Y-12.675 Z-15.924
N1701 X-48.937 Y-11.746 Z-15.926
N1702 X-49.481 Y-10.73 Z-15.928
N1703 X-49.878 Y-9.649 Z-15.93
N1704 X-50.119 Y-8.523 Z-15.932
N1705 X-50.2 Y-7.373 Z-15.934
N1706 Y14.722 Z-15.975
N1707 X-50.013 Y16.327 Z-15.978
N1708 X-49.359 Y18.133 Z-15.982
N1709 X-48.304 Y19.742 Z-15.986
N1710 X-46.902 Y21.066 Z-15.989
N1711 X-45.227 Y22.03 Z-15.993
N1712 X-43.37 Y22.576 Z-15.996
N1713 X-41.435 Y22.672 Z-16.
N1714 X-39.837 Y22.369 Z-16.003
N1715 X-1.565 Y10.302 Z-16.077
N1716 X-.854 Y10.124 Z-16.079
N1717 X-.286 Y10.055 Z-16.08
N1718 X.286 Z-16.081
N1719 X.854 Y10.124 Z-16.082
N1720 X1.565 Y10.302 Z-16.083
N1721 X39.837 Y22.369 Z-16.158
N1722 X41.435 Y22.672 Z-16.161
N1723 X43.37 Y22.576 Z-16.165
N1724 X45.227 Y22.03 Z-16.168
N1725 X46.902 Y21.066 Z-16.172
N1726 X48.304 Y19.742 Z-16.175
N1727 X49.359 Y18.133 Z-16.179
N1728 X50.013 Y16.327 Z-16.182
N1729 X50.2 Y14.722 Z-16.185
N1730 Y-7.373 Z-16.226
N1731 X50.119 Y-8.523 Z-16.229
N1732 X49.878 Y-9.649 Z-16.231
N1733 X49.481 Y-10.73 Z-16.233
N1734 X48.937 Y-11.746 Z-16.235
N1735 X48.256 Y-12.675 Z-16.237
N1736 X47.451 Y-13.499 Z-16.239
N1737 X46.539 Y-14.203 Z-16.241
N1738 X45.537 Y-14.771 Z-16.244
N1739 X44.466 Y-15.194 Z-16.246
N1740 X22.004 Y-22.276 Z-16.29
N1741 X20.786 Y-22.56 Z-16.292
N1742 X19.538 Y-22.656 Z-16.294
N1743 X-19.538 Z-16.367
N1744 X-20.786 Y-22.56 Z-16.369
N1745 X-22.004 Y-22.276 Z-16.371
N1746 X-44.466 Y-15.194 Z-16.415
N1747 X-45.537 Y-14.771 Z-16.417
N1748 X-46.539 Y-14.203 Z-16.419
N1749 X-47.451 Y-13.499 Z-16.422
N1750 X-48.256 Y-12.675 Z-16.424
N1751 X-48.937 Y-11.746 Z-16.426
N1752 X-49.481 Y-10.73 Z-16.428
N1753 X-49.878 Y-9.649 Z-16.43
N1754 X-50.119 Y-8.523 Z-16.432
N1755 X-50.2 Y-7.373 Z-16.434
N1756 Y14.722 Z-16.475
N1757 X-50.013 Y16.327 Z-16.478
N1758 X-49.359 Y18.133 Z-16.482
N1759 X-48.304 Y19.742 Z-16.486
N1760 X-46.902 Y21.066 Z-16.489
N1761 X-45.227 Y22.03 Z-16.493
N1762 X-43.37 Y22.576 Z-16.496
N1763 X-41.435 Y22.672 Z-16.5
N1764 X-39.837 Y22.369 Z-16.503
N1765 X-1.565 Y10.302 Z-16.577
N1766 X-.854 Y10.124 Z-16.579
N1767 X-.286 Y10.055 Z-16.58
N1768 X.286 Z-16.581
N1769 X.854 Y10.124 Z-16.582
N1770 X1.565 Y10.302 Z-16.583
N1771 X39.837 Y22.369 Z-16.658
N1772 X41.435 Y22.672 Z-16.661
N1773 X43.37 Y22.576 Z-16.665
N1774 X45.227 Y22.03 Z-16.668
N1775 X46.902 Y21.066 Z-16.672
N1776 X48.304 Y19.742 Z-16.675
N1777 X49.359 Y18.133 Z-16.679
N1778 X50.013 Y16.327 Z-16.682
N1779 X50.2 Y14.722 Z-16.685
N1780 Y-7.373 Z-16.726
N1781 X50.119 Y-8.523 Z-16.729
N1782 X49.878 Y-9.649 Z-16.731
N1783 X49.481 Y-10.73 Z-16.733
N1784 X48.937 Y-11.746 Z-16.735
N1785 X48.256 Y-12.675 Z-16.737
N1786 X47.451 Y-13.499 Z-16.739
N1787 X46.539 Y-14.203 Z-16.741
N1788 X45.537 Y-14.771 Z-16.744
N1789 X44.466 Y-15.194 Z-16.746
N1790 X22.004 Y-22.276 Z-16.79
N1791 X20.786 Y-22.56 Z-16.792
N1792 X19.538 Y-22.656 Z-16.794
N1793 X-19.538 Z-16.867
N1794 X-20.786 Y-22.56 Z-16.869
N1795 X-22.004 Y-22.276 Z-16.871
N1796 X-44.466 Y-15.194 Z-16.915
N1797 X-45.537 Y-14.771 Z-16.917
N1798 X-46.539 Y-14.203 Z-16.919
N1799 X-47.451 Y-13.499 Z-16.922
N1800 X-48.256 Y-12.675 Z-16.924
N1801 X-48.937 Y-11.746 Z-16.926
N1802 X-49.481 Y-10.73 Z-16.928
N1803 X-49.878 Y-9.649 Z-16.93
N1804 X-50.119 Y-8.523 Z-16.932
N1805 X-50.2 Y-7.373 Z-16.934
N1806 Y14.722 Z-16.975
N1807 X-50.013 Y16.327 Z-16.978
N1808 X-49.359 Y18.133 Z-16.982
N1809 X-48.304 Y19.742 Z-16.986
N1810 X-46.902 Y21.066 Z-16.989
N1811 X-45.227 Y22.03 Z-16.993
N1812 X-43.37 Y22.576 Z-16.996
N1813 X-41.435 Y22.672 Z-17.
N1814 X-39.837 Y22.369 Z-17.003
N1815 X-1.565 Y10.302 Z-17.077
N1816 X-.854 Y10.124 Z-17.079
N1817 X-.286 Y10.055 Z-17.08
N1818 X.286 Z-17.081
N1819 X.854 Y10.124 Z-17.082
N1820 X1.565 Y10.302 Z-17.083
N1821 X39.837 Y22.369 Z-17.158
N1822 X41.435 Y22.672 Z-17.161
N1823 X43.37 Y22.576 Z-17.165
N1824 X45.227 Y22.03 Z-17.168
N1825 X46.902 Y21.066 Z-17.172
N1826 X48.304 Y19.742 Z-17.175
N1827 X49.359 Y18.133 Z-17.179
N1828 X50.013 Y16.327 Z-17.182
N1829 X50.2 Y14.722 Z-17.185
N1830 Y-7.373 Z-17.226
N1831 X50.119 Y-8.523 Z-17.229
N1832 X49.878 Y-9.649 Z-17.231
N1833 X49.481 Y-10.73 Z-17.233
N1834 X48.937 Y-11.746 Z-17.235
N1835 X48.256 Y-12.675 Z-17.237
N1836 X47.451 Y-13.499 Z-17.239
N1837 X46.539 Y-14.203 Z-17.241
N1838 X45.537 Y-14.771 Z-17.244
N1839 X44.466 Y-15.194 Z-17.246
N1840 X22.004 Y-22.276 Z-17.29
N1841 X20.786 Y-22.56 Z-17.292
N1842 X19.538 Y-22.656 Z-17.294
N1843 X-19.538 Z-17.367
N1844 X-20.786 Y-22.56 Z-17.369
N1845 X-22.004 Y-22.276 Z-17.371
N1846 X-44.466 Y-15.194 Z-17.415
N1847 X-45.537 Y-14.771 Z-17.417
N1848 X-46.539 Y-14.203 Z-17.419
N1849 X-47.451 Y-13.499 Z-17.422
N1850 X-48.256 Y-12.675 Z-17.424
N1851 X-48.937 Y-11.746 Z-17.426
N1852 X-49.481 Y-10.73 Z-17.428
N1853 X-49.878 Y-9.649 Z-17.43
N1854 X-50.119 Y-8.523 Z-17.432
N1855 X-50.2 Y-7.373 Z-17.434
N1856 Y14.722 Z-17.475
N1857 X-50.013 Y16.327 Z-17.478
N1858 X-49.359 Y18.133 Z-17.482
N1859 X-48.304 Y19.742 Z-17.486
N1860 X-46.902 Y21.066 Z-17.489
N1861 X-45.227 Y22.03 Z-17.493
N1862 X-43.37 Y22.576 Z-17.496
N1863 X-41.435 Y22.672 Z-17.5
N1864 X-39.837 Y22.369 Z-17.503
N1865 X-1.565 Y10.302 Z-17.577
N1866 X-.854 Y10.124 Z-17.579
N1867 X-.286 Y10.055 Z-17.58
N1868 X.286 Z-17.581
N1869 X.854 Y10.124 Z-17.582
N1870 X1.565 Y10.302 Z-17.583
N1871 X39.837 Y22.369 Z-17.658
N1872 X41.435 Y22.672 Z-17.661
N1873 X43.37 Y22.576 Z-17.665
N1874 X45.227 Y22.03 Z-17.668
N1875 X46.902 Y21.066 Z-17.672
N1876 X48.304 Y19.742 Z-17.675
N1877 X49.359 Y18.133 Z-17.679
N1878 X50.013 Y16.327 Z-17.682
N1879 X50.2 Y14.722 Z-17.685
N1880 Y-7.373 Z-17.726
N1881 X50.119 Y-8.523 Z-17.729
N1882 X49.878 Y-9.649 Z-17.731
N1883 X49.481 Y-10.73 Z-17.733
N1884 X48.937 Y-11.746 Z-17.735
N1885 X48.256 Y-12.675 Z-17.737
N1886 X47.451 Y-13.499 Z-17.739
N1887 X46.539 Y-14.203 Z-17.741
N1888 X45.537 Y-14.771 Z-17.744
N1889 X44.466 Y-15.194 Z-17.746
N1890 X22.004 Y-22.276 Z-17.79
N1891 X20.786 Y-22.56 Z-17.792
N1892 X19.538 Y-22.656 Z-17.794
N1893 X-19.538 Z-17.867
N1894 X-20.786 Y-22.56 Z-17.869
N1895 X-22.004 Y-22.276 Z-17.871
N1896 X-44.466 Y-15.194 Z-17.915
N1897 X-45.537 Y-14.771 Z-17.917
N1898 X-46.539 Y-14.203 Z-17.919
N1899 X-47.451 Y-13.499 Z-17.922
N1900 X-48.256 Y-12.675 Z-17.924
N1901 X-48.937 Y-11.746 Z-17.926
N1902 X-49.481 Y-10.73 Z-17.928
N1903 X-49.878 Y-9.649 Z-17.93
N1904 X-50.119 Y-8.523 Z-17.932
N1905 X-50.2 Y-7.373 Z-17.934
N1906 Y14.722 Z-17.975
N1907 X-50.013 Y16.327 Z-17.978
N1908 X-49.359 Y18.133 Z-17.982
N1909 X-48.304 Y19.742 Z-17.986
N1910 X-46.902 Y21.066 Z-17.989
N1911 X-45.227 Y22.03 Z-17.993
N1912 X-43.37 Y22.576 Z-17.996
N1913 X-41.435 Y22.672 Z-18.
N1914 X-39.837 Y22.369 Z-18.003
N1915 X-1.565 Y10.302 Z-18.077
N1916 X-.854 Y10.124 Z-18.079
N1917 X-.286 Y10.055 Z-18.08
N1918 X.286 Z-18.081
N1919 X.854 Y10.124 Z-18.082
N1920 X1.565 Y10.302 Z-18.083
N1921 X39.837 Y22.369 Z-18.158
N1922 X41.435 Y22.672 Z-18.161
N1923 X43.37 Y22.576 Z-18.165
N1924 X45.227 Y22.03 Z-18.168
N1925 X46.902 Y21.066 Z-18.172
N1926 X48.304 Y19.742 Z-18.175
N1927 X49.359 Y18.133 Z-18.179
N1928 X50.013 Y16.327 Z-18.182
N1929 X50.2 Y14.722 Z-18.185
N1930 Y-7.373 Z-18.226
N1931 X50.119 Y-8.523 Z-18.229
N1932 X49.878 Y-9.649 Z-18.231
N1933 X49.481 Y-10.73 Z-18.233
N1934 X48.937 Y-11.746 Z-18.235
N1935 X48.256 Y-12.675 Z-18.237
N1936 X47.451 Y-13.499 Z-18.239
N1937 X46.539 Y-14.203 Z-18.241
N1938 X45.537 Y-14.771 Z-18.244
N1939 X44.466 Y-15.194 Z-18.246
N1940 X22.004 Y-22.276 Z-18.29
N1941 X20.786 Y-22.56 Z-18.292
N1942 X19.538 Y-22.656 Z-18.294
N1943 X-19.538 Z-18.367
N1944 X-20.786 Y-22.56 Z-18.369
N1945 X-22.004 Y-22.276 Z-18.371
N1946 X-44.466 Y-15.194 Z-18.415
N1947 X-45.537 Y-14.771 Z-18.417
N1948 X-46.539 Y-14.203 Z-18.419
N1949 X-47.451 Y-13.499 Z-18.422
N1950 X-48.256 Y-12.675 Z-18.424
N1951 X-48.937 Y-11.746 Z-18.426
N1952 X-49.481 Y-10.73 Z-18.428
N1953 X-49.878 Y-9.649 Z-18.43
N1954 X-50.119 Y-8.523 Z-18.432
N1955 X-50.2 Y-7.373 Z-18.434
N1956 Y14.722 Z-18.475
N1957 X-50.013 Y16.327 Z-18.478
N1958 X-49.359 Y18.133 Z-18.482
N1959 X-48.304 Y19.742 Z-18.486
N1960 X-46.902 Y21.066 Z-18.489
N1961 X-45.227 Y22.03 Z-18.493
N1962 X-43.37 Y22.576 Z-18.496
N1963 X-41.435 Y22.672 Z-18.5
N1964 X-39.837 Y22.369 Z-18.503
N1965 X-1.565 Y10.302 Z-18.577
N1966 X-.854 Y10.124 Z-18.579
N1967 X-.286 Y10.055 Z-18.58
N1968 X.286 Z-18.581
N1969 X.854 Y10.124 Z-18.582
N1970 X1.565 Y10.302 Z-18.583
N1971 X39.837 Y22.369 Z-18.658
N1972 X41.435 Y22.672 Z-18.661
N1973 X43.37 Y22.576 Z-18.665
N1974 X45.227 Y22.03 Z-18.668
N1975 X46.902 Y21.066 Z-18.672
N1976 X48.304 Y19.742 Z-18.675
N1977 X49.359 Y18.133 Z-18.679
N1978 X50.013 Y16.327 Z-18.682
N1979 X50.2 Y14.722 Z-18.685
N1980 Y-7.373 Z-18.726
N1981 X50.119 Y-8.523 Z-18.729
N1982 X49.878 Y-9.649 Z-18.731
N1983 X49.481 Y-10.73 Z-18.733
N1984 X48.937 Y-11.746 Z-18.735
N1985 X48.256 Y-12.675 Z-18.737
N1986 X47.451 Y-13.499 Z-18.739
N1987 X46.539 Y-14.203 Z-18.741
N1988 X45.537 Y-14.771 Z-18.744
N1989 X44.466 Y-15.194 Z-18.746
N1990 X22.004 Y-22.276 Z-18.79
N1991 X20.786 Y-22.56 Z-18.792
N1992 X19.538 Y-22.656 Z-18.794
N1993 X-19.538 Z-18.867
N1994 X-20.786 Y-22.56 Z-18.869
N1995 X-22.004 Y-22.276 Z-18.871
N1996 X-44.466 Y-15.194 Z-18.915
N1997 X-45.537 Y-14.771 Z-18.917
N1998 X-46.539 Y-14.203 Z-18.919
N1999 X-47.451 Y-13.499 Z-18.922
N2000 X-48.256 Y-12.675 Z-18.924
N2001 X-48.937 Y-11.746 Z-18.926
N2002 X-49.481 Y-10.73 Z-18.928
N2003 X-49.878 Y-9.649 Z-18.93
N2004 X-50.119 Y-8.523 Z-18.932
N2005 X-50.2 Y-7.373 Z-18.934
N2006 Y14.722 Z-18.975
N2007 X-50.013 Y16.327 Z-18.978
N2008 X-49.359 Y18.133 Z-18.982
N2009 X-48.304 Y19.742 Z-18.986
N2010 X-46.902 Y21.066 Z-18.989
N2011 X-45.227 Y22.03 Z-18.993
N2012 X-43.37 Y22.576 Z-18.996
N2013 X-41.435 Y22.672 Z-19.
N2014 X-39.837 Y22.369 Z-19.003
N2015 X-1.565 Y10.302
N2016 X-.854 Y10.124
N2017 X-.286 Y10.055
N2018 X.286
N2019 X.854 Y10.124
N2020 X1.565 Y10.302
N2021 X39.837 Y22.369
N2022 X41.435 Y22.672
N2023 X43.37 Y22.576
N2024 X45.227 Y22.03
N2025 X46.902 Y21.066
N2026 X48.304 Y19.742
N2027 X49.359 Y18.133
N2028 X50.013 Y16.327
N2029 X50.2 Y14.722
N2030 Y-7.373
N2031 G02 X44.466 Y-15.194 CR=8.2
N2032 G01 X22.004 Y-22.276
N2033 G02 X19.538 Y-22.656 CR=8.2
N2034 G01 X-19.538
N2035 G02 X-22.004 Y-22.276 CR=8.2
N2036 G01 X-44.466 Y-15.194
N2037 G02 X-50.2 Y-7.373 CR=8.2
N2038 G01 Y14.722
N2039 X-50.013 Y16.327
N2040 X-49.359 Y18.133
N2041 X-48.304 Y19.742
N2042 X-46.902 Y21.066
N2043 X-45.227 Y22.03
N2044 X-43.37 Y22.576
N2045 X-41.435 Y22.672
N2046 X-39.837 Y22.369
N2047 X-38.883 Y22.068
N2048 G03 X-38.121 Y22.135 CR=1.
N2049 G40 G01 X-33.508 Y24.536
N2050 G00 Z.5
N2051 Z25.
N2052 M05
N2053 M09

N2054 M01
N2055 T12 D12
N2056 L6
N2057 MSG("12MM CRB 2FL 25 LOC")
N2058 S2000 M03
N2059 G00 G90 X-45.103 Y29.029
N2060 Z25. M08
N2061 Z3.997
N2062 G01 Z-19.003 F300.
N2063 G41 X-41.589 Y23.873 F225.
N2064 G03 X-40.82 Y23.369 CR=1.2
N2065 G01 X-39.641 Y23.146 F300.
N2066 X-1.347 Y11.072
N2067 X-.708 Y10.912
N2068 X-.237 Y10.855
N2069 X.237
N2070 X.708 Y10.912
N2071 X1.347 Y11.072
N2072 X39.641 Y23.146
N2073 X41.38 Y23.475
N2074 X43.505 Y23.37
N2075 X45.544 Y22.77
N2076 X47.383 Y21.713
N2077 X48.922 Y20.259
N2078 X50.079 Y18.493
N2079 X50.797 Y16.512
N2080 X51. Y14.769
N2081 Y-7.373
N2082 G02 X44.706 Y-15.957 CR=9.
N2083 G01 X22.245 Y-23.039
N2084 G02 X19.538 Y-23.456 CR=9.
N2085 G01 X-19.538
N2086 G02 X-22.245 Y-23.039 CR=9.
N2087 G01 X-44.706 Y-15.957
N2088 G02 X-51. Y-7.373 CR=9.
N2089 G01 Y14.769
N2090 X-50.797 Y16.512
N2091 X-50.079 Y18.493
N2092 X-48.922 Y20.259
N2093 X-47.383 Y21.713
N2094 X-45.544 Y22.77
N2095 X-43.505 Y23.37
N2096 X-41.38 Y23.475
N2097 X-39.641 Y23.146
N2098 X-38.497 Y22.785
N2099 G03 X-37.582 Y22.865 CR=1.2
N2100 G40 G01 X-32.047 Y25.746
N2101 G00 Z3.997
N2102 Z25.
N2103 M05
N2104 M09
N2105 M30
