190883 -2S.MPF
;This Post Processor is distributed on an "AS IS" BASIS,
;WITHOUT WARRANTIES OR CONDITIONS OF ANY KIND, either express or implied.
N1 T10 D10
N2 L6
N3 MSG("10MM CRB 2FL 22 LOC")
N4 G60
N5 G64
N6 SOFT
N7 G00 G17 G90 G54
N8 S2500 M03
N9 G00 G90 X-9.778 Y-2.278
N10 Z62.32 M08
N11 Z40.897
N12 G01 Z38.397 F600.
N13 X33.272 Z36.946
N14 X33.845 Y-2.082 Z36.925
N15 X34.177 Y-1.576 Z36.904
N16 X34.197 Y-1.21 F1500.
N17 X34.074 Y-.865
N18 X33.656 Y-.164
N19 X33.102 Y.914
N20 X32.604 Y1.632
N21 X31.873 Y2.11
N22 X31.015 Y2.278
N23 X0
N24 X-31.016
N25 X-31.873 Y2.11
N26 X-32.604 Y1.632
N27 X-33.102 Y.914
N28 X-33.656 Y-.162
N29 X-34.075 Y-.865
N30 X-34.206 Y-1.333
N31 X-34.084 Y-1.805
N32 X-33.742 Y-2.151
N33 X-33.272 Y-2.278
N34 X33.272
N35 X33.67 Y-2.189
N36 X33.992 Y-1.939
N37 X34.177 Y-1.576
N38 X34.271 Y-1.387
N39 X35.918 Y.665
N40 X36.027 Y.943
N41 X35.958 Y1.233
N42 X35.41 Y2.385
N43 X34.83 Y3.433
N44 X33.962 Y4.26
N45 X32.887 Y4.788
N46 X31.702 Y4.97
N47 X0
N48 X-31.76
N49 X-32.925 Y4.79
N50 X-33.982 Y4.269
N51 X-34.832 Y3.453
N52 X-35.398 Y2.42
N53 X-35.968 Y1.217
N54 X-36.781 Y-.146
N55 X-37.641 Y-1.301
N56 X-38.916 Y-2.69
N57 X-40.533 Y-4.104
N58 X-40.713 Y-4.448
N59 X-40.584 Y-4.815
N60 X-40.228 Y-4.97
N61 X40.255
N62 X40.605 Y-4.817
N63 X40.73 Y-4.455
N64 X40.549 Y-4.119
N65 X39.476 Y-3.248
N66 X37.623 Y-1.282
N67 X36.781 Y-.147
N68 X35.969 Y1.215
N69 X35.891 Y1.54
N70 X36.021 Y1.827
N71 X37.32 Y3.237
N72 X37.439 Y3.46
N73 X37.434 Y3.713
N74 X37.033 Y5.121
N75 X36.668 Y5.989
N76 X36.038 Y6.689
N77 X35.214 Y7.143
N78 X34.285 Y7.3
N79 X-34.286
N80 X-35.224 Y7.142
N81 X-36.058 Y6.684
N82 X-36.696 Y5.979
N83 X-37.067 Y5.103
N84 X-37.466 Y3.604
N85 X-37.97 Y2.41
N86 X-38.614 Y1.31
N87 X-39.357 Y.275
N88 X-41.155 Y-1.609
N89 X-43.289 Y-3.268
N90 X-45.356 Y-4.183
N91 X-46.899 Y-4.589
N92 X-48.479 Y-4.809
N93 X-49.956 Y-4.824
N94 X-51.226 Y-4.649
N95 X-52.653 Y-4.249
N96 X-54.398 Y-3.522
N97 X-55.978 Y-2.484
N98 X-57.669 Y-.891
N99 X-58.012 Y-.737
N100 X-58.361 Y-.876
N101 X-58.507 Y-1.222
N102 Y-5.05
N103 X-58.336 Y-5.911
N104 X-57.848 Y-6.641
N105 X-57.118 Y-7.129
N106 X-56.257 Y-7.3
N107 X48.529
N108 X56.259
N109 X57.119 Y-7.129
N110 X57.849 Y-6.641
N111 X58.336 Y-5.912
N112 X58.507 Y-5.052
N113 Y-1.227
N114 X58.365 Y-.891
N115 X58.025 Y-.758
N116 X57.693 Y-.909
N117 X55.91 Y-2.54
N118 X54.266 Y-3.601
N119 X52.445 Y-4.318
N120 X50.165 Y-4.765
N121 X48.529 Y-4.834
N122 X47.482 Y-4.716
N123 X45.381 Y-4.178
N124 X43.392 Y-3.313
N125 X42.193 Y-2.466
N126 X41.057 Y-1.537
N127 X39.345 Y.287
N128 X38.61 Y1.317
N129 X37.97 Y2.409
N130 X37.491 Y3.512
N131 X37.434 Y3.713
N132 X37.443 Y4.015
N133 X37.624 Y4.257
N134 X39.138 Y5.337
N135 X39.309 Y5.552
N136 X39.341 Y5.824
N137 X39.313 Y6.104
N138 X39.276 Y7.856
N139 X39.216 Y8.544
N140 X38.879 Y9.146
N141 X38.323 Y9.557
N142 X37.648 Y9.702
N143 X-37.629
N144 X-38.313 Y9.556
N145 X-38.878 Y9.142
N146 X-39.223 Y8.533
N147 X-39.288 Y7.837
N148 X-39.298 Y6.715
N149 X-39.419 Y5.6
N150 X-39.787 Y4.224
N151 X-40.033 Y3.64
N152 X-41.127 Y1.899
N153 X-42.584 Y.333
N154 X-44.233 Y-1.007
N155 X-44.668 Y-1.292
N156 X-46.248 Y-1.952
N157 X-48.071 Y-2.36
N158 X-49.956 Y-2.422
N159 X-50.577 Y-2.336
N160 X-52.004 Y-1.936
N161 X-53.242 Y-1.413
N162 X-54.359 Y-.71
N163 X-55.539 Y.367
N164 X-56.376 Y1.317
N165 X-57.101 Y2.356
N166 X-57.86 Y3.825
N167 X-58.468 Y5.362
N168 X-58.871 Y7.078
N169 X-58.922 Y7.684
N170 X-58.904 Y8.028
N171 X-59.008 Y8.516
N172 X-59.339 Y8.889
N173 X-59.811 Y9.05
N174 X-60.301 Y8.955
N175 X-60.681 Y8.631
N176 X-60.849 Y8.161
N177 X-60.909 Y7.469
N178 Y-5.438
N179 X-60.764 Y-6.542
N180 X-60.338 Y-7.57
N181 X-59.661 Y-8.453
N182 X-58.778 Y-9.131
N183 X-57.749 Y-9.557
N184 X-56.646 Y-9.702
N185 X48.529
N186 X56.646
N187 X57.749 Y-9.557
N188 X58.778 Y-9.131
N189 X59.661 Y-8.453
N190 X60.338 Y-7.57
N191 X60.764 Y-6.542
N192 X60.909 Y-5.438
N193 Y7.469
N194 X60.849 Y8.163
N195 X60.682 Y8.629
N196 X60.305 Y8.952
N197 X59.819 Y9.045
N198 X59.35 Y8.886
N199 X59.021 Y8.516
N200 X58.918 Y8.031
N201 X58.936 Y7.684
N202 X58.882 Y7.064
N203 X58.573 Y5.688
N204 X57.799 Y3.671
N205 X57.032 Y2.255
N206 X56.105 Y.938
N207 X55.547 Y.337
N208 X54.326 Y-.734
N209 X53.17 Y-1.465
N210 X51.902 Y-1.977
N211 X50.475 Y-2.308
N212 X48.529 Y-2.431
N213 X46.59 Y-2.048
N214 X44.753 Y-1.321
N215 X44.559 Y-1.213
N216 X42.687 Y.228
N217 X41.121 Y1.906
N218 X40.846 Y2.277
N219 X40.033 Y3.639
N220 X39.799 Y4.179
N221 X39.402 Y5.555
N222 X39.341 Y5.824
N223 X39.382 Y6.117
N224 X39.582 Y6.336
N225 X41.352 Y7.373
N226 X41.585 Y7.688
N227 X41.887 Y8.945
N228 X42.693 Y10.321
N229 X42.819 Y10.475
N230 X44.087 Y11.697
N231 X44.13 Y11.725
N232 X44.19 Y11.894
N233 X44.047 Y12.
N234 X-44.044
N235 X-44.192 Y11.892
N236 X-44.133 Y11.718
N237 X-44.103 Y11.697
N238 X-42.819 Y10.511
N239 X-42.662 Y10.321
N240 X-41.882 Y8.945
N241 X-41.571 Y7.568
N242 X-41.64 Y6.192
N243 X-42.007 Y4.816
N244 X-42.819 Y3.453
N245 X-44.095 Y2.064
N246 X-44.247 Y1.932
N247 X-45.674 Y.783
N248 X-45.834 Y.688
N249 X-47.101 Y.182
N250 X-48.529 Y-.109
N251 X-49.956 Y-.124
N252 X-51.383 Y.277
N253 X-52.311 Y.688
N254 X-52.81 Y.988
N255 X-53.99 Y2.064
N256 X-54.238 Y2.322
N257 X-55.076 Y3.44
N258 X-55.665 Y4.541
N259 X-55.792 Y4.816
N260 X-56.326 Y6.192
N261 X-56.627 Y7.568
N262 X-56.558 Y8.945
N263 X-56.095 Y10.321
N264 X-55.665 Y11.031
N265 X-55.232 Y11.538
N266 X-55.195 Y11.678
N267 X-55.281 Y11.795
N268 X-55.57 Y11.949
N269 X-55.773 Y12.
N270 X-58.52
N271 X-59.888 Y11.92
N272 X-60.003 Y11.9
N273 X-60.632 Y11.71
N274 X-60.719 Y11.675
N275 X-61.313 Y11.365
N276 X-61.425 Y11.285
N277 X-62.398 Y10.364
N278 X-62.477 Y10.267
N279 X-62.772 Y9.797
N280 X-62.82 Y9.699
N281 X-63.066 Y9.005
N282 X-63.093 Y8.881
N283 X-63.207 Y7.568
N284 Y-7.568
N285 X-63.093 Y-8.881
N286 X-63.066 Y-9.005
N287 X-62.82 Y-9.699
N288 X-62.772 Y-9.797
N289 X-62.477 Y-10.267
N290 X-62.398 Y-10.364
N291 X-61.425 Y-11.285
N292 X-61.313 Y-11.365
N293 X-60.719 Y-11.675
N294 X-60.632 Y-11.71
N295 X-60.003 Y-11.9
N296 X-59.888 Y-11.92
N297 X-58.52 Y-12.
N298 X48.529
N299 X58.52
N300 X59.888 Y-11.92
N301 X60.003 Y-11.9
N302 X60.632 Y-11.71
N303 X60.719 Y-11.675
N304 X61.313 Y-11.365
N305 X61.425 Y-11.285
N306 X62.398 Y-10.364
N307 X62.477 Y-10.267
N308 X62.772 Y-9.797
N309 X62.82 Y-9.699
N310 X63.066 Y-9.005
N311 X63.093 Y-8.881
N312 X63.207 Y-7.568
N313 Y7.568
N314 X63.093 Y8.881
N315 X63.066 Y9.005
N316 X62.82 Y9.699
N317 X62.772 Y9.797
N318 X62.477 Y10.267
N319 X62.398 Y10.364
N320 X61.425 Y11.285
N321 X61.313 Y11.365
N322 X60.719 Y11.675
N323 X60.632 Y11.71
N324 X60.003 Y11.9
N325 X59.888 Y11.92
N326 X58.52 Y12.
N327 X55.773
N328 X55.57 Y11.949
N329 X55.284 Y11.795
N330 X55.199 Y11.679
N331 X55.237 Y11.539
N332 X55.665 Y11.043
N333 X56.106 Y10.321
N334 X56.571 Y8.945
N335 X56.641 Y7.568
N336 X56.331 Y6.192
N337 X55.665 Y4.522
N338 X55.072 Y3.44
N339 X54.238 Y2.277
N340 X54.031 Y2.064
N341 X52.81 Y.993
N342 X52.341 Y.688
N343 X51.383 Y.261
N344 X49.956 Y-.07
N345 X48.529 Y-.134
N346 X47.101 Y.192
N347 X45.869 Y.688
N348 X45.674 Y.796
N349 X44.247 Y1.915
N350 X44.086 Y2.064
N351 X42.819 Y3.453
N352 X42.007 Y4.816
N353 X41.609 Y6.192
N354 X41.556 Y7.568
N355 X41.585 Y7.688
N356 X41.545 Y8.03
N357 X41.295 Y8.265
N358 X40.951 Y8.283
N359 X14.055 Y-.022
N360 X13.779 Y-.234
N361 X13.708 Y-.575
N362 X13.876 Y-.879
N363 X14.202 Y-1.
N364 X29.641 Z36.465 F600.
N365 X30.255 Y-.789 Z36.447
N366 X30.61 Y-.246 Z36.428
N367 X30.557 Y.401 Z36.409
N368 X30.482 Y.541 Z36.404
N369 X30.12 Y.878 F1500.
N370 X29.641 Y1.
N371 X0
N372 X-29.642
N373 X-30.189 Y.837
N374 X-30.558 Y.401
N375 X-30.639 Y-.083
N376 X-30.479 Y-.547
N377 X-30.118 Y-.88
N378 X-29.642 Y-1.
N379 X29.641
N380 X30.117 Y-.88
N381 X30.478 Y-.547
N382 X30.638 Y-.083
N383 X30.557 Y.401
N384 X30.482 Y.541
N385 X30.405 Y.859
N386 X30.54 Y1.157
N387 X31.209 Y1.858
N388 X31.341 Y2.128
N389 X31.295 Y2.425
N390 X31.087 Y2.642
N391 X30.387 Y2.918
N392 X29.641 Y3.012
N393 X0
N394 X-29.642
N395 X-30.502 Y2.887
N396 X-31.29 Y2.521
N397 X-31.941 Y1.946
N398 X-32.401 Y1.209
N399 X-33.228 Y-.334
N400 X-34.159 Y-1.817
N401 X-34.303 Y-2.199
N402 X-34.225 Y-2.6
N403 X-33.949 Y-2.901
N404 X-33.556 Y-3.012
N405 X33.556
N406 X33.949 Y-2.901
N407 X34.225 Y-2.6
N408 X34.303 Y-2.199
N409 X34.159 Y-1.817
N410 X33.227 Y-.334
N411 X32.399 Y1.209
N412 X31.862 Y2.034
N413 X31.087 Y2.642
N414 X30.914 Y2.799
N415 X30.831 Y3.017
N416 X30.556 Y5.164
N417 X30.39 Y5.475
N418 X30.06 Y5.6
N419 X0
N420 X-31.019
N421 X-32.163 Y5.415
N422 X-33.189 Y4.879
N423 X-33.994 Y4.046
N424 X-34.496 Y3.002
N425 X-35.109 Y1.585
N426 X-35.868 Y.287
N427 X-36.436 Y-.531
N428 X-37.915 Y-2.297
N429 X-38.965 Y-3.527
N430 X-40.122 Y-4.659
N431 X-40.306 Y-5.038
N432 X-40.159 Y-5.434
N433 X-39.77 Y-5.6
N434 X39.764
N435 X40.151 Y-5.434
N436 X40.298 Y-5.039
N437 X40.114 Y-4.659
N438 X38.886 Y-3.445
N439 X36.436 Y-.531
N440 X35.11 Y1.58
N441 X34.503 Y2.972
N442 X33.99 Y4.029
N443 X33.171 Y4.871
N444 X32.128 Y5.413
N445 X30.969 Y5.6
N446 X30.06
N447 X29.765 Y5.696
N448 X29.584 Y5.947
N449 X29.036 Y7.649
N450 X28.854 Y7.9
N451 X28.56 Y7.996
N452 X-33.74
N453 X-34.652 Y7.828
N454 X-35.445 Y7.347
N455 X-36.015 Y6.615
N456 X-36.287 Y5.729
N457 X-36.766 Y3.779
N458 X-37.177 Y2.794
N459 X-37.936 Y1.497
N460 X-38.388 Y.868
N461 X-41.008 Y-2.209
N462 X-42.691 Y-3.715
N463 X-43.97 Y-4.579
N464 X-45.397 Y-5.25
N465 X-46.267 Y-5.543
N466 X-47.694 Y-5.847
N467 X-49.956 Y-5.996
N468 X-50.883 Y-5.887
N469 X-52.31 Y-5.547
N470 X-53.43 Y-5.127
N471 X-54.509 Y-4.61
N472 X-55.075 Y-4.285
N473 X-55.506 Y-3.99
N474 X-57.04 Y-2.572
N475 X-57.84 Y-1.665
N476 X-58.525 Y-.669
N477 X-58.785 Y-.507
N478 X-59.077 Y-.596
N479 X-59.203 Y-.875
N480 Y-5.738
N481 X-59.031 Y-6.602
N482 X-58.542 Y-7.335
N483 X-57.809 Y-7.824
N484 X-56.945 Y-7.996
N485 X56.941
N486 X57.807 Y-7.824
N487 X58.541 Y-7.333
N488 X59.031 Y-6.599
N489 X59.203 Y-5.733
N490 Y-.914
N491 X59.074 Y-.632
N492 X58.777 Y-.543
N493 X58.515 Y-.71
N494 X57.628 Y-1.987
N495 X56.636 Y-3.009
N496 X55.559 Y-3.941
N497 X55.145 Y-4.237
N498 X54.503 Y-4.614
N499 X53.075 Y-5.279
N500 X52.209 Y-5.568
N501 X50.782 Y-5.869
N502 X49.657 Y-5.963
N503 X48.529 Y-5.957
N504 X47.577 Y-5.842
N505 X45.428 Y-5.241
N506 X43.372 Y-4.223
N507 X41.989 Y-3.123
N508 X40.715 Y-1.898
N509 X38.388 Y.868
N510 X37.177 Y2.792
N511 X36.784 Y3.71
N512 X36.258 Y5.744
N513 X35.991 Y6.624
N514 X35.427 Y7.351
N515 X34.642 Y7.829
N516 X33.737 Y7.996
N517 X28.56
N518 X28.281 Y8.08
N519 X28.097 Y8.305
N520 X27.522 Y9.702
N521 X27.338 Y9.927
N522 X27.06 Y10.011
N523 X-36.822
N524 X-37.476 Y9.862
N525 X-38.001 Y9.444
N526 X-38.293 Y8.84
N527 X-38.294 Y8.17
N528 X-38.257 Y8.008
N529 X-38.21 Y7.471
N530 X-38.343 Y5.677
N531 X-38.712 Y4.301
N532 X-38.916 Y3.812
N533 X-39.852 Y2.261
N534 X-42.254 Y-.596
N535 X-44.011 Y-2.191
N536 X-44.827 Y-2.755
N537 X-46.255 Y-3.427
N538 X-48.114 Y-3.876
N539 X-49.956 Y-3.981
N540 X-50.416 Y-3.926
N541 X-52.227 Y-3.453
N542 X-53.654 Y-2.785
N543 X-54.366 Y-2.328
N544 X-56.062 Y-.675
N545 X-57.312 Y1.17
N546 X-58.08 Y2.804
N547 X-59.007 Y5.791
N548 X-59.255 Y7.245
N549 X-59.243 Y8.383
N550 X-59.365 Y8.892
N551 X-59.743 Y9.254
N552 X-60.256 Y9.356
N553 X-60.743 Y9.165
N554 X-61.05 Y8.741
N555 X-61.218 Y7.482
N556 Y-5.738
N557 X-61.073 Y-6.844
N558 X-60.646 Y-7.874
N559 X-59.967 Y-8.759
N560 X-59.082 Y-9.439
N561 X-58.051 Y-9.865
N562 X-56.945 Y-10.011
N563 X56.941
N564 X58.048 Y-9.865
N565 X59.08 Y-9.438
N566 X59.965 Y-8.758
N567 X60.645 Y-7.872
N568 X61.073 Y-6.841
N569 X61.218 Y-5.733
N570 Y7.482
N571 X61.05 Y8.741
N572 X60.742 Y9.165
N573 X60.255 Y9.357
N574 X59.74 Y9.255
N575 X59.362 Y8.892
N576 X59.24 Y8.382
N577 X59.246 Y7.213
N578 X58.855 Y5.252
N579 X58.269 Y3.34
N580 X57.492 Y1.497
N581 X56.316 Y-.395
N582 X56.128 Y-.641
N583 X55.573 Y-1.243
N584 X53.97 Y-2.601
N585 X52.224 Y-3.453
N586 X51.104 Y-3.761
N587 X49.957 Y-3.94
N588 X48.529 Y-3.941
N589 X48.056 Y-3.884
N590 X46.27 Y-3.41
N591 X44.843 Y-2.754
N592 X44.162 Y-2.316
N593 X42.387 Y-.739
N594 X39.852 Y2.261
N595 X38.916 Y3.811
N596 X38.72 Y4.267
N597 X38.325 Y5.643
N598 X38.195 Y7.491
N599 X38.249 Y8.032
N600 X38.284 Y8.18
N601 X38.29 Y8.845
N602 X38.006 Y9.446
N603 X37.488 Y9.862
N604 X36.84 Y10.011
N605 X27.06
N606 X26.783 Y10.095
N607 X26.599 Y10.317
N608 X26.021 Y11.694
N609 X25.836 Y11.916
N610 X25.56 Y12.
N611 X-42.607
N612 X-42.771 Y11.888
N613 X-42.727 Y11.695
N614 X-41.392 Y10.448
N615 X-41.288 Y10.321
N616 X-40.508 Y8.945
N617 X-40.197 Y7.568
N618 X-40.264 Y6.192
N619 X-40.633 Y4.816
N620 X-41.392 Y3.519
N621 X-42.819 Y1.815
N622 X-43.772 Y.688
N623 X-44.247 Y.235
N624 X-45.313 Y-.688
N625 X-45.674 Y-.955
N626 X-47.101 Y-1.627
N627 X-48.529 Y-1.931
N628 X-49.956 Y-1.992
N629 X-51.383 Y-1.652
N630 X-52.81 Y-.983
N631 X-53.241 Y-.688
N632 X-54.238 Y.288
N633 X-54.614 Y.688
N634 X-55.536 Y2.064
N635 X-55.665 Y2.321
N636 X-56.195 Y3.44
N637 X-56.659 Y4.816
N638 X-57.058 Y6.192
N639 X-57.092 Y6.357
N640 X-57.292 Y7.568
N641 X-57.224 Y8.945
N642 X-57.092 Y9.491
N643 X-56.765 Y10.321
N644 X-55.778 Y11.697
N645 X-55.757 Y11.717
N646 X-55.72 Y11.897
N647 X-55.872 Y12.
N648 X-58.52
N649 X-59.888 Y11.92
N650 X-60.003 Y11.9
N651 X-60.632 Y11.71
N652 X-60.719 Y11.675
N653 X-61.313 Y11.365
N654 X-61.425 Y11.285
N655 X-62.398 Y10.364
N656 X-62.477 Y10.267
N657 X-62.772 Y9.797
N658 X-62.82 Y9.699
N659 X-63.066 Y9.005
N660 X-63.093 Y8.881
N661 X-63.207 Y7.568
N662 Y-7.568
N663 X-63.093 Y-8.881
N664 X-63.066 Y-9.005
N665 X-62.82 Y-9.699
N666 X-62.772 Y-9.797
N667 X-62.477 Y-10.267
N668 X-62.398 Y-10.364
N669 X-61.425 Y-11.285
N670 X-61.313 Y-11.365
N671 X-60.719 Y-11.675
N672 X-60.632 Y-11.71
N673 X-60.003 Y-11.9
N674 X-59.888 Y-11.92
N675 X-58.52 Y-12.
N676 X58.52
N677 X59.888 Y-11.92
N678 X60.003 Y-11.9
N679 X60.632 Y-11.71
N680 X60.719 Y-11.675
N681 X61.313 Y-11.365
N682 X61.425 Y-11.285
N683 X62.398 Y-10.364
N684 X62.477 Y-10.267
N685 X62.772 Y-9.797
N686 X62.82 Y-9.699
N687 X63.066 Y-9.005
N688 X63.093 Y-8.881
N689 X63.207 Y-7.568
N690 Y7.568
N691 X63.093 Y8.881
N692 X63.066 Y9.005
N693 X62.82 Y9.699
N694 X62.772 Y9.797
N695 X62.477 Y10.267
N696 X62.398 Y10.364
N697 X61.425 Y11.285
N698 X61.313 Y11.365
N699 X60.719 Y11.675
N700 X60.632 Y11.71
N701 X60.003 Y11.9
N702 X59.888 Y11.92
N703 X58.52 Y12.
N704 X55.875
N705 X55.717 Y11.894
N706 X55.756 Y11.709
N707 X55.769 Y11.697
N708 X56.76 Y10.321
N709 X57.092 Y9.479
N710 X57.221 Y8.945
N711 X57.29 Y7.568
N712 X57.092 Y6.484
N713 X57.024 Y6.192
N714 X56.684 Y4.816
N715 X56.163 Y3.44
N716 X55.665 Y2.283
N717 X55.542 Y2.064
N718 X54.648 Y.688
N719 X54.238 Y.231
N720 X53.224 Y-.688
N721 X52.81 Y-.985
N722 X51.383 Y-1.65
N723 X49.956 Y-1.952
N724 X48.529 Y-1.953
N725 X47.101 Y-1.603
N726 X45.674 Y-.947
N727 X45.305 Y-.688
N728 X44.247 Y.228
N729 X43.772 Y.688
N730 X42.819 Y1.815
N731 X41.392 Y3.519
N732 X40.632 Y4.816
N733 X40.236 Y6.192
N734 X40.183 Y7.568
N735 X40.513 Y8.945
N736 X41.319 Y10.321
N737 X41.392 Y10.411
N738 X42.713 Y11.697
N739 X42.77 Y11.885
N740 X42.61 Y12.
N741 X25.56
N742 X25.261 Y11.901
N743 X9.138 Y-.099
N744 X8.939 Y-.452
N745 X9.066 Y-.836
N746 X9.436 Y-1.
N747 X28.266 Z36.023 F600.
N748 X28.88 Y-.789 Z36.01
N749 X29.236 Y-.246 Z35.996
N750 X29.182 Y.401 Z35.983
N751 X28.813 Y.837 Z35.971
N752 X28.266 Y1. Z35.959
N753 X25.56 Z35.904
N754 X-.001 F1500.
N755 X-28.268
N756 X-28.816 Y.837
N757 X-29.184 Y.401
N758 X-29.265 Y-.083
N759 X-29.106 Y-.547
N760 X-28.744 Y-.88
N761 X-28.268 Y-1.
N762 X28.266
N763 X28.742 Y-.88
N764 X29.103 Y-.547
N765 X29.263 Y-.083
N766 X29.182 Y.401
N767 X28.813 Y.837
N768 X28.266 Y1.
N769 X25.56
N770 X25.298 Y1.074
N771 X25.113 Y1.275
N772 X24.506 Y2.478
N773 X24.322 Y2.678
N774 X24.06 Y2.752
N775 X-.001
N776 X-28.268
N777 X-29.054 Y2.638
N778 X-29.774 Y2.304
N779 X-30.369 Y1.778
N780 X-30.789 Y1.105
N781 X-32.259 Y-1.526
N782 X-32.39 Y-1.925
N783 X-32.297 Y-2.336
N784 X-32.006 Y-2.64
N785 X-31.601 Y-2.752
N786 X31.601
N787 X32.006 Y-2.64
N788 X32.297 Y-2.336
N789 X32.39 Y-1.925
N790 X32.259 Y-1.526
N791 X30.787 Y1.105
N792 X30.367 Y1.778
N793 X29.772 Y2.304
N794 X29.052 Y2.638
N795 X28.266 Y2.752
N796 X24.06
N797 X23.758 Y2.853
N798 X23.579 Y3.115
N799 X23.04 Y5.005
N800 X22.861 Y5.267
N801 X22.56 Y5.368
N802 X-.001
N803 X-29.402
N804 X-30.555 Y5.185
N805 X-31.595 Y4.654
N806 X-32.419 Y3.827
N807 X-32.946 Y2.785
N808 X-33.507 Y1.516
N809 X-34.795 Y-.566
N810 X-37.826 Y-4.19
N811 X-37.987 Y-4.557
N812 X-37.926 Y-4.954
N813 X-37.661 Y-5.256
N814 X-37.276 Y-5.368
N815 X37.276
N816 X37.661 Y-5.256
N817 X37.926 Y-4.954
N818 X37.987 Y-4.557
N819 X37.826 Y-4.19
N820 X34.795 Y-.566
N821 X33.51 Y1.508
N822 X32.953 Y2.759
N823 X32.415 Y3.812
N824 X31.578 Y4.647
N825 X30.524 Y5.183
N826 X29.357 Y5.368
N827 X22.56
N828 X22.26 Y5.468
N829 X22.08 Y5.726
N830 X21.539 Y7.556
N831 X21.359 Y7.815
N832 X21.06 Y7.914
N833 X-.001
N834 X-33.196
N835 X-33.789 Y7.8
N836 X-34.296 Y7.474
N837 X-34.646 Y6.982
N838 X-34.789 Y6.396
N839 X-34.808 Y5.998
N840 X-34.944 Y5.129
N841 X-35.314 Y3.753
N842 X-35.716 Y2.783
N843 X-36.421 Y1.554
N844 X-36.78 Y1.028
N845 X-36.952 Y.815
N846 X-40.413 Y-3.313
N847 X-41.226 Y-4.211
N848 X-43.042 Y-5.806
N849 X-43.782 Y-6.302
N850 X-45.209 Y-7.048
N851 X-46.228 Y-7.423
N852 X-47.616 Y-7.741
N853 X-48.265 Y-7.835
N854 X-48.854 Y-7.894
N855 X49.25 Y-7.914
N856 X48.359 Y-7.852
N857 X47.101 Y-7.637
N858 X45.871 Y-7.297
N859 X43.834 Y-6.327
N860 X43.115 Y-5.864
N861 X41.491 Y-4.476
N862 X40.413 Y-3.313
N863 X36.898 Y.881
N864 X36.424 Y1.549
N865 X35.716 Y2.778
N866 X35.329 Y3.693
N867 X34.935 Y5.069
N868 X34.781 Y6.032
N869 X34.767 Y6.397
N870 X34.629 Y6.982
N871 X34.283 Y7.474
N872 X33.779 Y7.8
N873 X33.189 Y7.914
N874 X21.06
N875 X20.672 Y7.73
N876 X20.57 Y7.312
N877 X20.83 Y6.97
N878 X50.876 Y-8.545
N879 X51.256 Y-8.578
N880 X51.548 Y-8.332
N881 X51.582 Y-7.952
N882 X51.338 Y-7.659
N883 X50.958 Y-7.623
N884 X50.664 Y-7.866
N885 X50.693 Y-7.914
N886 X57.58
N887 X58.17 Y-7.797
N888 X58.67 Y-7.463
N889 X59.004 Y-6.963
N890 X59.122 Y-6.373
N891 Y-2.915
N892 X58.946 Y-2.683
N893 X58.674 Y-2.788
N894 X57.06 Y-4.753
N895 X55.307 Y-6.186
N896 X54.179 Y-6.833
N897 X52.981 Y-7.338
N898 X50.687 Y-7.849
N899 X50.664 Y-7.866 Z38.404
N900 G00 Z39.304
N901 X-54.702 Y-6.537
N902 Z38.904
N903 G01 Z36.404 F600.
N904 X-56.971 Y-4.824 Z36.329
N905 X-58.663 Y-2.774 Z36.259
N906 X-58.948 Y-2.663 Z36.251
N907 X-59.132 Y-2.907 Z36.242
N908 Y-6.376 Z36.151
N909 X-58.925 Y-7.151 Z36.129
N910 X-58.358 Y-7.717 Z36.108
N911 X-57.583 Y-7.925 Z36.087
N912 X-50.728 Z35.906
N913 X-50.692 Y-7.889 Z35.904
N914 X-52.156 Y-7.576 F1500.
N915 X-53.367 Y-7.175
N916 X-54.525 Y-6.638
N917 X-55.806 Y-5.809
N918 X-56.971 Y-4.824
N919 X-58.663 Y-2.774
N920 X-58.839 Y-2.657
N921 X-59.044 Y-2.715
N922 X-59.132 Y-2.907
N923 Y-6.376
N924 X-59.014 Y-6.969
N925 X-58.679 Y-7.471
N926 X-58.176 Y-7.807
N927 X-57.583 Y-7.925
N928 X-50.728
N929 X-50.692 Y-7.889
N930 X-50.545 Y-7.535
N931 X-50.192 Y-7.389
N932 X-49.838 Y-7.535
N933 X-49.692 Y-7.889
N934 Y-9.73
N935 X-49.545 Y-10.084
N936 X-49.192 Y-10.23
N937 X57.58
N938 X58.772 Y-10.041
N939 X59.847 Y-9.494
N940 X60.701 Y-8.64
N941 X61.249 Y-7.565
N942 X61.438 Y-6.373
N943 Y7.492
N944 X61.355 Y8.449
N945 X61.305 Y8.677
N946 X61.141 Y9.056
N947 X60.872 Y9.371
N948 X60.446 Y9.583
N949 X59.975 Y9.519
N950 X59.62 Y9.203
N951 X59.504 Y8.742
N952 X59.543 Y7.322
N953 X59.349 Y5.946
N954 X58.668 Y2.928
N955 X57.616 Y.018
N956 X56.676 Y-1.616
N957 X55.594 Y-2.936
N958 X54.776 Y-3.685
N959 X53.892 Y-4.352
N960 X52.286 Y-5.128
N961 X51.132 Y-5.419
N962 X49.956 Y-5.599
N963 X48.096 Y-5.486
N964 X46.304 Y-4.979
N965 X44.877 Y-4.259
N966 X43.8 Y-3.444
N967 X42.236 Y-1.88
N968 X38.585 Y2.479
N969 X37.723 Y3.933
N970 X37.162 Y5.706
N971 X37.041 Y7.499
N972 X37.229 Y8.569
N973 X37.235 Y9.172
N974 X36.976 Y9.717
N975 X36.506 Y10.095
N976 X35.918 Y10.23
N977 X-35.894
N978 X-36.489 Y10.095
N979 X-36.966 Y9.715
N980 X-37.231 Y9.166
N981 X-37.232 Y8.556
N982 X-37.055 Y7.484
N983 X-37.18 Y5.732
N984 X-37.551 Y4.356
N985 X-37.724 Y3.935
N986 X-38.43 Y2.706
N987 X-38.727 Y2.303
N988 X-42.188 Y-1.825
N989 X-42.938 Y-2.651
N990 X-44.534 Y-4.035
N991 X-45.516 Y-4.616
N992 X-46.545 Y-5.107
N993 X-48.133 Y-5.483
N994 X-49.956 Y-5.62
N995 X-51.719 Y-5.313
N996 X-52.368 Y-5.093
N997 X-53.876 Y-4.354
N998 X-55.039 Y-3.477
N999 X-56.511 Y-1.833
N1000 X-57.172 Y-.8
N1001 X-58.081 Y1.182
N1002 X-58.783 Y3.247
N1003 X-59.56 Y7.276
N1004 X-59.528 Y8.747
N1005 X-59.643 Y9.201
N1006 X-59.992 Y9.513
N1007 X-60.457 Y9.576
N1008 X-60.876 Y9.367
N1009 X-61.143 Y9.053
N1010 X-61.306 Y8.675
N1011 X-61.354 Y8.45
N1012 X-61.438 Y7.492
N1013 Y-6.376
N1014 X-61.249 Y-7.567
N1015 X-60.701 Y-8.642
N1016 X-59.849 Y-9.494
N1017 X-58.774 Y-10.042
N1018 X-57.583 Y-10.23
N1019 X-49.192
N1020 X-48.928 Y-10.305
N1021 X-48.744 Y-10.507
N1022 X-48.139 Y-11.723
N1023 X-47.955 Y-11.925
N1024 X-47.692 Y-12.
N1025 X58.52
N1026 X59.888 Y-11.92
N1027 X60.003 Y-11.9
N1028 X60.632 Y-11.71
N1029 X60.719 Y-11.675
N1030 X61.313 Y-11.365
N1031 X61.425 Y-11.285
N1032 X62.398 Y-10.364
N1033 X62.477 Y-10.267
N1034 X62.772 Y-9.797
N1035 X62.82 Y-9.699
N1036 X63.066 Y-9.005
N1037 X63.093 Y-8.881
N1038 X63.207 Y-7.568
N1039 Y7.568
N1040 X63.093 Y8.881
N1041 X63.066 Y9.005
N1042 X62.82 Y9.699
N1043 X62.772 Y9.797
N1044 X62.477 Y10.267
N1045 X62.398 Y10.364
N1046 X61.425 Y11.285
N1047 X61.313 Y11.365
N1048 X60.719 Y11.675
N1049 X60.632 Y11.71
N1050 X60.003 Y11.9
N1051 X59.888 Y11.92
N1052 X58.52 Y12.
N1053 X57.183
N1054 X57.007 Y11.968
N1055 X56.469 Y11.766
N1056 X56.38 Y11.669
N1057 X56.404 Y11.539
N1058 X57.092 Y10.642
N1059 X57.265 Y10.321
N1060 X57.722 Y8.945
N1061 X57.79 Y7.568
N1062 X57.597 Y6.192
N1063 X57.314 Y4.816
N1064 X56.989 Y3.44
N1065 X56.542 Y2.064
N1066 X55.978 Y.688
N1067 X55.665 Y.117
N1068 X55.17 Y-.688
N1069 X54.238 Y-1.799
N1070 X53.96 Y-2.064
N1071 X52.81 Y-2.952
N1072 X51.755 Y-3.44
N1073 X51.383 Y-3.557
N1074 X49.956 Y-3.829
N1075 X48.529 Y-3.77
N1076 X47.219 Y-3.44
N1077 X47.101 Y-3.399
N1078 X45.674 Y-2.679
N1079 X44.908 Y-2.064
N1080 X44.247 Y-1.459
N1081 X43.544 Y-.688
N1082 X40.083 Y3.44
N1083 X39.965 Y3.587
N1084 X39.257 Y4.816
N1085 X38.864 Y6.192
N1086 X38.809 Y7.568
N1087 X39.139 Y8.945
N1088 X39.944 Y10.321
N1089 X39.965 Y10.346
N1090 X41.307 Y11.664
N1091 X41.351 Y11.878
N1092 X41.17 Y12.
N1093 X-41.167
N1094 X-41.355 Y11.873
N1095 X-41.306 Y11.651
N1096 X-39.965 Y10.383
N1097 X-39.914 Y10.321
N1098 X-39.135 Y8.945
N1099 X-38.823 Y7.568
N1100 X-38.889 Y6.192
N1101 X-39.259 Y4.816
N1102 X-39.965 Y3.587
N1103 X-40.083 Y3.44
N1104 X-43.544 Y-.688
N1105 X-44.247 Y-1.459
N1106 X-44.941 Y-2.064
N1107 X-45.674 Y-2.681
N1108 X-47.101 Y-3.427
N1109 X-47.141 Y-3.44
N1110 X-48.529 Y-3.758
N1111 X-49.956 Y-3.85
N1112 X-51.383 Y-3.575
N1113 X-51.735 Y-3.44
N1114 X-52.81 Y-2.941
N1115 X-53.973 Y-2.064
N1116 X-54.238 Y-1.776
N1117 X-55.162 Y-.688
N1118 X-55.665 Y.129
N1119 X-55.937 Y.688
N1120 X-56.531 Y2.064
N1121 X-56.99 Y3.44
N1122 X-57.092 Y3.771
N1123 X-57.325 Y4.816
N1124 X-57.584 Y6.192
N1125 X-57.814 Y7.568
N1126 X-57.746 Y8.945
N1127 X-57.287 Y10.321
N1128 X-57.092 Y10.678
N1129 X-56.422 Y11.54
N1130 X-56.397 Y11.67
N1131 X-56.486 Y11.768
N1132 X-57.006 Y11.967
N1133 X-57.185 Y12.
N1134 X-58.52
N1135 X-59.888 Y11.92
N1136 X-60.003 Y11.9
N1137 X-60.632 Y11.71
N1138 X-60.719 Y11.675
N1139 X-61.313 Y11.365
N1140 X-61.425 Y11.285
N1141 X-62.398 Y10.364
N1142 X-62.477 Y10.267
N1143 X-62.772 Y9.797
N1144 X-62.82 Y9.699
N1145 X-63.066 Y9.005
N1146 X-63.093 Y8.881
N1147 X-63.207 Y7.568
N1148 Y-7.568
N1149 X-63.093 Y-8.881
N1150 X-63.066 Y-9.005
N1151 X-62.82 Y-9.699
N1152 X-62.772 Y-9.797
N1153 X-62.477 Y-10.267
N1154 X-62.398 Y-10.364
N1155 X-61.425 Y-11.285
N1156 X-61.313 Y-11.365
N1157 X-60.719 Y-11.675
N1158 X-60.632 Y-11.71
N1159 X-60.003 Y-11.9
N1160 X-59.888 Y-11.92
N1161 X-58.52 Y-12.
N1162 X-47.692
N1163 X-47.365 Y-11.879
N1164 X-47.197 Y-11.573
N1165 X-47.269 Y-11.232
N1166 X-47.547 Y-11.021
N1167 X-55.826 Y-8.513
N1168 X-56.14 Y-8.233
N1169 X-56.129 Y-7.812
N1170 X-56.093 Y-7.5 Z35.9 F600.
N1171 X-56.264 Y-7.237 Z35.895
N1172 X-56.608 Y-6.977 Z35.888
N1173 X-57.209 Y-6.416 Z35.876
N1174 X-58.57 Y-4.705 Z35.842
N1175 X-59.009 Y-4.572 Z35.835
N1176 X-59.276 Y-4.945 Z35.828
N1177 Y-6.972 Z35.797
N1178 X-58.955 Y-7.748 Z35.784
N1179 X-58.179 Y-8.069 Z35.77
N1180 X-56.543 Z35.746
N1181 X-56.129 Y-7.812 Z35.738
N1182 X-56.093 Y-7.5 Z35.733
N1183 X-56.264 Y-7.237 Z35.728
N1184 X-56.608 Y-6.977 Z35.722
N1185 X-57.209 Y-6.416 Z35.709
N1186 X-58.57 Y-4.705 Z35.676
N1187 X-59.009 Y-4.572 Z35.668
N1188 X-59.276 Y-4.945 Z35.661
N1189 Y-6.972 Z35.63
N1190 X-58.955 Y-7.748 Z35.617
N1191 X-58.179 Y-8.069 Z35.604
N1192 X-56.543 Z35.579
N1193 X-56.129 Y-7.812 Z35.571
N1194 X-56.093 Y-7.5 Z35.566
N1195 X-56.264 Y-7.237 Z35.561
N1196 X-56.608 Y-6.977 Z35.555
N1197 X-57.209 Y-6.416 Z35.542
N1198 X-58.57 Y-4.705 Z35.509
N1199 X-59.009 Y-4.572 Z35.502
N1200 X-59.276 Y-4.945 Z35.494
N1201 Y-6.972 Z35.463
N1202 X-58.955 Y-7.748 Z35.45
N1203 X-58.179 Y-8.069 Z35.437
N1204 X-56.543 Z35.412
N1205 X-56.129 Y-7.812 Z35.404
N1206 X-56.093 Y-7.5 F1500.
N1207 X-56.264 Y-7.237
N1208 X-56.608 Y-6.977
N1209 X-57.209 Y-6.416
N1210 X-58.57 Y-4.705
N1211 X-58.848 Y-4.552
N1212 X-59.149 Y-4.654
N1213 X-59.276 Y-4.945
N1214 Y-6.972
N1215 X-59.129 Y-7.52
N1216 X-58.728 Y-7.922
N1217 X-58.179 Y-8.069
N1218 X-56.543
N1219 X-56.299 Y-8.
N1220 X-56.129 Y-7.812
N1221 X-55.317 Y-7.805
N1222 X-54.329 Y-7.836
N1223 X-53.341 Y-7.906
N1224 X-51.366 Y-8.12
N1225 X-50.378 Y-8.264
N1226 X-48.402 Y-8.078
N1227 X-47.415 Y-7.893
N1228 X-46.427 Y-7.627
N1229 X-45.538 Y-7.429
N1230 X-45.439 Y-7.336
N1231 X-44.451 Y-6.5
N1232 X-42.476 Y-5.193
N1233 X-41.562 Y-4.643
N1234 X-41.488 Y-4.602
N1235 X-39.512 Y-3.605
N1236 X-37.537 Y-2.844
N1237 X-27.861 Y-.258
N1238 X-27.661 Y-.643
N1239 X-27.318 Y-.906
N1240 X-26.895 Y-1.
N1241 X26.892
N1242 X27.368 Y-.88
N1243 X27.729 Y-.547
N1244 X27.888 Y-.083
N1245 X27.808 Y.401
N1246 X27.439 Y.837
N1247 X26.892 Y1.
N1248 X-.002
N1249 X-26.895
N1250 X-27.442 Y.837
N1251 X-27.811 Y.401
N1252 X-27.892 Y.076
N1253 X-27.861 Y-.258
N1254 X-27.896 Y-.609
N1255 X-28.154 Y-.85
N1256 X-28.506 Y-.86
N1257 X-29.867 Y-.394
N1258 X-30.203 Y-.398
N1259 X-30.46 Y-.614
N1260 X-31.102 Y-1.653
N1261 X-31.243 Y-2.042
N1262 X-31.16 Y-2.448
N1263 X-30.878 Y-2.751
N1264 X-30.48 Y-2.863
N1265 X30.48
N1266 X30.878 Y-2.751
N1267 X31.16 Y-2.448
N1268 X31.243 Y-2.042
N1269 X31.102 Y-1.653
N1270 X29.514 Y1.149
N1271 X29.077 Y1.85
N1272 X28.458 Y2.397
N1273 X27.709 Y2.744
N1274 X26.892 Y2.863
N1275 X-.002
N1276 X-26.895
N1277 X-27.712 Y2.744
N1278 X-28.461 Y2.397
N1279 X-29.08 Y1.85
N1280 X-29.517 Y1.149
N1281 X-30.46 Y-.614
N1282 X-30.696 Y-.822
N1283 X-31.009 Y-.848
N1284 X-33.019 Y-.365
N1285 X-33.293 Y-.376
N1286 X-33.52 Y-.531
N1287 X-36.631 Y-4.258
N1288 X-36.796 Y-4.634
N1289 X-36.733 Y-5.039
N1290 X-36.463 Y-5.347
N1291 X-36.07 Y-5.461
N1292 X36.07
N1293 X36.463 Y-5.347
N1294 X36.733 Y-5.039
N1295 X36.796 Y-4.634
N1296 X36.631 Y-4.258
N1297 X33.405 Y-.394
N1298 X32.19 Y1.599
N1299 X31.647 Y2.848
N1300 X31.12 Y3.901
N1301 X30.292 Y4.738
N1302 X29.244 Y5.276
N1303 X28.081 Y5.461
N1304 X-.002
N1305 X-28.121
N1306 X-29.271 Y5.277
N1307 X-30.307 Y4.744
N1308 X-31.125 Y3.914
N1309 X-31.644 Y2.87
N1310 X-32.187 Y1.611
N1311 X-33.405 Y-.394
N1312 X-33.52 Y-.531
N1313 X-33.783 Y-.696
N1314 X-34.093 Y-.673
N1315 X-35.892 Y.062
N1316 X-36.201 Y.084
N1317 X-36.464 Y-.08
N1318 X-40.273 Y-4.622
N1319 X-41.471 Y-5.981
N1320 X-42.82 Y-7.19
N1321 X-42.983 Y-7.524
N1322 X-42.853 Y-7.872
N1323 X-42.512 Y-8.019
N1324 X42.543
N1325 X42.874 Y-7.877
N1326 X43. Y-7.539
N1327 X42.842 Y-7.215
N1328 X41.226 Y-5.733
N1329 X35.412 Y1.191
N1330 X34.416 Y2.857
N1331 X34.053 Y3.726
N1332 X33.533 Y5.763
N1333 X33.269 Y6.644
N1334 X32.708 Y7.372
N1335 X31.923 Y7.851
N1336 X31.019 Y8.019
N1337 X-.002
N1338 X-31.025
N1339 X-31.934 Y7.851
N1340 X-32.723 Y7.369
N1341 X-33.289 Y6.638
N1342 X-33.556 Y5.753
N1343 X-34.043 Y3.776
N1344 X-34.415 Y2.864
N1345 X-35.067 Y1.706
N1346 X-35.658 Y.882
N1347 X-36.464 Y-.08
N1348 Z37.904
N1349 G00 Z38.804
N1350 X56.04 Y-7.579
N1351 Z38.404
N1352 G01 Z35.904 F600.
N1353 X56.163 Y-7.936 Z35.899
N1354 X56.51 Y-8.088 Z35.893
N1355 X58.192 Z35.868
N1356 X58.972 Y-7.765 Z35.855
N1357 X59.295 Y-6.985 Z35.842
N1358 Y-4.865 Z35.811
N1359 X59.034 Y-4.505 Z35.804
N1360 X58.611 Y-4.642 Z35.796
N1361 X57.806 Y-5.746 Z35.776
N1362 X56.221 Y-7.245 Z35.744
N1363 X56.04 Y-7.579 Z35.738
N1364 X56.163 Y-7.936 Z35.732
N1365 X56.51 Y-8.088 Z35.726
N1366 X58.192 Z35.701
N1367 X58.972 Y-7.765 Z35.688
N1368 X59.295 Y-6.985 Z35.675
N1369 Y-4.865 Z35.644
N1370 X59.034 Y-4.505 Z35.637
N1371 X58.611 Y-4.642 Z35.63
N1372 X57.806 Y-5.746 Z35.609
N1373 X56.221 Y-7.245 Z35.577
N1374 X56.04 Y-7.579 Z35.571
N1375 X56.163 Y-7.936 Z35.565
N1376 X56.51 Y-8.088 Z35.56
N1377 X58.192 Z35.535
N1378 X58.972 Y-7.765 Z35.522
N1379 X59.295 Y-6.985 Z35.509
N1380 Y-4.865 Z35.477
N1381 X59.034 Y-4.505 Z35.47
N1382 X58.611 Y-4.642 Z35.463
N1383 X57.806 Y-5.746 Z35.443
N1384 X56.221 Y-7.245 Z35.41
N1385 X56.04 Y-7.579 Z35.404
N1386 X56.163 Y-7.936 F1500.
N1387 X56.51 Y-8.088
N1388 X58.192
N1389 X58.744 Y-7.94
N1390 X59.147 Y-7.536
N1391 X59.295 Y-6.985
N1392 Y-4.865
N1393 X59.17 Y-4.584
N1394 X58.878 Y-4.488
N1395 X58.611 Y-4.642
N1396 X57.806 Y-5.746
N1397 X57.059 Y-6.544
N1398 X56.221 Y-7.245
N1399 X56.04 Y-7.579
N1400 X55.875 Y-7.911
N1401 X55.526 Y-8.038
N1402 X55.186 Y-7.889
N1403 X53.871 Y-6.557
N1404 X53.606 Y-6.416
N1405 X53.307 Y-6.453
N1406 X51.982 Y-6.985
N1407 X49.956 Y-7.329
N1408 X48.396 Y-7.206
N1409 X46.671 Y-6.762
N1410 X45.597 Y-6.276
N1411 X44.611 Y-5.63
N1412 X43.013 Y-4.198
N1413 X37.463 Y2.396
N1414 X37.122 Y2.858
N1415 X36.319 Y4.371
N1416 X35.927 Y5.747
N1417 X35.811 Y7.504
N1418 X36.063 Y8.819
N1419 X36.068 Y9.383
N1420 X35.826 Y9.894
N1421 X35.386 Y10.248
N1422 X34.836 Y10.374
N1423 X-34.814
N1424 X-35.369 Y10.247
N1425 X-35.815 Y9.893
N1426 X-36.062 Y9.38
N1427 X-36.063 Y8.81
N1428 X-35.825 Y7.493
N1429 X-35.889 Y6.117
N1430 X-36.316 Y4.391
N1431 X-36.468 Y4.019
N1432 X-37.433 Y2.433
N1433 X-43.013 Y-4.198
N1434 X-44.611 Y-5.625
N1435 X-45.607 Y-6.3
N1436 X-46.703 Y-6.796
N1437 X-48.13 Y-7.156
N1438 X-49.819 Y-7.321
N1439 X-51.623 Y-7.096
N1440 X-52.013 Y-6.987
N1441 X-53.694 Y-6.262
N1442 X-53.929 Y-6.113
N1443 X-55.218 Y-5.139
N1444 X-55.876 Y-4.43
N1445 X-57.1 Y-2.79
N1446 X-57.813 Y-1.452
N1447 X-58.874 Y1.598
N1448 X-59.331 Y3.805
N1449 X-59.668 Y6.033
N1450 X-59.802 Y7.495
N1451 X-59.745 Y8.962
N1452 X-59.846 Y9.363
N1453 X-60.155 Y9.638
N1454 X-60.565 Y9.693
N1455 X-60.935 Y9.509
N1456 X-61.256 Y9.146
N1457 X-61.449 Y8.701
N1458 X-61.495 Y8.486
N1459 X-61.581 Y7.498
N1460 Y-6.972
N1461 X-61.415 Y-8.023
N1462 X-60.931 Y-8.971
N1463 X-60.179 Y-9.724
N1464 X-59.23 Y-10.207
N1465 X-58.179 Y-10.374
N1466 X49.956
N1467 X58.192
N1468 X59.24 Y-10.208
N1469 X60.184 Y-9.727
N1470 X60.934 Y-8.977
N1471 X61.415 Y-8.032
N1472 X61.581 Y-6.985
N1473 Y7.498
N1474 X61.495 Y8.488
N1475 X61.45 Y8.699
N1476 X61.282 Y9.113
N1477 X61.104 Y9.349
N1478 X60.941 Y9.504
N1479 X60.577 Y9.684
N1480 X60.175 Y9.63
N1481 X59.872 Y9.36
N1482 X59.772 Y8.966
N1483 X59.826 Y7.368
N1484 X59.655 Y5.991
N1485 X59.185 Y3.064
N1486 X58.448 Y.192
N1487 X57.831 Y-1.392
N1488 X57.045 Y-2.899
N1489 X55.959 Y-4.399
N1490 X55.771 Y-4.614
N1491 X55.236 Y-5.115
N1492 X53.777 Y-6.228
N1493 X53.307 Y-6.453
N1494 X53.047 Y-6.496
N1495 X52.802 Y-6.4
N1496 X51.689 Y-5.577
N1497 X51.312 Y-5.485
N1498 X49.956 Y-5.703
N1499 X48.529 Y-5.586
N1500 X47.101 Y-5.194
N1501 X46.302 Y-4.816
N1502 X45.674 Y-4.4
N1503 X44.564 Y-3.44
N1504 X44.247 Y-3.139
N1505 X43.324 Y-2.064
N1506 X38.709 Y3.44
N1507 X38.537 Y3.658
N1508 X37.883 Y4.816
N1509 X37.491 Y6.192
N1510 X37.436 Y7.568
N1511 X37.765 Y8.945
N1512 X38.537 Y10.281
N1513 X38.569 Y10.321
N1514 X39.887 Y11.618
N1515 X39.937 Y11.862
N1516 X39.731 Y12.
N1517 X-39.73
N1518 X-39.94 Y11.858
N1519 X-39.886 Y11.61
N1520 X-38.537 Y10.316
N1521 X-37.761 Y8.945
N1522 X-37.449 Y7.568
N1523 X-37.513 Y6.192
N1524 X-37.886 Y4.816
N1525 X-38.537 Y3.658
N1526 X-38.709 Y3.44
N1527 X-43.324 Y-2.064
N1528 X-44.247 Y-3.139
N1529 X-44.569 Y-3.44
N1530 X-45.674 Y-4.394
N1531 X-46.273 Y-4.816
N1532 X-47.101 Y-5.219
N1533 X-48.529 Y-5.58
N1534 X-49.956 Y-5.701
N1535 X-51.383 Y-5.488
N1536 X-52.81 Y-4.888
N1537 X-52.949 Y-4.816
N1538 X-54.238 Y-3.842
N1539 X-54.586 Y-3.44
N1540 X-55.642 Y-2.064
N1541 X-55.665 Y-2.026
N1542 X-56.378 Y-.688
N1543 X-56.886 Y.688
N1544 X-57.092 Y1.315
N1545 X-57.316 Y2.064
N1546 X-57.861 Y4.816
N1547 X-58.05 Y6.192
N1548 X-58.185 Y7.568
N1549 X-58.118 Y8.945
N1550 X-57.662 Y10.321
N1551 X-57.092 Y11.231
N1552 X-56.834 Y11.525
N1553 X-56.783 Y11.686
N1554 X-56.867 Y11.833
N1555 X-56.997 Y11.929
N1556 X-57.211 Y12.
N1557 X-58.52
N1558 X-59.888 Y11.92
N1559 X-60.003 Y11.9
N1560 X-60.632 Y11.71
N1561 X-60.719 Y11.675
N1562 X-61.313 Y11.365
N1563 X-61.425 Y11.285
N1564 X-62.398 Y10.364
N1565 X-62.477 Y10.267
N1566 X-62.772 Y9.797
N1567 X-62.82 Y9.699
N1568 X-63.066 Y9.005
N1569 X-63.093 Y8.881
N1570 X-63.207 Y7.568
N1571 Y-7.568
N1572 X-63.093 Y-8.881
N1573 X-63.066 Y-9.005
N1574 X-62.82 Y-9.699
N1575 X-62.772 Y-9.797
N1576 X-62.477 Y-10.267
N1577 X-62.398 Y-10.364
N1578 X-61.425 Y-11.285
N1579 X-61.313 Y-11.365
N1580 X-60.719 Y-11.675
N1581 X-60.632 Y-11.71
N1582 X-60.003 Y-11.9
N1583 X-59.888 Y-11.92
N1584 X-58.52 Y-12.
N1585 X49.956
N1586 X58.52
N1587 X59.888 Y-11.92
N1588 X60.003 Y-11.9
N1589 X60.632 Y-11.71
N1590 X60.719 Y-11.675
N1591 X61.313 Y-11.365
N1592 X61.425 Y-11.285
N1593 X62.398 Y-10.364
N1594 X62.477 Y-10.267
N1595 X62.772 Y-9.797
N1596 X62.82 Y-9.699
N1597 X63.066 Y-9.005
N1598 X63.093 Y-8.881
N1599 X63.207 Y-7.568
N1600 Y7.568
N1601 X63.093 Y8.881
N1602 X63.066 Y9.005
N1603 X62.82 Y9.699
N1604 X62.772 Y9.797
N1605 X62.477 Y10.267
N1606 X62.398 Y10.364
N1607 X61.425 Y11.285
N1608 X61.313 Y11.365
N1609 X60.719 Y11.675
N1610 X60.632 Y11.71
N1611 X60.003 Y11.9
N1612 X59.888 Y11.92
N1613 X58.52 Y12.
N1614 X57.213
N1615 X56.998 Y11.925
N1616 X56.891 Y11.841
N1617 X56.808 Y11.688
N1618 X56.863 Y11.523
N1619 X57.092 Y11.264
N1620 X57.69 Y10.321
N1621 X58.145 Y8.945
N1622 X58.213 Y7.568
N1623 X58.041 Y6.192
N1624 X57.854 Y4.816
N1625 X57.601 Y3.44
N1626 X57.279 Y2.064
N1627 X57.092 Y1.29
N1628 X56.899 Y.688
N1629 X56.372 Y-.688
N1630 X55.665 Y-2.038
N1631 X55.649 Y-2.064
N1632 X54.645 Y-3.44
N1633 X54.238 Y-3.831
N1634 X52.971 Y-4.816
N1635 X52.81 Y-4.908
N1636 X51.383 Y-5.473
N1637 X51.312 Y-5.485
N1638 X51.366 Y-5.512
N1639 X52.354 Y-5.571
N1640 X53.341 Y-6.5
N1641 X54.329 Y-6.915
N1642 X54.878 Y-6.5
N1643 X55.317 Y-6.159
N1644 X56.035 Y-5.571
N1645 X56.305 Y-5.312
N1646 X57.293 Y-4.134
N1647 X58.096 Y-2.786
N1648 X58.633 Y-1.857
N1649 X59.312 Y0
N1650 X59.577 Y.929
N1651 X59.814 Y1.857
N1652 X60.351 Y3.714
N1653 X60.545 Y4.269
N1654 X59.824 Y.201 Z35.28 F600.
N1655 X59.173 Y-2.166 Z35.206
N1656 X58.195 Y-4.419 Z35.132
N1657 X57.164 Y-6.095 Z35.073
N1658 X55.73 Y-7.634 Z35.01
N1659 X54.039 Y-8.807 Z34.947
N1660 X52.726 Y-9.366 Z34.904
N1661 X51.974 Y-9.615 F1500.
N1662 X51.984 Y-9.693
N1663 X58.452
N1664 X58.877 Y-9.668
N1665 X59.612 Y-9.491
N1666 X60.24 Y-9.068
N1667 X60.68 Y-8.453
N1668 X60.878 Y-7.722
N1669 X60.892 Y-7.559
N1670 X60.9 Y7.469
N1671 X60.841 Y7.987
N1672 X60.519 Y4.062
N1673 X59.824 Y.201
N1674 X59.173 Y-2.166
N1675 X58.195 Y-4.419
N1676 X57.164 Y-6.095
N1677 X55.73 Y-7.634
N1678 X54.914 Y-8.262
N1679 X54.039 Y-8.807
N1680 X52.726 Y-9.366
N1681 X51.366 Y-9.692
N1682 X50.378 Y-9.75
N1683 X49.39
N1684 X48.402 Y-9.692
N1685 X46.427 Y-9.389
N1686 X45.933 Y-9.286
N1687 X44.451 Y-8.312
N1688 X43.463 Y-7.474
N1689 X43.403 Y-7.429
N1690 X42.476 Y-6.816
N1691 X40.5 Y-5.592
N1692 X38.524 Y-4.711
N1693 X28.03 Y-1.271
N1694 X28.074 Y-.871
N1695 X27.955 Y-.486
N1696 X27.302 Y.782
N1697 X26.876 Y1.396
N1698 X26.25 Y1.805
N1699 X25.517 Y1.949
N1700 X-.002
N1701 X-25.521
N1702 X-26.254 Y1.805
N1703 X-26.88 Y1.396
N1704 X-27.306 Y.782
N1705 X-27.957 Y-.485
N1706 X-28.079 Y-.976
N1707 X-27.942 Y-1.464
N1708 X-27.582 Y-1.819
N1709 X-27.092 Y-1.949
N1710 X27.094
N1711 X27.672 Y-1.761
N1712 X28.03 Y-1.271
N1713 X28.112 Y-1.117
N1714 X29.858 Y1.096
N1715 X29.963 Y1.35
N1716 X29.918 Y1.62
N1717 X29.694 Y2.115
N1718 X29.09 Y3.155
N1719 X28.206 Y3.971
N1720 X27.122 Y4.492
N1721 X25.933 Y4.67
N1722 X-.002
N1723 X-25.968
N1724 X-27.146 Y4.493
N1725 X-28.22 Y3.976
N1726 X-29.094 Y3.166
N1727 X-29.691 Y2.134
N1728 X-30.433 Y.646
N1729 X-31.318 Y-.761
N1730 X-33.562 Y-3.467
N1731 X-33.727 Y-3.843
N1732 X-33.664 Y-4.248
N1733 X-33.394 Y-4.556
N1734 X-33. Y-4.67
N1735 X33.
N1736 X33.394 Y-4.556
N1737 X33.664 Y-4.248
N1738 X33.727 Y-3.843
N1739 X33.562 Y-3.467
N1740 X31.719 Y-1.269
N1741 X30.735 Y.124
N1742 X29.918 Y1.62
N1743 X29.879 Y1.929
N1744 X30.03 Y2.201
N1745 X31.595 Y3.651
N1746 X31.737 Y3.882
N1747 Y4.153
N1748 X31.484 Y5.052
N1749 X31.109 Y5.921
N1750 X30.472 Y6.619
N1751 X29.641 Y7.071
N1752 X28.709 Y7.227
N1753 X-.002
N1754 X-28.716
N1755 X-29.653 Y7.071
N1756 X-30.487 Y6.617
N1757 X-31.128 Y5.916
N1758 X-31.505 Y5.045
N1759 X-31.907 Y3.564
N1760 X-32.332 Y2.513
N1761 X-33.339 Y.806
N1762 X-39.044 Y-6.027
N1763 X-39.209 Y-6.401
N1764 X-39.147 Y-6.805
N1765 X-38.877 Y-7.113
N1766 X-38.484 Y-7.227
N1767 X38.484
N1768 X38.877 Y-7.113
N1769 X39.147 Y-6.805
N1770 X39.209 Y-6.401
N1771 X39.044 Y-6.027
N1772 X33.339 Y.806
N1773 X32.334 Y2.501
N1774 X31.916 Y3.515
N1775 X31.737 Y4.153
N1776 X31.748 Y4.46
N1777 X31.937 Y4.702
N1778 X33.671 Y5.878
N1779 X33.843 Y6.078
N1780 X33.889 Y6.337
N1781 X33.848 Y7.48
N1782 X33.907 Y8.083
N1783 X33.914 Y8.112
N1784 X33.919 Y8.719
N1785 X33.659 Y9.267
N1786 X33.186 Y9.648
N1787 X32.594 Y9.784
N1788 X-.002
N1789 X-32.58
N1790 X-33.177 Y9.647
N1791 X-33.656 Y9.266
N1792 X-33.923 Y8.714
N1793 X-33.924 Y8.101
N1794 X-33.914 Y8.058
N1795 X-33.861 Y7.468
N1796 X-33.999 Y5.611
N1797 X-34.373 Y4.235
N1798 X-35.169 Y2.661
N1799 X-35.637 Y2.016
N1800 X-42.565 Y-6.243
N1801 X-44.188 Y-7.737
N1802 X-45.936 Y-8.888
N1803 X-46.508 Y-9.138
N1804 X-47.936 Y-9.535
N1805 X-49.017 Y-9.688
N1806 X-49.059 Y-9.739
N1807 X-49.011 Y-9.784
N1808 X48.841
N1809 X48.895 Y-9.733
N1810 X48.848 Y-9.677
N1811 X47.905 Y-9.527
N1812 X46.478 Y-9.108
N1813 X45.966 Y-8.885
N1814 X44.643 Y-8.096
N1815 X44.179 Y-7.743
N1816 X42.766 Y-6.452
N1817 X35.584 Y2.082
N1818 X34.57 Y3.741
N1819 X33.986 Y5.588
N1820 X33.889 Y6.337
N1821 Z37.404
N1822 G00 Z39.383
N1823 X-60.991 Y-1.999
N1824 Z37.904
N1825 G01 Z35.404 F600.
N1826 Y-7.377 Z35.249
N1827 X-60.97 Y-7.713 Z35.239
N1828 X-60.633 Y-8.715 Z35.209
N1829 X-59.876 Y-9.451 Z35.178
N1830 X-58.865 Y-9.76 Z35.147
N1831 X-58.455 Y-9.784 Z35.135
N1832 X-50.505 Z34.906
N1833 X-50.502 Y-9.733 Z34.904 F1500.
N1834 X-52.193 Y-9.453
N1835 X-53.62 Y-8.894
N1836 X-55.304 Y-7.883
N1837 X-56.113 Y-7.125
N1838 X-56.842 Y-6.289
N1839 X-57.467 Y-5.443
N1840 X-58.005 Y-4.54
N1841 X-59.057 Y-2.199
N1842 X-59.768 Y.267
N1843 X-60.329 Y3.201
N1844 X-60.73 Y7.393
N1845 X-60.736 Y8.386
N1846 X-60.819 Y8.475
N1847 X-60.911 Y8.395
N1848 X-60.991 Y7.473
N1849 Y-7.377
N1850 X-60.97 Y-7.713
N1851 X-60.762 Y-8.481
N1852 X-60.299 Y-9.128
N1853 X-59.639 Y-9.573
N1854 X-58.865 Y-9.76
N1855 X-58.455 Y-9.784
N1856 X-50.505
N1857 X-50.511 Y-9.654
N1858 X-51.396 Y-7.548
N1859 X-51.674 Y-7.276
N1860 X-52.81 Y-6.83
N1861 X-53.872 Y-6.192
N1862 X-54.238 Y-5.882
N1863 X-55.185 Y-4.816
N1864 X-55.665 Y-4.167
N1865 X-56.081 Y-3.44
N1866 X-56.736 Y-2.064
N1867 X-57.092 Y-1.112
N1868 X-57.232 Y-.688
N1869 X-57.592 Y.688
N1870 X-58.125 Y3.44
N1871 X-58.274 Y4.816
N1872 X-58.411 Y6.192
N1873 X-58.52 Y7.568
N1874 Y8.351
N1875 X-58.446 Y8.945
N1876 X-57.993 Y10.321
N1877 X-57.124 Y11.577
N1878 X-57.106 Y11.856
N1879 X-57.345 Y12.
N1880 X-58.52
N1881 X-59.888 Y11.92
N1882 X-60.003 Y11.9
N1883 X-60.632 Y11.71
N1884 X-60.719 Y11.675
N1885 X-61.313 Y11.365
N1886 X-61.425 Y11.285
N1887 X-62.398 Y10.364
N1888 X-62.477 Y10.267
N1889 X-62.772 Y9.797
N1890 X-62.82 Y9.699
N1891 X-63.066 Y9.005
N1892 X-63.093 Y8.881
N1893 X-63.207 Y7.568
N1894 Y-7.568
N1895 X-63.093 Y-8.881
N1896 X-63.066 Y-9.005
N1897 X-62.82 Y-9.699
N1898 X-62.772 Y-9.797
N1899 X-62.477 Y-10.267
N1900 X-62.398 Y-10.364
N1901 X-61.425 Y-11.285
N1902 X-61.313 Y-11.365
N1903 X-60.719 Y-11.675
N1904 X-60.632 Y-11.71
N1905 X-60.003 Y-11.9
N1906 X-59.888 Y-11.92
N1907 X-58.52 Y-12.
N1908 X49.956
N1909 X58.52
N1910 X59.888 Y-11.92
N1911 X60.003 Y-11.9
N1912 X60.632 Y-11.71
N1913 X60.719 Y-11.675
N1914 X61.313 Y-11.365
N1915 X61.425 Y-11.285
N1916 X62.398 Y-10.364
N1917 X62.477 Y-10.267
N1918 X62.772 Y-9.797
N1919 X62.82 Y-9.699
N1920 X63.066 Y-9.005
N1921 X63.093 Y-8.881
N1922 X63.207 Y-7.568
N1923 Y7.568
N1924 X63.093 Y8.881
N1925 X63.066 Y9.005
N1926 X62.82 Y9.699
N1927 X62.772 Y9.797
N1928 X62.477 Y10.267
N1929 X62.398 Y10.364
N1930 X61.425 Y11.285
N1931 X61.313 Y11.365
N1932 X60.719 Y11.675
N1933 X60.632 Y11.71
N1934 X60.003 Y11.9
N1935 X59.888 Y11.92
N1936 X58.52 Y12.
N1937 X57.273
N1938 X57.045 Y11.826
N1939 X57.092 Y11.611
N1940 X57.985 Y10.321
N1941 X58.439 Y8.945
N1942 X58.52 Y8.22
N1943 Y7.78
N1944 X58.417 Y6.192
N1945 X58.287 Y4.816
N1946 X58.107 Y3.44
N1947 X57.866 Y2.064
N1948 X57.569 Y.688
N1949 X57.234 Y-.688
N1950 X57.092 Y-1.122
N1951 X56.751 Y-2.064
N1952 X56.106 Y-3.44
N1953 X55.665 Y-4.183
N1954 X55.244 Y-4.816
N1955 X54.238 Y-5.874
N1956 X53.863 Y-6.192
N1957 X52.81 Y-6.855
N1958 X51.383 Y-7.385
N1959 X50.214 Y-7.568
N1960 X49.956 Y-7.572
N1961 X49.819 Y-7.568
N1962 X48.529 Y-7.4
N1963 X47.101 Y-6.981
N1964 X45.777 Y-6.192
N1965 X45.674 Y-6.107
N1966 X44.261 Y-4.816
N1967 X43.104 Y-3.44
N1968 X37.335 Y3.44
N1969 X37.11 Y3.731
N1970 X36.508 Y4.816
N1971 X36.118 Y6.192
N1972 X36.063 Y7.568
N1973 X36.391 Y8.945
N1974 X37.11 Y10.214
N1975 X37.195 Y10.321
N1976 X38.466 Y11.586
N1977 X38.519 Y11.85
N1978 X38.296 Y12.
N1979 X-38.294
N1980 X-38.522 Y11.846
N1981 X-38.465 Y11.577
N1982 X-37.167 Y10.321
N1983 X-37.11 Y10.247
N1984 X-36.387 Y8.945
N1985 X-36.075 Y7.568
N1986 X-36.138 Y6.192
N1987 X-36.512 Y4.816
N1988 X-37.11 Y3.731
N1989 X-37.335 Y3.44
N1990 X-43.104 Y-3.44
N1991 X-44.261 Y-4.816
N1992 X-45.674 Y-6.093
N1993 X-45.789 Y-6.192
N1994 X-47.101 Y-7.003
N1995 X-48.529 Y-7.399
N1996 X-49.956 Y-7.568
N1997 X-51.383 Y-7.39
N1998 X-51.674 Y-7.276
N1999 X-52.049 Y-7.429
N2000 X-52.354 Y-8.357
N2001 X-53.341 Y-9.286
N2002 X-54.329 Y-8.834
N2003 X-55.137 Y-8.357
N2004 X-55.317 Y-8.264
N2005 X-56.208 Y-7.429
N2006 X-56.305 Y-7.331
N2007 X-57.194 Y-6.5
N2008 X-58.28 Y-4.628
N2009 X-59.182 Y-2.786
N2010 X-60.139 Y-.929
N2011 X-60.256 Y-.731
N2012 X-60.707 Y0
N2013 X-61.461 Y.948
N2014 Y-7.404 Z34.664 F600.
N2015 X-61.404 Y-8.145 Z34.643
N2016 X-61.197 Y-8.901 Z34.62
N2017 X-60.733 Y-9.535 Z34.597
N2018 X-60.644 Y-9.619 Z34.594
N2019 X-60.018 Y-10.032 Z34.572
N2020 X-59.288 Y-10.206 Z34.55
N2021 X-58.469 Y-10.254 Z34.527
N2022 X-55.045 Z34.428
N2023 X-54.714 Y-10.048 Z34.416
N2024 X-54.753 Y-9.66 Z34.404
N2025 X-54.854 Y-9.571 F1500.
N2026 X-55.783 Y-8.853
N2027 X-57.159 Y-7.196
N2028 X-58.05 Y-5.711
N2029 X-58.743 Y-4.009
N2030 X-59.236 Y-2.554
N2031 X-59.563 Y-1.053
N2032 X-60.004 Y1.194
N2033 X-60.257 Y3.469
N2034 X-60.473 Y6.062
N2035 X-60.446 Y8.664
N2036 X-60.606 Y9.022
N2037 X-60.99 Y9.099
N2038 X-61.275 Y8.831
N2039 X-61.373 Y8.512
N2040 X-61.461 Y7.493
N2041 Y-7.404
N2042 X-61.404 Y-8.145
N2043 X-61.197 Y-8.901
N2044 X-60.733 Y-9.535
N2045 X-60.644 Y-9.619
N2046 X-60.018 Y-10.032
N2047 X-59.288 Y-10.206
N2048 X-58.469 Y-10.254
N2049 X-55.045
N2050 X-54.795 Y-10.157
N2051 X-54.678 Y-9.917
N2052 X-54.753 Y-9.66
N2053 X-53.341 Y-10.336
N2054 X-51.366 Y-10.621
N2055 X-50.378 Y-10.679
N2056 X-49.39
N2057 X-47.415 Y-10.446
N2058 X-46.427 Y-10.316
N2059 X-45.933 Y-10.214
N2060 X-44.451 Y-9.692
N2061 X-43.596 Y-9.286
N2062 X-43.463 Y-9.193
N2063 X-42.631 Y-8.357
N2064 X-42.476 Y-8.206
N2065 X-41.488 Y-7.383
N2066 X-40.5 Y-6.726
N2067 X-38.524 Y-5.581
N2068 X-26.197 Y-.963
N2069 X-25.986 Y-1.342
N2070 X-25.638 Y-1.599
N2071 X-25.214 Y-1.691
N2072 X25.216
N2073 X25.722 Y-1.557
N2074 X26.096 Y-1.191
N2075 X26.239 Y-.687
N2076 X26.115 Y-.179
N2077 X25.691 Y.679
N2078 X25.322 Y1.212
N2079 X24.779 Y1.566
N2080 X24.142 Y1.691
N2081 X-.002
N2082 X-24.147
N2083 X-24.784 Y1.566
N2084 X-25.326 Y1.212
N2085 X-25.696 Y.679
N2086 X-26.118 Y-.176
N2087 X-26.236 Y-.562
N2088 X-26.197 Y-.963
N2089 X-26.229 Y-1.336
N2090 X-26.512 Y-1.581
N2091 X-26.885 Y-1.562
N2092 X-29.021 Y-.571
N2093 X-29.364 Y-.543
N2094 X-29.644 Y-.743
N2095 X-30.167 Y-1.418
N2096 X-31.69 Y-3.235
N2097 X-31.855 Y-3.61
N2098 X-31.792 Y-4.015
N2099 X-31.522 Y-4.323
N2100 X-31.128 Y-4.438
N2101 X31.128
N2102 X31.522 Y-4.323
N2103 X31.792 Y-4.015
N2104 X31.855 Y-3.61
N2105 X31.69 Y-3.235
N2106 X30.167 Y-1.418
N2107 X29.051 Y.175
N2108 X28.156 Y1.902
N2109 X27.532 Y2.936
N2110 X26.635 Y3.746
N2111 X25.542 Y4.261
N2112 X24.347 Y4.438
N2113 X-.002
N2114 X-24.376
N2115 X-25.563 Y4.262
N2116 X-26.648 Y3.75
N2117 X-27.537 Y2.944
N2118 X-28.154 Y1.916
N2119 X-28.84 Y.553
N2120 X-29.644 Y-.743
N2121 X-29.905 Y-.937
N2122 X-30.23 Y-.93
N2123 X-32.086 Y-.244
N2124 X-32.388 Y-.229
N2125 X-32.643 Y-.391
N2126 X-37.17 Y-5.792
N2127 X-37.335 Y-6.167
N2128 X-37.273 Y-6.572
N2129 X-37.002 Y-6.88
N2130 X-36.609 Y-6.995
N2131 X36.609
N2132 X37.002 Y-6.88
N2133 X37.273 Y-6.572
N2134 X37.335 Y-6.167
N2135 X37.17 Y-5.792
N2136 X32.126 Y.225
N2137 X31.7 Y.775
N2138 X30.737 Y2.424
N2139 X30.316 Y3.458
N2140 X29.929 Y4.829
N2141 X29.524 Y5.698
N2142 X28.862 Y6.392
N2143 X28.014 Y6.84
N2144 X27.068 Y6.995
N2145 X-.002
N2146 X-27.078
N2147 X-28.033 Y6.838
N2148 X-28.888 Y6.383
N2149 X-29.551 Y5.679
N2150 X-29.954 Y4.799
N2151 X-30.31 Y3.497
N2152 X-30.733 Y2.441
N2153 X-31.7 Y.775
N2154 X-32.126 Y.225
N2155 X-32.643 Y-.391
N2156 X-32.911 Y-.557
N2157 X-33.226 Y-.528
N2158 X-34.982 Y.239
N2159 X-35.297 Y.267
N2160 X-35.566 Y.102
N2161 X-42.371 Y-8.015
N2162 X-42.902 Y-8.545
N2163 X-43.081 Y-8.959
N2164 X-42.912 Y-9.378
N2165 X-42.496 Y-9.552
N2166 X42.473
N2167 X42.893 Y-9.377
N2168 X43.065 Y-8.956
N2169 X42.887 Y-8.537
N2170 X42.371 Y-8.015
N2171 X34.086 Y1.867
N2172 X33.532 Y2.637
N2173 X32.777 Y4.152
N2174 X32.389 Y5.528
N2175 X32.299 Y6.093
N2176 X32.247 Y7.732
N2177 X32.152 Y8.419
N2178 X31.791 Y9.011
N2179 X31.224 Y9.411
N2180 X30.545 Y9.552
N2181 X-.002
N2182 X-30.529
N2183 X-31.216 Y9.41
N2184 X-31.79 Y9.007
N2185 X-32.158 Y8.41
N2186 X-32.258 Y7.716
N2187 X-32.276 Y6.628
N2188 X-32.401 Y5.547
N2189 X-32.777 Y4.171
N2190 X-33.528 Y2.645
N2191 X-34.086 Y1.867
N2192 X-35.566 Y.102
N2193 Z36.904
N2194 G00 Z40.232
N2195 X60.399 Y5.193
N2196 Z37.404
N2197 G01 Z34.904 F600.
N2198 X60.249 Y3.1 Z34.841
N2199 X59.205 Y-2.566 Z34.667
N2200 X58.163 Y-5.488 Z34.574
N2201 X57.225 Y-7.128 Z34.517
N2202 X55.913 Y-8.71 Z34.455
N2203 X54.886 Y-9.549 Z34.415
N2204 X54.709 Y-9.831 Z34.404
N2205 X54.804 Y-10.129 F1500.
N2206 X55.089 Y-10.256
N2207 X58.469
N2208 X59.292 Y-10.208
N2209 X60.019 Y-10.035
N2210 X60.643 Y-9.624
N2211 X60.737 Y-9.534
N2212 X61.199 Y-8.902
N2213 X61.406 Y-8.148
N2214 X61.456 Y-7.581
N2215 X61.463 Y7.493
N2216 X61.375 Y8.514
N2217 X61.277 Y8.831
N2218 X60.995 Y9.095
N2219 X60.616 Y9.019
N2220 X60.459 Y8.665
N2221 X60.518 Y7.498
N2222 X60.249 Y3.1
N2223 X59.824 Y.249
N2224 X59.205 Y-2.566
N2225 X58.75 Y-4.05
N2226 X58.163 Y-5.488
N2227 X57.225 Y-7.128
N2228 X55.913 Y-8.71
N2229 X54.886 Y-9.549
N2230 X54.709 Y-9.831
N2231 X54.532 Y-10.161
N2232 X54.177 Y-10.276
N2233 X53.841 Y-10.112
N2234 X52.925 Y-9.098
N2235 X52.682 Y-8.949
N2236 X52.398 Y-8.958
N2237 X51.383 Y-9.292
N2238 X49.956 Y-9.437
N2239 X48.529 Y-9.212
N2240 X47.556 Y-8.945
N2241 X47.101 Y-8.761
N2242 X45.674 Y-7.803
N2243 X45.397 Y-7.568
N2244 X44.247 Y-6.442
N2245 X35.962 Y3.44
N2246 X35.683 Y3.807
N2247 X35.133 Y4.816
N2248 X34.745 Y6.192
N2249 X34.689 Y7.568
N2250 X35.017 Y8.945
N2251 X35.683 Y10.144
N2252 X35.82 Y10.321
N2253 X37.047 Y11.555
N2254 X37.103 Y11.839
N2255 X36.863 Y12.
N2256 X-36.957
N2257 X-37.167 Y11.858
N2258 X-37.11 Y11.607
N2259 X-35.793 Y10.321
N2260 X-35.683 Y10.176
N2261 X-35.013 Y8.945
N2262 X-34.702 Y7.568
N2263 X-34.762 Y6.192
N2264 X-35.138 Y4.816
N2265 X-35.683 Y3.807
N2266 X-35.962 Y3.44
N2267 X-44.247 Y-6.442
N2268 X-45.417 Y-7.568
N2269 X-45.674 Y-7.789
N2270 X-47.101 Y-8.777
N2271 X-47.495 Y-8.945
N2272 X-48.529 Y-9.216
N2273 X-49.956 Y-9.429
N2274 X-51.383 Y-9.283
N2275 X-52.434 Y-8.945
N2276 X-52.81 Y-8.767
N2277 X-54.238 Y-7.902
N2278 X-54.6 Y-7.568
N2279 X-55.665 Y-6.284
N2280 X-55.729 Y-6.192
N2281 X-56.55 Y-4.816
N2282 X-57.092 Y-3.439
N2283 X-57.568 Y-2.064
N2284 X-57.855 Y-.688
N2285 X-58.156 Y.688
N2286 X-58.363 Y2.064
N2287 X-58.52 Y3.65
N2288 X-58.647 Y4.816
N2289 X-58.719 Y6.192
N2290 X-58.757 Y7.568
N2291 X-58.681 Y8.945
N2292 X-58.52 Y9.594
N2293 X-58.229 Y10.321
N2294 X-57.256 Y11.697
N2295 X-57.19 Y11.762
N2296 X-57.169 Y11.934
N2297 X-57.345 Y12.
N2298 X-58.52
N2299 X-59.888 Y11.92
N2300 X-60.003 Y11.9
N2301 X-60.632 Y11.71
N2302 X-60.719 Y11.675
N2303 X-61.313 Y11.365
N2304 X-61.425 Y11.285
N2305 X-62.398 Y10.364
N2306 X-62.477 Y10.267
N2307 X-62.772 Y9.797
N2308 X-62.82 Y9.699
N2309 X-63.066 Y9.005
N2310 X-63.093 Y8.881
N2311 X-63.207 Y7.568
N2312 Y-7.568
N2313 X-63.093 Y-8.881
N2314 X-63.066 Y-9.005
N2315 X-62.82 Y-9.699
N2316 X-62.772 Y-9.797
N2317 X-62.477 Y-10.267
N2318 X-62.398 Y-10.364
N2319 X-61.425 Y-11.285
N2320 X-61.313 Y-11.365
N2321 X-60.719 Y-11.675
N2322 X-60.632 Y-11.71
N2323 X-60.003 Y-11.9
N2324 X-59.888 Y-11.92
N2325 X-58.52 Y-12.
N2326 X49.956
N2327 X58.52
N2328 X59.888 Y-11.92
N2329 X60.003 Y-11.9
N2330 X60.632 Y-11.71
N2331 X60.719 Y-11.675
N2332 X61.313 Y-11.365
N2333 X61.425 Y-11.285
N2334 X62.398 Y-10.364
N2335 X62.477 Y-10.267
N2336 X62.772 Y-9.797
N2337 X62.82 Y-9.699
N2338 X63.066 Y-9.005
N2339 X63.093 Y-8.881
N2340 X63.207 Y-7.568
N2341 Y7.568
N2342 X63.093 Y8.881
N2343 X63.066 Y9.005
N2344 X62.82 Y9.699
N2345 X62.772 Y9.797
N2346 X62.477 Y10.267
N2347 X62.398 Y10.364
N2348 X61.425 Y11.285
N2349 X61.313 Y11.365
N2350 X60.719 Y11.675
N2351 X60.632 Y11.71
N2352 X60.003 Y11.9
N2353 X59.888 Y11.92
N2354 X58.52 Y12.
N2355 X57.282
N2356 X57.161 Y11.919
N2357 X57.191 Y11.776
N2358 X57.272 Y11.697
N2359 X58.244 Y10.321
N2360 X58.52 Y9.641
N2361 X58.696 Y8.945
N2362 X58.775 Y7.568
N2363 X58.719 Y6.192
N2364 X58.621 Y4.816
N2365 X58.53 Y3.44
N2366 X58.52 Y3.329
N2367 X58.352 Y2.064
N2368 X58.142 Y.688
N2369 X57.848 Y-.688
N2370 X57.535 Y-2.064
N2371 X57.121 Y-3.44
N2372 X57.092 Y-3.524
N2373 X56.553 Y-4.816
N2374 X55.753 Y-6.192
N2375 X55.665 Y-6.331
N2376 X54.594 Y-7.568
N2377 X54.238 Y-7.897
N2378 X52.81 Y-8.793
N2379 X52.438 Y-8.945
N2380 X52.398 Y-8.958
N2381 X53.341 Y-9.214
N2382 X54.329 Y-9.286
N2383 X55.317 Y-9.75
N2384 X56.305 Y-9.392
N2385 X56.411 Y-9.286
N2386 X57.293 Y-8.27
N2387 X57.926 Y-7.429
N2388 X59.007 Y-5.571
N2389 X59.697 Y-3.714
N2390 X60.157 Y-1.857
N2391 X60.551 Y0
N2392 X60.781 Y1.857
N2393 X60.893 Y3.714
N2394 X60.997 Y5.571
N2395 X60.774 Y6.5
N2396 X60.762 Y6.628
N2397 X60.514 Y1.922 Z34.262 F600.
N2398 X59.926 Y-2.32 Z34.132
N2399 X58.78 Y-6.446 Z34.003
N2400 X57.443 Y-8.976 Z33.916
N2401 X57.323 Y-9.342 Z33.904
N2402 X57.409 Y-9.773 F1500.
N2403 X57.707 Y-10.095
N2404 X58.129 Y-10.214
N2405 X59.803 Y-10.095
N2406 X60.482 Y-9.718
N2407 X60.85 Y-9.37
N2408 X61.194 Y-8.9
N2409 X61.348 Y-8.338
N2410 X61.416 Y-7.554
N2411 X61.421 Y7.491
N2412 X61.337 Y8.469
N2413 X61.228 Y8.678
N2414 X61.004 Y8.751
N2415 X60.793 Y8.646
N2416 X60.717 Y8.423
N2417 X60.741 Y5.168
N2418 X60.514 Y1.922
N2419 X60.185 Y-.915
N2420 X59.606 Y-3.712
N2421 X58.78 Y-6.446
N2422 X58.172 Y-7.743
N2423 X57.443 Y-8.976
N2424 X57.323 Y-9.342
N2425 X56.305 Y-10.307
N2426 X54.329 Y-11.05
N2427 X54.23 Y-11.143
N2428 X53.341 Y-11.278
N2429 X51.366 Y-11.598
N2430 X50.378 Y-11.634
N2431 X49.39 Y-11.595
N2432 X48.402 Y-11.491
N2433 X46.427 Y-11.143
N2434 X45.439 Y-10.8
N2435 X43.734 Y-10.214
N2436 X42.476 Y-9.518
N2437 X41.995 Y-9.286
N2438 X41.488 Y-8.866
N2439 X39.603 Y-7.429
N2440 X39.512 Y-7.376
N2441 X37.537 Y-6.374
N2442 X24.62 Y-.795
N2443 X24.647 Y-.413
N2444 X24.534 Y-.047
N2445 X24.207 Y.631
N2446 X23.864 Y1.126
N2447 X23.359 Y1.456
N2448 X22.768 Y1.572
N2449 X-.003
N2450 X-22.773
N2451 X-23.365 Y1.456
N2452 X-23.87 Y1.126
N2453 X-24.213 Y.631
N2454 X-24.536 Y-.04
N2455 X-24.656 Y-.557
N2456 X-24.506 Y-1.067
N2457 X-24.125 Y-1.437
N2458 X-23.611 Y-1.572
N2459 X23.614
N2460 X24.056 Y-1.473
N2461 X24.414 Y-1.197
N2462 X24.62 Y-.795
N2463 X24.729 Y-.59
N2464 X26.537 Y1.455
N2465 X26.658 Y1.72
N2466 X26.61 Y2.007
N2467 X25.962 Y2.962
N2468 X25.076 Y3.701
N2469 X24.021 Y4.169
N2470 X22.878 Y4.329
N2471 X-.003
N2472 X-22.901
N2473 X-24.092 Y4.154
N2474 X-25.182 Y3.643
N2475 X-26.078 Y2.84
N2476 X-26.706 Y1.813
N2477 X-27.354 Y.525
N2478 X-28.109 Y-.704
N2479 X-30.083 Y-3.126
N2480 X-30.247 Y-3.501
N2481 X-30.185 Y-3.906
N2482 X-29.915 Y-4.214
N2483 X-29.521 Y-4.329
N2484 X29.521
N2485 X29.915 Y-4.214
N2486 X30.185 Y-3.906
N2487 X30.247 Y-3.501
N2488 X30.083 Y-3.126
N2489 X28.709 Y-1.488
N2490 X27.598 Y.091
N2491 X26.704 Y1.803
N2492 X26.61 Y2.007
N2493 X26.572 Y2.341
N2494 X26.753 Y2.624
N2495 X28.373 Y3.877
N2496 X28.538 Y4.108
N2497 X28.552 Y4.392
N2498 X28.487 Y4.673
N2499 X28.074 Y5.561
N2500 X27.399 Y6.27
N2501 X26.534 Y6.728
N2502 X25.568 Y6.886
N2503 X-.003
N2504 X-25.58
N2505 X-26.551 Y6.726
N2506 X-27.42 Y6.265
N2507 X-28.095 Y5.549
N2508 X-28.506 Y4.655
N2509 X-28.886 Y3.309
N2510 X-29.44 Y2.025
N2511 X-30.158 Y.826
N2512 X-30.669 Y.155
N2513 X-35.563 Y-5.683
N2514 X-35.728 Y-6.058
N2515 X-35.666 Y-6.463
N2516 X-35.395 Y-6.771
N2517 X-35.002 Y-6.886
N2518 X35.002
N2519 X35.395 Y-6.771
N2520 X35.666 Y-6.463
N2521 X35.728 Y-6.058
N2522 X35.563 Y-5.683
N2523 X30.669 Y.155
N2524 X30.158 Y.826
N2525 X29.191 Y2.535
N2526 X28.552 Y4.392
N2527 X28.574 Y4.696
N2528 X28.768 Y4.932
N2529 X30.571 Y6.085
N2530 X30.745 Y6.274
N2531 X30.802 Y6.525
N2532 X30.76 Y7.644
N2533 X30.642 Y8.328
N2534 X30.267 Y8.913
N2535 X29.694 Y9.305
N2536 X29.013 Y9.443
N2537 X-.003
N2538 X-28.998
N2539 X-29.687 Y9.304
N2540 X-30.267 Y8.909
N2541 X-30.649 Y8.319
N2542 X-30.772 Y7.628
N2543 X-30.832 Y6.083
N2544 X-31.299 Y4.14
N2545 X-31.703 Y3.223
N2546 X-32.207 Y2.355
N2547 X-32.628 Y1.797
N2548 X-41.044 Y-8.24
N2549 X-41.209 Y-8.615
N2550 X-41.146 Y-9.02
N2551 X-40.876 Y-9.328
N2552 X-40.482 Y-9.443
N2553 X40.482
N2554 X40.876 Y-9.328
N2555 X41.146 Y-9.02
N2556 X41.209 Y-8.615
N2557 X41.044 Y-8.24
N2558 X32.628 Y1.797
N2559 X32.207 Y2.355
N2560 X31.503 Y3.613
N2561 X30.911 Y5.501
N2562 X30.818 Y6.088
N2563 X30.802 Y6.525
N2564 Z36.404
N2565 G00 Z40.224
N2566 X-61.44 Y5.263
N2567 Z36.904
N2568 G01 Z34.404 F600.
N2569 X-61.435 Y-7.556 Z34.072
N2570 X-61.367 Y-8.336 Z34.051
N2571 X-61.21 Y-8.908 Z34.036
N2572 X-60.86 Y-9.387 Z34.02
N2573 X-60.496 Y-9.731 Z34.007
N2574 X-60.146 Y-9.981 Z33.996
N2575 X-59.867 Y-10.096 Z33.988
N2576 X-58.026 Y-10.233 Z33.94
N2577 X-57.419 Y-9.95 Z33.922
N2578 X-57.247 Y-9.302 Z33.904
N2579 X-57.37 Y-8.999 F1500.
N2580 X-58.316 Y-7.358
N2581 X-59.06 Y-5.615
N2582 X-59.59 Y-3.797
N2583 X-60.151 Y-1.034
N2584 X-60.489 Y1.846
N2585 X-60.682 Y4.739
N2586 X-60.74 Y6.61
N2587 X-60.694 Y8.481
N2588 X-60.816 Y8.757
N2589 X-61.111 Y8.817
N2590 X-61.332 Y8.611
N2591 X-61.441 Y7.492
N2592 X-61.435 Y-7.556
N2593 X-61.367 Y-8.336
N2594 X-61.21 Y-8.908
N2595 X-60.86 Y-9.387
N2596 X-60.496 Y-9.731
N2597 X-60.146 Y-9.981
N2598 X-59.867 Y-10.096
N2599 X-58.95 Y-10.217
N2600 X-58.026 Y-10.233
N2601 X-57.591 Y-10.103
N2602 X-57.299 Y-9.754
N2603 X-57.247 Y-9.302
N2604 X-57.21 Y-9.006
N2605 X-56.495 Y-7.439
N2606 X-56.45 Y-7.217
N2607 X-56.508 Y-6.997
N2608 X-56.936 Y-6.192
N2609 X-57.092 Y-5.763
N2610 X-57.465 Y-4.816
N2611 X-57.86 Y-3.44
N2612 X-58.143 Y-2.064
N2613 X-58.418 Y-.688
N2614 X-58.52 Y.006
N2615 X-58.727 Y2.064
N2616 X-58.857 Y3.44
N2617 X-58.917 Y4.816
N2618 X-58.955 Y6.192
N2619 X-58.981 Y7.568
N2620 X-58.896 Y8.945
N2621 X-58.52 Y10.159
N2622 X-58.444 Y10.321
N2623 X-57.585 Y11.538
N2624 X-57.568 Y11.664
N2625 X-57.66 Y11.751
N2626 X-58.437 Y11.976
N2627 X-58.605 Y11.995
N2628 X-59.888 Y11.92
N2629 X-60.003 Y11.9
N2630 X-60.632 Y11.71
N2631 X-60.719 Y11.675
N2632 X-61.313 Y11.365
N2633 X-61.425 Y11.285
N2634 X-62.398 Y10.364
N2635 X-62.477 Y10.267
N2636 X-62.772 Y9.797
N2637 X-62.82 Y9.699
N2638 X-63.066 Y9.005
N2639 X-63.093 Y8.881
N2640 X-63.207 Y7.568
N2641 Y-7.568
N2642 X-63.093 Y-8.881
N2643 X-63.066 Y-9.005
N2644 X-62.82 Y-9.699
N2645 X-62.772 Y-9.797
N2646 X-62.477 Y-10.267
N2647 X-62.398 Y-10.364
N2648 X-61.425 Y-11.285
N2649 X-61.313 Y-11.365
N2650 X-60.719 Y-11.675
N2651 X-60.632 Y-11.71
N2652 X-60.003 Y-11.9
N2653 X-59.888 Y-11.92
N2654 X-58.52 Y-12.
N2655 X49.956
N2656 X58.52
N2657 X59.888 Y-11.92
N2658 X60.003 Y-11.9
N2659 X60.632 Y-11.71
N2660 X60.719 Y-11.675
N2661 X61.313 Y-11.365
N2662 X61.425 Y-11.285
N2663 X62.398 Y-10.364
N2664 X62.477 Y-10.267
N2665 X62.772 Y-9.797
N2666 X62.82 Y-9.699
N2667 X63.066 Y-9.005
N2668 X63.093 Y-8.881
N2669 X63.207 Y-7.568
N2670 Y7.568
N2671 X63.093 Y8.881
N2672 X63.066 Y9.005
N2673 X62.82 Y9.699
N2674 X62.772 Y9.797
N2675 X62.477 Y10.267
N2676 X62.398 Y10.364
N2677 X61.425 Y11.285
N2678 X61.313 Y11.365
N2679 X60.719 Y11.675
N2680 X60.632 Y11.71
N2681 X60.003 Y11.9
N2682 X59.888 Y11.92
N2683 X58.605 Y11.995
N2684 X58.437 Y11.976
N2685 X57.66 Y11.751
N2686 X57.568 Y11.664
N2687 X57.585 Y11.538
N2688 X58.444 Y10.321
N2689 X58.52 Y10.159
N2690 X58.896 Y8.945
N2691 X58.981 Y7.568
N2692 X58.965 Y6.192
N2693 X58.931 Y4.816
N2694 X58.844 Y3.44
N2695 X58.734 Y2.064
N2696 X58.6 Y.688
N2697 X58.413 Y-.688
N2698 X58.158 Y-2.064
N2699 X57.825 Y-3.44
N2700 X57.454 Y-4.816
N2701 X57.092 Y-5.863
N2702 X56.96 Y-6.192
N2703 X56.217 Y-7.568
N2704 X55.665 Y-8.451
N2705 X55.255 Y-8.945
N2706 X54.238 Y-9.902
N2707 X53.639 Y-10.321
N2708 X52.81 Y-10.723
N2709 X51.383 Y-11.195
N2710 X49.956 Y-11.299
N2711 X48.529 Y-11.023
N2712 X47.101 Y-10.533
N2713 X46.724 Y-10.321
N2714 X45.674 Y-9.498
N2715 X45.042 Y-8.945
N2716 X44.247 Y-8.08
N2717 X34.588 Y3.44
N2718 X34.255 Y3.885
N2719 X33.759 Y4.816
N2720 X33.372 Y6.192
N2721 X33.316 Y7.568
N2722 X33.643 Y8.945
N2723 X34.255 Y10.072
N2724 X34.445 Y10.321
N2725 X35.68 Y11.576
N2726 X35.733 Y11.847
N2727 X35.502 Y12.
N2728 X-35.511
N2729 X-35.744 Y11.842
N2730 X-35.683 Y11.566
N2731 X-34.42 Y10.321
N2732 X-34.255 Y10.102
N2733 X-33.64 Y8.945
N2734 X-33.328 Y7.568
N2735 X-33.387 Y6.192
N2736 X-33.764 Y4.816
N2737 X-34.255 Y3.885
N2738 X-34.588 Y3.44
N2739 X-44.247 Y-8.08
N2740 X-45.044 Y-8.945
N2741 X-45.674 Y-9.487
N2742 X-46.72 Y-10.321
N2743 X-47.101 Y-10.543
N2744 X-48.529 Y-11.041
N2745 X-49.956 Y-11.279
N2746 X-51.383 Y-11.196
N2747 X-52.81 Y-10.711
N2748 X-53.586 Y-10.321
N2749 X-54.238 Y-9.903
N2750 X-55.21 Y-8.945
N2751 X-55.665 Y-8.367
N2752 X-56.205 Y-7.568
N2753 X-56.508 Y-6.997
N2754 X-56.601 Y-6.873
N2755 X-60.433 Y-3.145
N2756 X-60.579 Y-2.862
N2757 X-61.041 Y1.232 Z33.827 F600.
N2758 X-61.178 Y5.35 Z33.749
N2759 X-61.181 Y5.353
N2760 X-61.184 Y5.35
N2761 Y-7.481 Z33.507
N2762 X-61.01 Y-8.752 Z33.483
N2763 X-60.771 Y-9.118 Z33.475
N2764 X-60.267 Y-9.595 Z33.462
N2765 X-60.035 Y-9.75 Z33.457
N2766 X-59.443 Y-9.796 Z33.445
N2767 X-59. Y-9.399 Z33.434
N2768 X-58.981 Y-8.806 Z33.422
N2769 X-59.279 Y-8.055 Z33.407
N2770 X-59.778 Y-6.649 F1500.
N2771 X-60.411 Y-3.888
N2772 X-60.85 Y-.826
N2773 X-61.106 Y2.257
N2774 X-61.178 Y5.35
N2775 X-61.181 Y5.353
N2776 X-61.184 Y5.35
N2777 Y-7.481
N2778 X-61.01 Y-8.752
N2779 X-60.771 Y-9.118
N2780 X-60.267 Y-9.595
N2781 X-60.035 Y-9.75
N2782 X-59.591 Y-9.83
N2783 X-59.181 Y-9.643
N2784 X-58.95 Y-9.255
N2785 X-58.981 Y-8.806
N2786 X-59.279 Y-8.055
N2787 X-59.3 Y-7.768
N2788 X-59.16 Y-7.518
N2789 X-58.008 Y-6.4
N2790 X-57.876 Y-6.182
N2791 X-57.869 Y-5.928
N2792 X-58.126 Y-4.816
N2793 X-58.438 Y-3.44
N2794 X-58.52 Y-3.061
N2795 X-58.671 Y-2.064
N2796 X-58.81 Y-.688
N2797 X-58.975 Y.688
N2798 X-59.06 Y2.064
N2799 X-59.114 Y3.44
N2800 X-59.151 Y4.816
N2801 X-59.162 Y6.192
N2802 Y6.837
N2803 Y7.568
N2804 X-59.077 Y8.945
N2805 X-58.625 Y10.321
N2806 X-58.52 Y10.525
N2807 X-57.772 Y11.537
N2808 X-57.75 Y11.667
N2809 X-57.842 Y11.762
N2810 X-58.425 Y11.967
N2811 X-58.62 Y11.994
N2812 X-59.888 Y11.92
N2813 X-60.003 Y11.9
N2814 X-60.632 Y11.71
N2815 X-60.719 Y11.675
N2816 X-61.313 Y11.365
N2817 X-61.425 Y11.285
N2818 X-62.398 Y10.364
N2819 X-62.477 Y10.267
N2820 X-62.772 Y9.797
N2821 X-62.82 Y9.699
N2822 X-63.066 Y9.005
N2823 X-63.093 Y8.881
N2824 X-63.207 Y7.568
N2825 Y-7.568
N2826 X-63.093 Y-8.881
N2827 X-63.066 Y-9.005
N2828 X-62.82 Y-9.699
N2829 X-62.772 Y-9.797
N2830 X-62.477 Y-10.267
N2831 X-62.398 Y-10.364
N2832 X-61.425 Y-11.285
N2833 X-61.313 Y-11.365
N2834 X-60.719 Y-11.675
N2835 X-60.632 Y-11.71
N2836 X-60.003 Y-11.9
N2837 X-59.888 Y-11.92
N2838 X-58.52 Y-12.
N2839 X-54.418
N2840 X-54.311 Y-11.922
N2841 X-54.352 Y-11.797
N2842 X-54.49 Y-11.697
N2843 X-55.665 Y-10.44
N2844 X-55.754 Y-10.321
N2845 X-56.706 Y-8.945
N2846 X-57.092 Y-8.082
N2847 X-57.293 Y-7.568
N2848 X-57.808 Y-6.192
N2849 X-57.869 Y-5.928
N2850 Z35.907
N2851 G00 Z36.804
N2852 X-7.265 Y1.574
N2853 Z36.404
N2854 G01 Z33.904 F600.
N2855 X-21.406 Z33.499
N2856 X-22.267 Y1.318 Z33.473
N2857 X-22.848 Y.632 Z33.447
N2858 X-23.176 Y-.049 Z33.426
N2859 X-23.279 Y-.684 Z33.407
N2860 X-23.094 Y-1.139 F1500.
N2861 X-22.722 Y-1.459
N2862 X-22.245 Y-1.574
N2863 X22.248
N2864 X22.759 Y-1.44
N2865 X23.138 Y-1.073
N2866 X23.288 Y-.566
N2867 X23.171 Y-.052
N2868 X22.841 Y.632
N2869 X22.497 Y1.128
N2870 X21.992 Y1.458
N2871 X21.399 Y1.574
N2872 X-.003
N2873 X-21.406
N2874 X-21.999 Y1.458
N2875 X-22.504 Y1.128
N2876 X-22.848 Y.632
N2877 X-23.176 Y-.049
N2878 X-23.278 Y-.359
N2879 X-23.279 Y-.684
N2880 X-23.347 Y-1.019
N2881 X-23.614 Y-1.233
N2882 X-23.955 Y-1.225
N2883 X-26.068 Y-.402
N2884 X-26.387 Y-.387
N2885 X-26.65 Y-.569
N2886 X-28.716 Y-3.126
N2887 X-28.881 Y-3.501
N2888 X-28.818 Y-3.906
N2889 X-28.548 Y-4.214
N2890 X-28.154 Y-4.329
N2891 X28.154
N2892 X28.548 Y-4.214
N2893 X28.818 Y-3.906
N2894 X28.881 Y-3.501
N2895 X28.716 Y-3.126
N2896 X27.343 Y-1.488
N2897 X26.229 Y.091
N2898 X25.335 Y1.805
N2899 X24.704 Y2.836
N2900 X23.804 Y3.641
N2901 X22.709 Y4.153
N2902 X21.513 Y4.329
N2903 X-.003
N2904 X-21.531
N2905 X-22.722 Y4.154
N2906 X-23.813 Y3.643
N2907 X-24.711 Y2.839
N2908 X-25.339 Y1.811
N2909 X-25.939 Y.606
N2910 X-26.633 Y-.547
N2911 X-26.907 Y-.749
N2912 X-27.221 Y-.74
N2913 X-29.065 Y-.074
N2914 X-29.365 Y-.061
N2915 X-29.618 Y-.223
N2916 X-34.197 Y-5.683
N2917 X-34.362 Y-6.058
N2918 X-34.299 Y-6.463
N2919 X-34.029 Y-6.771
N2920 X-33.635 Y-6.886
N2921 X33.635
N2922 X34.029 Y-6.771
N2923 X34.299 Y-6.463
N2924 X34.362 Y-6.058
N2925 X34.197 Y-5.683
N2926 X29.302 Y.154
N2927 X28.698 Y.962
N2928 X27.732 Y2.74
N2929 X27.122 Y4.67
N2930 X26.709 Y5.559
N2931 X26.034 Y6.269
N2932 X25.168 Y6.728
N2933 X24.201 Y6.886
N2934 X-.003
N2935 X-24.213
N2936 X-25.182 Y6.727
N2937 X-26.05 Y6.266
N2938 X-26.725 Y5.552
N2939 X-27.136 Y4.66
N2940 X-27.739 Y2.736
N2941 X-28.698 Y.962
N2942 X-29.302 Y.154
N2943 X-29.618 Y-.223
N2944 X-29.887 Y-.388
N2945 X-30.201 Y-.36
N2946 X-31.958 Y.408
N2947 X-32.272 Y.436
N2948 X-32.541 Y.271
N2949 X-39.677 Y-8.24
N2950 X-39.842 Y-8.615
N2951 X-39.78 Y-9.02
N2952 X-39.51 Y-9.328
N2953 X-39.116 Y-9.443
N2954 X39.116
N2955 X39.51 Y-9.328
N2956 X39.78 Y-9.02
N2957 X39.842 Y-8.615
N2958 X39.677 Y-8.24
N2959 X31.261 Y1.797
N2960 X30.763 Y2.47
N2961 X30.561 Y2.795
N2962 X30.124 Y3.634
N2963 X29.543 Y5.504
N2964 X29.451 Y6.087
N2965 X29.393 Y7.643
N2966 X29.275 Y8.328
N2967 X28.9 Y8.913
N2968 X28.326 Y9.305
N2969 X27.645 Y9.443
N2970 X-.003
N2971 X-27.631
N2972 X-28.319 Y9.304
N2973 X-28.9 Y8.909
N2974 X-29.281 Y8.319
N2975 X-29.404 Y7.628
N2976 X-29.463 Y6.086
N2977 X-29.932 Y4.137
N2978 X-30.763 Y2.47
N2979 X-31.261 Y1.797
N2980 X-32.541 Y.271
N2981 X-32.81 Y.105
N2982 X-33.125 Y.134
N2983 X-34.881 Y.901
N2984 X-35.195 Y.93
N2985 X-35.464 Y.764
N2986 X-44.759 Y-10.321
N2987 X-45.674 Y-11.178
N2988 X-46.171 Y-11.582
N2989 X-46.212 Y-11.685
N2990 X-46.148 Y-11.775
N2991 X-45.753 Y-11.962
N2992 X-45.586 Y-12.
N2993 X45.585
N2994 X45.754 Y-11.961
N2995 X46.134 Y-11.777
N2996 X46.199 Y-11.685
N2997 X46.157 Y-11.581
N2998 X45.674 Y-11.186
N2999 X44.759 Y-10.321
N3000 X33.221 Y3.44
N3001 X32.828 Y3.978
N3002 X32.391 Y4.816
N3003 X32.006 Y6.192
N3004 X31.949 Y7.568
N3005 X32.276 Y8.945
N3006 X32.828 Y9.988
N3007 X33.077 Y10.321
N3008 X34.255 Y11.532
N3009 X34.287 Y11.555
N3010 X34.382 Y11.712
N3011 X34.338 Y11.889
N3012 X34.33 Y11.899
N3013 X34.13 Y12.
N3014 X-.003
N3015 X-34.13
N3016 X-34.332 Y11.901
N3017 X-34.344 Y11.886
N3018 X-34.391 Y11.71
N3019 X-34.299 Y11.553
N3020 X-34.255 Y11.52
N3021 X-33.052 Y10.321
N3022 X-32.828 Y10.015
N3023 X-32.272 Y8.945
N3024 X-31.961 Y7.568
N3025 X-32.018 Y6.192
N3026 X-32.397 Y4.816
N3027 X-32.828 Y3.978
N3028 X-33.221 Y3.44
N3029 X-35.464 Y.764
N3030 Z35.907
N3031 G00 Z38.753
N3032 X61.184 Y-3.81
N3033 Z36.404
N3034 G01 Z33.904 F600.
N3035 Y5.333 Z33.713
N3036 X61.182 Y5.336
N3037 X61.179 Y5.333
N3038 X61.02 Y1.021 Z33.623
N3039 X60.517 Y-3.264 Z33.533
N3040 X59.899 Y-6.107 Z33.472
N3041 X58.987 Y-8.87 Z33.411
N3042 X58.937 Y-9.068 Z33.407
N3043 X59.065 Y-9.556 F1500.
N3044 X59.482 Y-9.839
N3045 X59.982 Y-9.778
N3046 X60.774 Y-9.116
N3047 X61.008 Y-8.756
N3048 X61.184 Y-7.481
N3049 Y5.333
N3050 X61.182 Y5.336
N3051 X61.179 Y5.333
N3052 X61.02 Y1.021
N3053 X60.517 Y-3.264
N3054 X59.899 Y-6.107
N3055 X58.987 Y-8.87
N3056 X58.937 Y-9.068
N3057 X58.739 Y-9.417
N3058 X58.348 Y-9.507
N3059 X56.87 Y-9.23
N3060 X56.574 Y-9.265
N3061 X56.351 Y-9.462
N3062 X55.829 Y-10.321
N3063 X55.665 Y-10.532
N3064 X54.49 Y-11.697
N3065 X54.349 Y-11.806
N3066 X54.313 Y-11.927
N3067 X54.416 Y-12.
N3068 X58.52
N3069 X59.888 Y-11.92
N3070 X60.003 Y-11.9
N3071 X60.632 Y-11.71
N3072 X60.719 Y-11.675
N3073 X61.313 Y-11.365
N3074 X61.425 Y-11.285
N3075 X62.398 Y-10.364
N3076 X62.477 Y-10.267
N3077 X62.772 Y-9.797
N3078 X62.82 Y-9.699
N3079 X63.066 Y-9.005
N3080 X63.093 Y-8.881
N3081 X63.207 Y-7.568
N3082 Y6.837
N3083 Y7.568
N3084 X63.093 Y8.881
N3085 X63.066 Y9.005
N3086 X62.82 Y9.699
N3087 X62.772 Y9.797
N3088 X62.477 Y10.267
N3089 X62.398 Y10.364
N3090 X61.425 Y11.285
N3091 X61.313 Y11.365
N3092 X60.719 Y11.675
N3093 X60.632 Y11.71
N3094 X60.003 Y11.9
N3095 X59.888 Y11.92
N3096 X58.62 Y11.994
N3097 X58.425 Y11.967
N3098 X57.842 Y11.762
N3099 X57.75 Y11.667
N3100 X57.772 Y11.537
N3101 X58.52 Y10.525
N3102 X58.625 Y10.321
N3103 X59.077 Y8.945
N3104 X59.162 Y7.568
N3105 Y6.192
N3106 X59.153 Y4.816
N3107 X59.125 Y3.44
N3108 X59.062 Y2.064
N3109 X58.945 Y.688
N3110 X58.845 Y-.688
N3111 X58.661 Y-2.064
N3112 X58.52 Y-2.944
N3113 X58.428 Y-3.44
N3114 X58.13 Y-4.816
N3115 X57.781 Y-6.192
N3116 X57.334 Y-7.568
N3117 X57.092 Y-8.159
N3118 X56.665 Y-8.945
N3119 X56.351 Y-9.462
N3120 X56.291 Y-9.834
N3121 X56.507 Y-10.142
N3122 X56.877 Y-10.212
N3123 X57.191 Y-10.004
N3124 X61.188 Y-4.157
N3125 X61.275 Y-3.875
N3126 Y3.799 Z33.223 F600.
N3127 X60.973 Y-2.241 Z33.078
N3128 X60.512 Y-5.689 Z32.994
N3129 X59.653 Y-9.06 Z32.911
N3130 X59.634 Y-9.23 Z32.907
N3131 X59.788 Y-9.551 F1500.
N3132 X60.12 Y-9.68
N3133 X60.45 Y-9.548
N3134 X61.077 Y-8.836
N3135 X61.192 Y-8.447
N3136 X61.275 Y-7.485
N3137 Y3.799
N3138 X61.212 Y.775
N3139 X60.973 Y-2.241
N3140 X60.71 Y-4.546
N3141 X60.269 Y-6.824
N3142 X59.653 Y-9.06
N3143 X59.634 Y-9.23
N3144 X59.501 Y-9.607
N3145 X59.135 Y-9.766
N3146 X57.679 Y-9.765
N3147 X57.4 Y-9.85
N3148 X57.216 Y-10.078
N3149 X57.117 Y-10.321
N3150 X57.092 Y-10.365
N3151 X56.208 Y-11.543
N3152 X56.188 Y-11.666
N3153 X56.277 Y-11.753
N3154 X57.021 Y-11.978
N3155 X57.167 Y-12.
N3156 X58.52
N3157 X59.888 Y-11.92
N3158 X60.003 Y-11.9
N3159 X60.632 Y-11.71
N3160 X60.719 Y-11.675
N3161 X61.313 Y-11.365
N3162 X61.425 Y-11.285
N3163 X62.398 Y-10.364
N3164 X62.477 Y-10.267
N3165 X62.772 Y-9.797
N3166 X62.82 Y-9.699
N3167 X63.066 Y-9.005
N3168 X63.093 Y-8.881
N3169 X63.207 Y-7.568
N3170 Y6.151
N3171 Y7.568
N3172 X63.093 Y8.881
N3173 X63.066 Y9.005
N3174 X62.82 Y9.699
N3175 X62.772 Y9.797
N3176 X62.477 Y10.267
N3177 X62.398 Y10.364
N3178 X61.425 Y11.285
N3179 X61.313 Y11.365
N3180 X60.719 Y11.675
N3181 X60.632 Y11.71
N3182 X60.003 Y11.9
N3183 X59.888 Y11.92
N3184 X58.638 Y11.993
N3185 X58.412 Y11.952
N3186 X58.023 Y11.78
N3187 X57.934 Y11.673
N3188 X57.963 Y11.537
N3189 X58.52 Y10.834
N3190 X58.807 Y10.321
N3191 X59.259 Y8.945
N3192 X59.344 Y7.568
N3193 X59.342 Y3.44
N3194 X59.319 Y2.064
N3195 X59.271 Y.688
N3196 X59.176 Y-.688
N3197 X59.05 Y-2.064
N3198 X58.915 Y-3.44
N3199 X58.699 Y-4.816
N3200 X58.445 Y-6.192
N3201 X58.077 Y-7.568
N3202 X57.673 Y-8.945
N3203 X57.216 Y-10.078
N3204 Z35.407
N3205 G00 Z36.404
N3206 X5.443 Y-1.578
N3207 Z35.907
N3208 G01 Z33.407 F600.
N3209 X20.885 Z32.947
N3210 X21.519 Y-1.362 Z32.927
N3211 X21.888 Y-.804 Z32.907
N3212 X21.916 Y-.429 F1500.
N3213 X21.809 Y-.069
N3214 X21.471 Y.633
N3215 X21.126 Y1.131
N3216 X20.619 Y1.462
N3217 X20.025 Y1.578
N3218 X-.004
N3219 X-20.032
N3220 X-20.626 Y1.462
N3221 X-21.133 Y1.131
N3222 X-21.478 Y.633
N3223 X-21.814 Y-.068
N3224 X-21.924 Y-.581
N3225 X-21.769 Y-1.083
N3226 X-21.39 Y-1.446
N3227 X-20.882 Y-1.578
N3228 X20.885
N3229 X21.325 Y-1.48
N3230 X21.682 Y-1.205
N3231 X21.888 Y-.804
N3232 X21.997 Y-.601
N3233 X23.799 Y1.447
N3234 X23.919 Y1.711
N3235 X23.873 Y1.996
N3236 X23.228 Y2.955
N3237 X22.342 Y3.698
N3238 X21.287 Y4.168
N3239 X20.142 Y4.329
N3240 X-.004
N3241 X-20.153
N3242 X-21.347 Y4.154
N3243 X-22.439 Y3.642
N3244 X-23.337 Y2.838
N3245 X-23.966 Y1.809
N3246 X-25.162 Y-.4
N3247 X-27.341 Y-3.126
N3248 X-27.506 Y-3.501
N3249 X-27.444 Y-3.906
N3250 X-27.174 Y-4.214
N3251 X-26.78 Y-4.329
N3252 X26.78
N3253 X27.174 Y-4.214
N3254 X27.444 Y-3.906
N3255 X27.506 Y-3.501
N3256 X27.341 Y-3.126
N3257 X25.968 Y-1.488
N3258 X24.853 Y.092
N3259 X23.96 Y1.807
N3260 X23.873 Y1.996
N3261 X23.836 Y2.329
N3262 X24.017 Y2.611
N3263 X25.637 Y3.865
N3264 X25.803 Y4.096
N3265 X25.816 Y4.38
N3266 X25.75 Y4.666
N3267 X25.338 Y5.556
N3268 X24.663 Y6.268
N3269 X23.796 Y6.727
N3270 X22.828 Y6.886
N3271 X-.004
N3272 X-22.839
N3273 X-23.807 Y6.727
N3274 X-24.674 Y6.268
N3275 X-25.348 Y5.555
N3276 X-25.759 Y4.665
N3277 X-26.095 Y3.452
N3278 X-26.593 Y2.234
N3279 X-27.242 Y1.088
N3280 X-27.928 Y.155
N3281 X-32.822 Y-5.683
N3282 X-32.987 Y-6.058
N3283 X-32.924 Y-6.463
N3284 X-32.654 Y-6.771
N3285 X-32.261 Y-6.886
N3286 X32.261
N3287 X32.654 Y-6.771
N3288 X32.924 Y-6.463
N3289 X32.987 Y-6.058
N3290 X32.822 Y-5.683
N3291 X27.928 Y.155
N3292 X26.848 Y1.735
N3293 X26.245 Y3.024
N3294 X25.816 Y4.38
N3295 X25.837 Y4.684
N3296 X26.031 Y4.92
N3297 X27.833 Y6.078
N3298 X28.006 Y6.267
N3299 X28.062 Y6.518
N3300 X28.02 Y7.643
N3301 X27.902 Y8.328
N3302 X27.526 Y8.913
N3303 X26.952 Y9.305
N3304 X26.271 Y9.443
N3305 X-.004
N3306 X-26.257
N3307 X-26.946 Y9.304
N3308 X-27.526 Y8.909
N3309 X-27.908 Y8.319
N3310 X-28.031 Y7.628
N3311 X-28.088 Y6.089
N3312 X-28.559 Y4.134
N3313 X-29.321 Y2.576
N3314 X-29.887 Y1.797
N3315 X-38.303 Y-8.24
N3316 X-38.468 Y-8.615
N3317 X-38.405 Y-9.02
N3318 X-38.135 Y-9.328
N3319 X-37.741 Y-9.443
N3320 X37.741
N3321 X38.135 Y-9.328
N3322 X38.405 Y-9.02
N3323 X38.468 Y-8.615
N3324 X38.303 Y-8.24
N3325 X29.887 Y1.797
N3326 X29.321 Y2.576
N3327 X28.739 Y3.652
N3328 X28.17 Y5.507
N3329 X28.079 Y6.086
N3330 X28.062 Y6.518
N3331 X28.146 Y6.814
N3332 X28.387 Y7.005
N3333 X30.392 Y7.755
N3334 X30.592 Y7.893
N3335 X30.704 Y8.108
N3336 X30.902 Y8.945
N3337 X31.401 Y9.909
N3338 X31.702 Y10.321
N3339 X32.828 Y11.49
N3340 X32.928 Y11.564
N3341 X33.008 Y11.706
N3342 X32.956 Y11.861
N3343 X32.907 Y11.914
N3344 X32.712 Y12.
N3345 X-.004
N3346 X-32.712
N3347 X-32.908 Y11.916
N3348 X-32.962 Y11.859
N3349 X-33.016 Y11.705
N3350 X-32.938 Y11.561
N3351 X-32.828 Y11.478
N3352 X-31.679 Y10.321
N3353 X-31.401 Y9.934
N3354 X-30.899 Y8.945
N3355 X-30.587 Y7.568
N3356 X-30.643 Y6.192
N3357 X-31.023 Y4.816
N3358 X-31.401 Y4.064
N3359 X-31.847 Y3.44
N3360 X-43.384 Y-10.321
N3361 X-44.247 Y-11.223
N3362 X-44.765 Y-11.595
N3363 X-44.806 Y-11.687
N3364 X-44.748 Y-11.769
N3365 X-44.321 Y-11.966
N3366 X-44.165 Y-12.
N3367 X44.164
N3368 X44.321 Y-11.966
N3369 X44.747 Y-11.77
N3370 X44.806 Y-11.687
N3371 X44.764 Y-11.595
N3372 X44.247 Y-11.223
N3373 X43.384 Y-10.321
N3374 X31.847 Y3.44
N3375 X31.401 Y4.064
N3376 X31.016 Y4.816
N3377 X30.633 Y6.192
N3378 X30.576 Y7.568
N3379 X30.704 Y8.108
N3380 Z35.407
N3381 G00 Z36.404
N3382 X-59.7 Y-7.697
N3383 Z35.907
N3384 G01 Z33.407 F600.
N3385 X-60.258 Y-5.142 Z33.328
N3386 X-60.755 Y-.846 Z33.197
N3387 X-60.913 Y3.44 Z33.067
N3388 X-60.914 Y7.568 Z32.942
N3389 X-60.847 Y8.7 Z32.907
N3390 X-60.974 Y8.974 F1500.
N3391 X-61.256 Y9.024
N3392 X-61.464 Y8.826
N3393 X-61.545 Y8.565
N3394 X-61.637 Y7.501
N3395 Y-7.501
N3396 X-61.552 Y-8.481
N3397 X-61.417 Y-8.958
N3398 X-61.286 Y-9.211
N3399 X-61.129 Y-9.403
N3400 X-60.716 Y-9.794
N3401 X-60.215 Y-10.022
N3402 X-59.681 Y-9.894
N3403 X-59.337 Y-9.464
N3404 X-59.331 Y-8.914
N3405 X-59.612 Y-8.061
N3406 X-60.258 Y-5.142
N3407 X-60.755 Y-.846
N3408 X-60.913 Y3.44
N3409 X-60.914 Y7.568
N3410 X-60.847 Y8.7
N3411 X-60.763 Y8.992
N3412 X-60.542 Y9.174
N3413 X-59.172 Y9.757
N3414 X-58.892 Y10.061
N3415 X-58.807 Y10.321
N3416 X-58.52 Y10.834
N3417 X-57.963 Y11.537
N3418 X-57.934 Y11.673
N3419 X-58.023 Y11.78
N3420 X-58.412 Y11.952
N3421 X-58.638 Y11.993
N3422 X-59.888 Y11.92
N3423 X-60.003 Y11.9
N3424 X-60.632 Y11.71
N3425 X-60.719 Y11.675
N3426 X-61.313 Y11.365
N3427 X-61.425 Y11.285
N3428 X-62.398 Y10.364
N3429 X-62.477 Y10.267
N3430 X-62.772 Y9.797
N3431 X-62.82 Y9.699
N3432 X-63.066 Y9.005
N3433 X-63.093 Y8.881
N3434 X-63.207 Y7.568
N3435 Y-7.568
N3436 X-63.093 Y-8.881
N3437 X-63.066 Y-9.005
N3438 X-62.82 Y-9.699
N3439 X-62.772 Y-9.797
N3440 X-62.477 Y-10.267
N3441 X-62.398 Y-10.364
N3442 X-61.425 Y-11.285
N3443 X-61.313 Y-11.365
N3444 X-60.719 Y-11.675
N3445 X-60.632 Y-11.71
N3446 X-60.003 Y-11.9
N3447 X-59.888 Y-11.92
N3448 X-58.52 Y-12.
N3449 X-57.167
N3450 X-57.021 Y-11.978
N3451 X-56.281 Y-11.753
N3452 X-56.19 Y-11.665
N3453 X-56.21 Y-11.541
N3454 X-57.092 Y-10.338
N3455 X-57.101 Y-10.321
N3456 X-57.667 Y-8.945
N3457 X-58.121 Y-7.568
N3458 X-58.424 Y-6.192
N3459 X-58.52 Y-5.772
N3460 X-58.722 Y-4.816
N3461 X-58.898 Y-3.44
N3462 X-59.053 Y-2.064
N3463 X-59.192 Y-.688
N3464 X-59.267 Y.688
N3465 X-59.312 Y2.064
N3466 X-59.342 Y3.44
N3467 X-59.344 Y7.568
N3468 X-59.259 Y8.945
N3469 X-58.892 Y10.061
N3470 X-58.94 Y10.477
N3471 X-59.287 Y10.711
N3472 X-59.69 Y10.599
N3473 X-59.867 Y10.219
N3474 X-59.935 Y-6.426
N3475 X-59.774 Y-6.796
N3476 X-59.392 Y-6.926
N3477 X-59.038 Y-6.732
N3478 X-58.943 Y-6.34
N3479 X-58.97 Y-6.192 Z32.902 F600.
N3480 X-59.131 Y-4.816 Z32.86
N3481 X-59.304 Y-3.44 Z32.819
N3482 X-59.397 Y-2.064 Z32.777
N3483 X-59.472 Y-.688 Z32.735
N3484 X-59.51 Y.688 Z32.694
N3485 X-59.526 Y2.064 Z32.652
N3486 Y4.776 Z32.57
N3487 Y7.568 Z32.486
N3488 X-59.441 Y8.945 Z32.444
N3489 X-59.056 Y10.115 Z32.407
N3490 X-58.989 Y10.321 F1500.
N3491 X-58.52 Y11.102
N3492 X-58.158 Y11.531
N3493 X-58.117 Y11.681
N3494 X-58.204 Y11.809
N3495 X-58.414 Y11.936
N3496 X-58.642 Y11.993
N3497 X-59.888 Y11.92
N3498 X-60.003 Y11.9
N3499 X-60.632 Y11.71
N3500 X-60.719 Y11.675
N3501 X-61.313 Y11.365
N3502 X-61.425 Y11.285
N3503 X-62.398 Y10.364
N3504 X-62.477 Y10.267
N3505 X-62.772 Y9.797
N3506 X-62.82 Y9.699
N3507 X-63.066 Y9.005
N3508 X-63.093 Y8.881
N3509 X-63.207 Y7.568
N3510 Y-7.568
N3511 X-63.093 Y-8.881
N3512 X-63.066 Y-9.005
N3513 X-62.82 Y-9.699
N3514 X-62.772 Y-9.797
N3515 X-62.477 Y-10.267
N3516 X-62.398 Y-10.364
N3517 X-61.425 Y-11.285
N3518 X-61.313 Y-11.365
N3519 X-60.719 Y-11.675
N3520 X-60.632 Y-11.71
N3521 X-60.003 Y-11.9
N3522 X-59.888 Y-11.92
N3523 X-58.52 Y-12.
N3524 X-57.352
N3525 X-57.088 Y-11.84
N3526 X-57.107 Y-11.532
N3527 X-57.945 Y-10.321
N3528 X-58.41 Y-8.945
N3529 X-58.722 Y-7.568
N3530 X-58.97 Y-6.192
N3531 X-59.131 Y-4.816
N3532 X-59.304 Y-3.44
N3533 X-59.397 Y-2.064
N3534 X-59.472 Y-.688
N3535 X-59.51 Y.688
N3536 X-59.526 Y2.064
N3537 Y4.776
N3538 Y7.568
N3539 X-59.441 Y8.945
N3540 X-59.056 Y10.115
N3541 Z34.907
N3542 G00 Z40.224
N3543 X-4.352 Y1.584
N3544 Z35.407
N3545 G01 Z32.907 F600.
N3546 X-18.659 Z32.49
N3547 X-19.525 Y1.326 Z32.463
N3548 X-20.109 Y.636 Z32.436
N3549 X-20.457 Y-.097 Z32.413
N3550 X-20.526 Y-.281 Z32.407
N3551 X-20.5 Y-.903 F1500.
N3552 X-20.122 Y-1.397
N3553 X-19.529 Y-1.584
N3554 X19.531
N3555 X20.033 Y-1.453
N3556 X20.407 Y-1.095
N3557 X20.559 Y-.6
N3558 X20.451 Y-.094
N3559 X20.101 Y.636
N3560 X19.755 Y1.135
N3561 X19.246 Y1.467
N3562 X18.65 Y1.584
N3563 X-.004
N3564 X-18.659
N3565 X-19.255 Y1.467
N3566 X-19.763 Y1.135
N3567 X-20.109 Y.636
N3568 X-20.457 Y-.097
N3569 X-20.526 Y-.281
N3570 X-20.756 Y-.582
N3571 X-21.131 Y-.636
N3572 X-23.207 Y-.117
N3573 X-23.503 Y-.133
N3574 X-23.738 Y-.315
N3575 X-24.811 Y-1.754
N3576 X-25.968 Y-3.126
N3577 X-26.133 Y-3.501
N3578 X-26.07 Y-3.906
N3579 X-25.8 Y-4.214
N3580 X-25.406 Y-4.329
N3581 X25.406
N3582 X25.8 Y-4.214
N3583 X26.07 Y-3.906
N3584 X26.133 Y-3.501
N3585 X25.968 Y-3.126
N3586 X24.595 Y-1.488
N3587 X23.48 Y.094
N3588 X22.584 Y1.809
N3589 X21.955 Y2.838
N3590 X21.057 Y3.642
N3591 X19.964 Y4.154
N3592 X18.771 Y4.329
N3593 X-.004
N3594 X-18.776
N3595 X-19.971 Y4.153
N3596 X-21.064 Y3.642
N3597 X-21.964 Y2.837
N3598 X-22.594 Y1.807
N3599 X-23.69 Y-.246
N3600 X-23.738 Y-.315
N3601 X-23.992 Y-.503
N3602 X-24.309 Y-.501
N3603 X-26.158 Y.129
N3604 X-26.454 Y.138
N3605 X-26.703 Y-.023
N3606 X-31.448 Y-5.683
N3607 X-31.613 Y-6.058
N3608 X-31.551 Y-6.463
N3609 X-31.28 Y-6.771
N3610 X-30.887 Y-6.886
N3611 X30.887
N3612 X31.28 Y-6.771
N3613 X31.551 Y-6.463
N3614 X31.613 Y-6.058
N3615 X31.448 Y-5.683
N3616 X26.554 Y.155
N3617 X25.402 Y1.862
N3618 X24.794 Y3.227
N3619 X24.378 Y4.662
N3620 X23.966 Y5.554
N3621 X23.291 Y6.267
N3622 X22.424 Y6.727
N3623 X21.455 Y6.886
N3624 X-.004
N3625 X-21.466
N3626 X-22.432 Y6.728
N3627 X-23.298 Y6.269
N3628 X-23.971 Y5.558
N3629 X-24.383 Y4.669
N3630 X-24.722 Y3.447
N3631 X-25.185 Y2.301
N3632 X-25.784 Y1.221
N3633 X-26.554 Y.155
N3634 X-26.703 Y-.023
N3635 X-26.972 Y-.188
N3636 X-27.286 Y-.16
N3637 X-29.043 Y.608
N3638 X-29.357 Y.636
N3639 X-29.626 Y.471
N3640 X-36.929 Y-8.24
N3641 X-37.094 Y-8.615
N3642 X-37.031 Y-9.02
N3643 X-36.761 Y-9.328
N3644 X-36.367 Y-9.443
N3645 X36.367
N3646 X36.761 Y-9.328
N3647 X37.031 Y-9.02
N3648 X37.094 Y-8.615
N3649 X36.929 Y-8.24
N3650 X28.514 Y1.797
N3651 X27.879 Y2.687
N3652 X27.177 Y4.134
N3653 X26.796 Y5.51
N3654 X26.706 Y6.085
N3655 X26.647 Y7.642
N3656 X26.528 Y8.327
N3657 X26.152 Y8.912
N3658 X25.578 Y9.305
N3659 X24.897 Y9.443
N3660 X-.004
N3661 X-24.884
N3662 X-25.572 Y9.304
N3663 X-26.152 Y8.909
N3664 X-26.534 Y8.319
N3665 X-26.657 Y7.628
N3666 X-26.712 Y6.092
N3667 X-27.186 Y4.132
N3668 X-27.879 Y2.687
N3669 X-28.514 Y1.797
N3670 X-29.626 Y.471
N3671 X-29.895 Y.305
N3672 X-30.209 Y.334
N3673 X-31.966 Y1.101
N3674 X-32.28 Y1.129
N3675 X-32.549 Y.964
N3676 X-42.01 Y-10.321
N3677 X-42.819 Y-11.178
N3678 X-43.391 Y-11.595
N3679 X-43.372 Y-11.764
N3680 X-42.893 Y-11.968
N3681 X-42.739 Y-12.
N3682 X42.739
N3683 X42.893 Y-11.968
N3684 X43.372 Y-11.764
N3685 X43.391 Y-11.595
N3686 X42.819 Y-11.178
N3687 X42.01 Y-10.321
N3688 X30.473 Y3.44
N3689 X29.973 Y4.154
N3690 X29.641 Y4.816
N3691 X29.26 Y6.192
N3692 X29.203 Y7.568
N3693 X29.528 Y8.945
N3694 X29.973 Y9.827
N3695 X30.327 Y10.321
N3696 X31.401 Y11.447
N3697 X31.565 Y11.57
N3698 X31.635 Y11.701
N3699 X31.578 Y11.839
N3700 X31.482 Y11.927
N3701 X31.292 Y12.
N3702 X-.004
N3703 X-31.292
N3704 X-31.482 Y11.927
N3705 X-31.583 Y11.838
N3706 X-31.642 Y11.7
N3707 X-31.573 Y11.567
N3708 X-31.401 Y11.435
N3709 X-30.305 Y10.321
N3710 X-29.973 Y9.85
N3711 X-29.525 Y8.945
N3712 X-29.213 Y7.568
N3713 X-29.267 Y6.192
N3714 X-29.65 Y4.816
N3715 X-29.973 Y4.154
N3716 X-30.473 Y3.44
N3717 X-32.549 Y.964
N3718 Z34.907
N3719 G00 Z40.232
N3720 X59.526 Y4.479
N3721 Z35.407
N3722 G01 Z32.907 F600.
N3723 Y2.064 Z32.834
N3724 X59.511 Y.688 Z32.793
N3725 X59.471 Y-.688 Z32.751
N3726 X59.407 Y-2.064 Z32.709
N3727 X59.278 Y-3.44 Z32.668
N3728 X59.162 Y-4.816 Z32.626
N3729 X58.969 Y-6.192 Z32.584
N3730 X58.716 Y-7.568 Z32.542
N3731 X58.52 Y-8.605 Z32.51
N3732 X58.434 Y-8.945 Z32.5
N3733 X57.94 Y-10.321 Z32.456
N3734 X57.093 Y-11.539 Z32.411
N3735 X57.044 Y-11.666 Z32.407
N3736 X57.113 Y-11.899 F1500.
N3737 X57.334 Y-12.
N3738 X58.52
N3739 X59.888 Y-11.92
N3740 X60.003 Y-11.9
N3741 X60.632 Y-11.71
N3742 X60.719 Y-11.675
N3743 X61.313 Y-11.365
N3744 X61.425 Y-11.285
N3745 X62.398 Y-10.364
N3746 X62.477 Y-10.267
N3747 X62.772 Y-9.797
N3748 X62.82 Y-9.699
N3749 X63.066 Y-9.005
N3750 X63.093 Y-8.881
N3751 X63.207 Y-7.568
N3752 Y4.776
N3753 Y7.568
N3754 X63.093 Y8.881
N3755 X63.066 Y9.005
N3756 X62.82 Y9.699
N3757 X62.772 Y9.797
N3758 X62.477 Y10.267
N3759 X62.398 Y10.364
N3760 X61.425 Y11.285
N3761 X61.313 Y11.365
N3762 X60.719 Y11.675
N3763 X60.632 Y11.71
N3764 X60.003 Y11.9
N3765 X59.888 Y11.92
N3766 X58.642 Y11.993
N3767 X58.414 Y11.936
N3768 X58.204 Y11.809
N3769 X58.117 Y11.681
N3770 X58.158 Y11.531
N3771 X58.52 Y11.102
N3772 X58.989 Y10.321
N3773 X59.441 Y8.945
N3774 X59.526 Y7.568
N3775 Y2.064
N3776 X59.511 Y.688
N3777 X59.471 Y-.688
N3778 X59.407 Y-2.064
N3779 X59.278 Y-3.44
N3780 X59.162 Y-4.816
N3781 X58.969 Y-6.192
N3782 X58.716 Y-7.568
N3783 X58.52 Y-8.605
N3784 X58.434 Y-8.945
N3785 X57.94 Y-10.321
N3786 X57.093 Y-11.539
N3787 X57.044 Y-11.666
N3788 X58.491 Y-11.101
N3789 X58.572 Y-11.075
N3790 X59.307 Y-10.536
N3791 X59.92 Y-10.112
N3792 X60.124 Y-9.708
N3793 X60.634 Y-9.149
N3794 X60.893 Y-8.186
N3795 X61.145 Y-6.261
N3796 X61.17 Y-5.298
N3797 X61.247 Y-3.373
N3798 X61.298 Y-2.41
N3799 X61.323 Y-1.447
N3800 X61.343 Y-.485
N3801 X61.375 Y1.441
N3802 X60.941 Y2.404
N3803 Y2.5
N3804 X60.396 Y3.366
N3805 X59.708 Y4.582
N3806 Y.688 Z32.29 F600.
N3807 X59.7 Y-.688 Z32.248
N3808 X59.665 Y-2.064 Z32.207
N3809 X59.614 Y-3.44 Z32.165
N3810 X59.509 Y-4.816 Z32.124
N3811 X59.38 Y-6.192 Z32.082
N3812 X59.232 Y-7.568 Z32.041
N3813 X58.987 Y-8.945 Z31.998
N3814 X58.529 Y-10.321 Z31.955
N3815 X58.52 Y-10.339 Z31.954
N3816 X57.655 Y-11.538 Z31.91
N3817 X57.629 Y-11.629 Z31.907
N3818 X57.728 Y-11.755 F1500.
N3819 X58.433 Y-11.973
N3820 X58.61 Y-11.995
N3821 X59.888 Y-11.92
N3822 X60.003 Y-11.9
N3823 X60.632 Y-11.71
N3824 X60.719 Y-11.675
N3825 X61.313 Y-11.365
N3826 X61.425 Y-11.285
N3827 X62.398 Y-10.364
N3828 X62.477 Y-10.267
N3829 X62.772 Y-9.797
N3830 X62.82 Y-9.699
N3831 X63.066 Y-9.005
N3832 X63.093 Y-8.881
N3833 X63.207 Y-7.568
N3834 Y4.09
N3835 Y7.568
N3836 X63.093 Y8.881
N3837 X63.066 Y9.005
N3838 X62.82 Y9.699
N3839 X62.772 Y9.797
N3840 X62.477 Y10.267
N3841 X62.398 Y10.364
N3842 X61.425 Y11.285
N3843 X61.313 Y11.365
N3844 X60.719 Y11.675
N3845 X60.632 Y11.71
N3846 X60.003 Y11.9
N3847 X59.888 Y11.92
N3848 X58.656 Y11.992
N3849 X58.421 Y11.906
N3850 X58.38 Y11.867
N3851 X58.3 Y11.693
N3852 X58.365 Y11.513
N3853 X58.52 Y11.339
N3854 X59.171 Y10.321
N3855 X59.623 Y8.945
N3856 X59.708 Y7.568
N3857 Y.688
N3858 X59.7 Y-.688
N3859 X59.665 Y-2.064
N3860 X59.614 Y-3.44
N3861 X59.509 Y-4.816
N3862 X59.38 Y-6.192
N3863 X59.232 Y-7.568
N3864 X58.987 Y-8.945
N3865 X58.529 Y-10.321
N3866 X58.52 Y-10.339
N3867 X57.655 Y-11.538
N3868 X57.629 Y-11.629
N3869 Z34.407
N3870 G00 Z35.404
N3871 X2.713 Y-1.59
N3872 Z34.907
N3873 G01 Z32.407 F600.
N3874 X18.185 Z31.946
N3875 X18.798 Y-1.384 Z31.926
N3876 X19.162 Y-.848 Z31.907
N3877 X19.196 Y-.482 F1500.
N3878 X19.097 Y-.128
N3879 X18.732 Y.638
N3880 X18.385 Y1.139
N3881 X17.874 Y1.473
N3882 X17.276 Y1.59
N3883 X-.005
N3884 X-17.285
N3885 X-17.883 Y1.473
N3886 X-18.394 Y1.139
N3887 X-18.741 Y.638
N3888 X-19.104 Y-.136
N3889 X-19.201 Y-.633
N3890 X-19.045 Y-1.116
N3891 X-18.676 Y-1.464
N3892 X-18.185 Y-1.59
N3893 X18.185
N3894 X18.61 Y-1.496
N3895 X18.957 Y-1.233
N3896 X19.162 Y-.848
N3897 X19.266 Y-.656
N3898 X21.067 Y1.421
N3899 X21.185 Y1.681
N3900 X21.141 Y1.963
N3901 X20.5 Y2.934
N3902 X19.614 Y3.688
N3903 X18.553 Y4.166
N3904 X17.401 Y4.329
N3905 X-.005
N3906 X-17.4
N3907 X-18.595 Y4.154
N3908 X-19.69 Y3.642
N3909 X-20.59 Y2.836
N3910 X-21.221 Y1.806
N3911 X-22.217 Y-.085
N3912 X-23.351 Y-1.648
N3913 X-24.595 Y-3.126
N3914 X-24.76 Y-3.502
N3915 X-24.697 Y-3.907
N3916 X-24.427 Y-4.215
N3917 X-24.034 Y-4.329
N3918 X24.036
N3919 X24.429 Y-4.215
N3920 X24.699 Y-3.907
N3921 X24.762 Y-3.502
N3922 X24.597 Y-3.127
N3923 X23.224 Y-1.491
N3924 X22.108 Y.094
N3925 X21.209 Y1.812
N3926 X21.141 Y1.963
N3927 X21.107 Y2.293
N3928 X21.286 Y2.572
N3929 X22.901 Y3.827
N3930 X23.067 Y4.059
N3931 X23.08 Y4.343
N3932 X23.006 Y4.658
N3933 X22.595 Y5.551
N3934 X21.92 Y6.266
N3935 X21.051 Y6.727
N3936 X20.081 Y6.886
N3937 X-.005
N3938 X-20.092
N3939 X-21.057 Y6.728
N3940 X-21.921 Y6.27
N3941 X-22.594 Y5.561
N3942 X-23.006 Y4.674
N3943 X-23.35 Y3.441
N3944 X-23.776 Y2.371
N3945 X-24.326 Y1.359
N3946 X-25.18 Y.155
N3947 X-30.075 Y-5.683
N3948 X-30.24 Y-6.058
N3949 X-30.177 Y-6.463
N3950 X-29.907 Y-6.771
N3951 X-29.513 Y-6.886
N3952 X29.513
N3953 X29.907 Y-6.771
N3954 X30.177 Y-6.463
N3955 X30.24 Y-6.058
N3956 X30.075 Y-5.683
N3957 X25.182 Y.153
N3958 X23.954 Y1.996
N3959 X23.451 Y3.145
N3960 X23.08 Y4.343
N3961 X23.099 Y4.646
N3962 X23.291 Y4.882
N3963 X25.091 Y6.061
N3964 X25.262 Y6.25
N3965 X25.317 Y6.499
N3966 X25.273 Y7.641
N3967 X25.155 Y8.327
N3968 X24.779 Y8.912
N3969 X24.204 Y9.305
N3970 X23.522 Y9.443
N3971 X-.005
N3972 X-23.51
N3973 X-24.198 Y9.304
N3974 X-24.779 Y8.909
N3975 X-25.16 Y8.319
N3976 X-25.283 Y7.628
N3977 X-25.337 Y6.095
N3978 X-25.429 Y5.505
N3979 X-25.813 Y4.129
N3980 X-26.436 Y2.804
N3981 X-27.14 Y1.797
N3982 X-35.555 Y-8.24
N3983 X-35.72 Y-8.615
N3984 X-35.658 Y-9.02
N3985 X-35.387 Y-9.328
N3986 X-34.994 Y-9.443
N3987 X34.994
N3988 X35.387 Y-9.328
N3989 X35.658 Y-9.02
N3990 X35.72 Y-8.615
N3991 X35.555 Y-8.24
N3992 X27.141 Y1.797
N3993 X26.438 Y2.798
N3994 X25.802 Y4.137
N3995 X25.423 Y5.513
N3996 X25.333 Y6.084
N3997 X25.317 Y6.499
N3998 X25.4 Y6.795
N3999 X25.641 Y6.986
N4000 X27.642 Y7.739
N4001 X27.842 Y7.876
N4002 X27.953 Y8.092
N4003 X28.154 Y8.945
N4004 X28.546 Y9.742
N4005 X28.953 Y10.321
N4006 X29.973 Y11.402
N4007 X30.2 Y11.574
N4008 X30.262 Y11.697
N4009 X30.201 Y11.822
N4010 X30.055 Y11.936
N4011 X29.87 Y12.
N4012 X-.005
N4013 X-29.87
N4014 X-30.056 Y11.937
N4015 X-30.206 Y11.821
N4016 X-30.268 Y11.697
N4017 X-30.207 Y11.572
N4018 X-29.973 Y11.391
N4019 X-28.931 Y10.321
N4020 X-28.546 Y9.763
N4021 X-28.151 Y8.945
N4022 X-27.839 Y7.568
N4023 X-27.892 Y6.192
N4024 X-28.276 Y4.816
N4025 X-28.546 Y4.248
N4026 X-29.099 Y3.44
N4027 X-40.636 Y-10.321
N4028 X-41.392 Y-11.131
N4029 X-42.017 Y-11.595
N4030 X-41.996 Y-11.76
N4031 X-41.466 Y-11.971
N4032 X-41.313 Y-12.
N4033 X41.313
N4034 X41.466 Y-11.971
N4035 X41.996 Y-11.76
N4036 X42.018 Y-11.595
N4037 X41.392 Y-11.131
N4038 X40.636 Y-10.321
N4039 X29.099 Y3.44
N4040 X28.546 Y4.246
N4041 X28.267 Y4.816
N4042 X27.888 Y6.192
N4043 X27.829 Y7.568
N4044 X27.953 Y8.092
N4045 Z34.407
N4046 G00 Z38.798
N4047 X-59.538 Y-4.643
N4048 Z34.907
N4049 G01 Z32.407 F600.
N4050 X-59.604 Y-3.44 Z32.371
N4051 X-59.671 Y-2.064 Z32.329
N4052 X-59.701 Y-.688 Z32.288
N4053 X-59.708 Y.688 Z32.247
N4054 Y4.09 Z32.145
N4055 Y7.568 Z32.04
N4056 X-59.623 Y8.945 Z31.999
N4057 X-59.171 Y10.321 Z31.955
N4058 X-58.52 Y11.339 Z31.919
N4059 X-58.365 Y11.513 Z31.912
N4060 X-58.3 Y11.672 Z31.907
N4061 X-58.38 Y11.867 F1500.
N4062 X-58.421 Y11.906
N4063 X-58.656 Y11.992
N4064 X-59.888 Y11.92
N4065 X-60.003 Y11.9
N4066 X-60.632 Y11.71
N4067 X-60.719 Y11.675
N4068 X-61.313 Y11.365
N4069 X-61.425 Y11.285
N4070 X-62.398 Y10.364
N4071 X-62.477 Y10.267
N4072 X-62.772 Y9.797
N4073 X-62.82 Y9.699
N4074 X-63.066 Y9.005
N4075 X-63.093 Y8.881
N4076 X-63.207 Y7.568
N4077 Y-7.568
N4078 X-63.093 Y-8.881
N4079 X-63.066 Y-9.005
N4080 X-62.82 Y-9.699
N4081 X-62.772 Y-9.797
N4082 X-62.477 Y-10.267
N4083 X-62.398 Y-10.364
N4084 X-61.425 Y-11.285
N4085 X-61.313 Y-11.365
N4086 X-60.719 Y-11.675
N4087 X-60.632 Y-11.71
N4088 X-60.003 Y-11.9
N4089 X-59.888 Y-11.92
N4090 X-58.612 Y-11.995
N4091 X-58.432 Y-11.972
N4092 X-57.75 Y-11.756
N4093 X-57.659 Y-11.666
N4094 X-57.679 Y-11.539
N4095 X-58.52 Y-10.391
N4096 X-58.556 Y-10.321
N4097 X-59.018 Y-8.945
N4098 X-59.211 Y-7.568
N4099 X-59.382 Y-6.192
N4100 X-59.528 Y-4.816
N4101 X-59.604 Y-3.44
N4102 X-59.671 Y-2.064
N4103 X-59.701 Y-.688
N4104 X-59.708 Y.688
N4105 Y4.09
N4106 Y7.568
N4107 X-59.623 Y8.945
N4108 X-59.171 Y10.321
N4109 X-58.52 Y11.339
N4110 X-58.365 Y11.513
N4111 X-58.3 Y11.672
N4112 X-59.716 Y11.068
N4113 X-60.01 Y10.858
N4114 X-60.64 Y10.105
N4115 X-60.849 Y9.864
N4116 X-61.243 Y9.143
N4117 X-61.424 Y8.18
N4118 X-61.457 Y7.217
N4119 X-61.474 Y5.292
N4120 X-61.478 Y4.33
N4121 Y3.367
N4122 X-61.471 Y1.442
N4123 X-61.454 Y-.483
N4124 X-61.437 Y-1.445
N4125 X-61.35 Y-3.37
N4126 X-61.269 Y-5.295
N4127 X-60.849
N4128 X-60.01 Y-4.933
N4129 X-59.819 Y-4.632
N4130 X-59.868 Y-3.44 Z31.871 F600.
N4131 X-59.889 Y-2.064 Z31.83
N4132 X-59.89 Y7.568 Z31.54
N4133 X-59.805 Y8.945 Z31.499
N4134 X-59.353 Y10.321 Z31.456
N4135 X-58.526 Y11.542 Z31.411
N4136 X-58.478 Y11.683 Z31.407
N4137 X-58.56 Y11.902 F1500.
N4138 X-58.778 Y11.985
N4139 X-59.888 Y11.92
N4140 X-60.003 Y11.9
N4141 X-60.632 Y11.71
N4142 X-60.719 Y11.675
N4143 X-61.313 Y11.365
N4144 X-61.425 Y11.285
N4145 X-62.398 Y10.364
N4146 X-62.477 Y10.267
N4147 X-62.772 Y9.797
N4148 X-62.82 Y9.699
N4149 X-63.066 Y9.005
N4150 X-63.093 Y8.881
N4151 X-63.207 Y7.568
N4152 Y-7.568
N4153 X-63.093 Y-8.881
N4154 X-63.066 Y-9.005
N4155 X-62.82 Y-9.699
N4156 X-62.772 Y-9.797
N4157 X-62.477 Y-10.267
N4158 X-62.398 Y-10.364
N4159 X-61.425 Y-11.285
N4160 X-61.313 Y-11.365
N4161 X-60.719 Y-11.675
N4162 X-60.632 Y-11.71
N4163 X-60.003 Y-11.9
N4164 X-59.888 Y-11.92
N4165 X-58.641 Y-11.993
N4166 X-58.415 Y-11.937
N4167 X-58.198 Y-11.807
N4168 X-58.112 Y-11.681
N4169 X-58.153 Y-11.533
N4170 X-58.52 Y-11.103
N4171 X-58.995 Y-10.321
N4172 X-59.451 Y-8.945
N4173 X-59.633 Y-7.568
N4174 X-59.734 Y-6.192
N4175 X-59.812 Y-4.816
N4176 X-59.868 Y-3.44
N4177 X-59.889 Y-2.064
N4178 X-59.89 Y7.568
N4179 X-59.805 Y8.945
N4180 X-59.353 Y10.321
N4181 X-58.526 Y11.542
N4182 X-58.478 Y11.683
N4183 Z33.907
N4184 G00 Z40.224
N4185 X-1.645 Y1.595
N4186 Z34.407
N4187 G01 Z31.907 F600.
N4188 X-15.911 Z31.491
N4189 X-16.784 Y1.335 Z31.464
N4190 X-17.372 Y.64 Z31.437
N4191 X-17.744 Y-.166 Z31.412
N4192 X-17.802 Y-.316 Z31.407
N4193 X-17.788 Y-.923 F1500.
N4194 X-17.424 Y-1.41
N4195 X-16.846 Y-1.595
N4196 X16.842
N4197 X17.324 Y-1.471
N4198 X17.686 Y-1.129
N4199 X17.838 Y-.654
N4200 X17.741 Y-.166
N4201 X17.362 Y.64
N4202 X17.014 Y1.143
N4203 X16.502 Y1.478
N4204 X15.901 Y1.595
N4205 X-.005
N4206 X-15.911
N4207 X-16.512 Y1.478
N4208 X-17.024 Y1.143
N4209 X-17.372 Y.64
N4210 X-17.744 Y-.166
N4211 X-17.802 Y-.316
N4212 X-18.035 Y-.61
N4213 X-18.406 Y-.659
N4214 X-20.47 Y-.126
N4215 X-20.774 Y-.143
N4216 X-21.012 Y-.335
N4217 X-21.349 Y-.824
N4218 X-23.22 Y-3.126
N4219 X-23.385 Y-3.501
N4220 X-23.323 Y-3.906
N4221 X-23.052 Y-4.214
N4222 X-22.659 Y-4.329
N4223 X22.659
N4224 X23.052 Y-4.214
N4225 X23.323 Y-3.906
N4226 X23.385 Y-3.501
N4227 X23.22 Y-3.126
N4228 X21.847 Y-1.488
N4229 X20.734 Y.098
N4230 X19.833 Y1.813
N4231 X19.206 Y2.84
N4232 X18.31 Y3.643
N4233 X17.22 Y4.154
N4234 X16.029 Y4.329
N4235 X-.005
N4236 X-16.023
N4237 X-17.219 Y4.153
N4238 X-18.314 Y3.641
N4239 X-19.216 Y2.835
N4240 X-19.848 Y1.803
N4241 X-20.385 Y.71
N4242 X-21.012 Y-.335
N4243 X-21.259 Y-.53
N4244 X-21.573 Y-.539
N4245 X-23.507 Y.041
N4246 X-23.794
N4247 X-24.034 Y-.117
N4248 X-28.701 Y-5.683
N4249 X-28.866 Y-6.058
N4250 X-28.803 Y-6.463
N4251 X-28.533 Y-6.771
N4252 X-28.139 Y-6.886
N4253 X28.139
N4254 X28.533 Y-6.771
N4255 X28.803 Y-6.463
N4256 X28.866 Y-6.058
N4257 X28.701 Y-5.683
N4258 X23.807 Y.155
N4259 X22.505 Y2.137
N4260 X21.997 Y3.371
N4261 X21.634 Y4.655
N4262 X21.223 Y5.549
N4263 X20.548 Y6.264
N4264 X19.679 Y6.726
N4265 X18.708 Y6.886
N4266 X-.005
N4267 X-18.719
N4268 X-19.682 Y6.728
N4269 X-20.545 Y6.272
N4270 X-21.218 Y5.564
N4271 X-21.63 Y4.679
N4272 X-21.978 Y3.436
N4273 X-22.61 Y1.955
N4274 X-23.474 Y.598
N4275 X-23.807 Y.155
N4276 X-24.034 Y-.117
N4277 X-24.303 Y-.282
N4278 X-24.618 Y-.253
N4279 X-26.385 Y.52
N4280 X-26.7 Y.549
N4281 X-26.969 Y.383
N4282 X-34.181 Y-8.24
N4283 X-34.346 Y-8.615
N4284 X-34.284 Y-9.02
N4285 X-34.014 Y-9.328
N4286 X-33.62 Y-9.443
N4287 X33.62
N4288 X34.014 Y-9.328
N4289 X34.284 Y-9.02
N4290 X34.346 Y-8.615
N4291 X34.181 Y-8.24
N4292 X25.604 Y2.013
N4293 X25.051 Y2.837
N4294 X24.585 Y3.714
N4295 X24.049 Y5.516
N4296 X23.923 Y6.575
N4297 X23.9 Y7.641
N4298 X23.781 Y8.327
N4299 X23.405 Y8.912
N4300 X22.83 Y9.305
N4301 X22.148 Y9.443
N4302 X-.005
N4303 X-22.136
N4304 X-22.824 Y9.304
N4305 X-23.405 Y8.909
N4306 X-23.786 Y8.319
N4307 X-23.909 Y7.628
N4308 X-23.961 Y6.098
N4309 X-24.054 Y5.502
N4310 X-24.44 Y4.126
N4311 X-24.937 Y3.027
N4312 X-25.6 Y2.019
N4313 X-26.969 Y.383
N4314 X-27.237 Y.217
N4315 X-27.552 Y.245
N4316 X-29.3 Y1.005
N4317 X-29.614 Y1.033
N4318 X-29.882 Y.868
N4319 X-39.263 Y-10.321
N4320 X-39.965 Y-11.083
N4321 X-40.643 Y-11.595
N4322 X-40.62 Y-11.756
N4323 X-40.038 Y-11.973
N4324 X-39.886 Y-12.
N4325 X39.887
N4326 X40.038 Y-11.973
N4327 X40.62 Y-11.756
N4328 X40.644 Y-11.595
N4329 X39.965 Y-11.083
N4330 X39.263 Y-10.321
N4331 X27.726 Y3.44
N4332 X27.119 Y4.342
N4333 X26.892 Y4.816
N4334 X26.515 Y6.192
N4335 X26.456 Y7.568
N4336 X26.78 Y8.945
N4337 X27.119 Y9.652
N4338 X27.578 Y10.321
N4339 X28.546 Y11.356
N4340 X28.833 Y11.577
N4341 X28.889 Y11.694
N4342 X28.827 Y11.808
N4343 X28.627 Y11.944
N4344 X28.448 Y12.
N4345 X-.005
N4346 X-28.447
N4347 X-28.628 Y11.944
N4348 X-28.831 Y11.807
N4349 X-28.894 Y11.693
N4350 X-28.839 Y11.575
N4351 X-28.546 Y11.346
N4352 X-27.558 Y10.321
N4353 X-27.119 Y9.671
N4354 X-26.777 Y8.945
N4355 X-26.465 Y7.568
N4356 X-26.516 Y6.192
N4357 X-26.902 Y4.816
N4358 X-27.119 Y4.348
N4359 X-27.726 Y3.44
N4360 X-29.882 Y.868
N4361 Z33.907
N4362 G00 Z40.232
N4363 X59.89 Y4.634
N4364 Z34.407
N4365 G01 Z31.907 F600.
N4366 X59.889 Y-2.064 Z31.705
N4367 X59.858 Y-3.44 Z31.664
N4368 X59.817 Y-4.816 Z31.623
N4369 X59.741 Y-6.192 Z31.581
N4370 X59.611 Y-7.568 Z31.54
N4371 X59.462 Y-8.945 Z31.498
N4372 X59.006 Y-10.321 Z31.454
N4373 X58.52 Y-11.121 Z31.426
N4374 X58.169 Y-11.531 Z31.41
N4375 X58.126 Y-11.626 Z31.407
N4376 X58.213 Y-11.811 F1500.
N4377 X58.415 Y-11.936
N4378 X58.642 Y-11.993
N4379 X59.888 Y-11.92
N4380 X60.003 Y-11.9
N4381 X60.632 Y-11.71
N4382 X60.719 Y-11.675
N4383 X61.313 Y-11.365
N4384 X61.425 Y-11.285
N4385 X62.398 Y-10.364
N4386 X62.477 Y-10.267
N4387 X62.772 Y-9.797
N4388 X62.82 Y-9.699
N4389 X63.066 Y-9.005
N4390 X63.093 Y-8.881
N4391 X63.207 Y-7.568
N4392 Y7.568
N4393 X63.093 Y8.881
N4394 X63.066 Y9.005
N4395 X62.82 Y9.699
N4396 X62.772 Y9.797
N4397 X62.477 Y10.267
N4398 X62.398 Y10.364
N4399 X61.425 Y11.285
N4400 X61.313 Y11.365
N4401 X60.719 Y11.675
N4402 X60.632 Y11.71
N4403 X60.003 Y11.9
N4404 X59.888 Y11.92
N4405 X58.778 Y11.985
N4406 X58.514 Y11.842
N4407 X58.526 Y11.542
N4408 X59.353 Y10.321
N4409 X59.805 Y8.945
N4410 X59.89 Y7.568
N4411 X59.889 Y-2.064
N4412 X59.858 Y-3.44
N4413 X59.817 Y-4.816
N4414 X59.741 Y-6.192
N4415 X59.611 Y-7.568
N4416 X59.462 Y-8.945
N4417 X59.006 Y-10.321
N4418 X58.52 Y-11.121
N4419 X58.169 Y-11.531
N4420 X58.126 Y-11.626
N4421 X59.485 Y-11.099
N4422 X59.564 Y-11.069
N4423 X60.272 Y-10.438
N4424 X60.666 Y-10.107
N4425 X61.059 Y-9.325
N4426 X61.138 Y-9.145
N4427 X61.453 Y-7.22
N4428 X61.502 Y-5.296
N4429 X61.519 Y-4.334
N4430 X61.545 Y-2.409
N4431 X61.551 Y-.485
N4432 Y1.439
N4433 X61.059 Y2.401
N4434 Y2.498
N4435 X60.63 Y3.364
N4436 X60.072 Y4.615
N4437 Y-3.44 Z31.165 F600.
N4438 X60.052 Y-4.816 Z31.123
N4439 X59.966 Y-7.568 Z31.041
N4440 X59.947 Y-7.836 Z31.033
N4441 X59.823 Y-8.945 Z30.999
N4442 X59.368 Y-10.321 Z30.955
N4443 X58.528 Y-11.546 Z30.911
N4444 X58.482 Y-11.67 Z30.907
N4445 X58.555 Y-11.897 F1500.
N4446 X58.776 Y-11.985
N4447 X59.888 Y-11.92
N4448 X60.003 Y-11.9
N4449 X60.632 Y-11.71
N4450 X60.719 Y-11.675
N4451 X61.313 Y-11.365
N4452 X61.425 Y-11.285
N4453 X62.398 Y-10.364
N4454 X62.477 Y-10.267
N4455 X62.772 Y-9.797
N4456 X62.82 Y-9.699
N4457 X63.066 Y-9.005
N4458 X63.093 Y-8.881
N4459 X63.207 Y-7.568
N4460 Y2.03
N4461 Y7.568
N4462 X63.093 Y8.881
N4463 X63.066 Y9.005
N4464 X62.82 Y9.699
N4465 X62.772 Y9.797
N4466 X62.477 Y10.267
N4467 X62.398 Y10.364
N4468 X61.425 Y11.285
N4469 X61.313 Y11.365
N4470 X60.719 Y11.675
N4471 X60.632 Y11.71
N4472 X60.003 Y11.9
N4473 X59.888 Y11.92
N4474 X58.777 Y11.985
N4475 X58.526 Y11.861
N4476 X58.565 Y11.697
N4477 X59.535 Y10.321
N4478 X59.947 Y9.142
N4479 X59.987 Y8.945
N4480 X60.072 Y7.568
N4481 Y-3.44
N4482 X60.052 Y-4.816
N4483 X59.966 Y-7.568
N4484 X59.947 Y-7.836
N4485 X59.823 Y-8.945
N4486 X59.368 Y-10.321
N4487 X58.528 Y-11.546
N4488 X58.482 Y-11.67
N4489 Z33.407
N4490 G00 Z36.69
N4491 X-.004 Y-1.6
N4492 Z33.907
N4493 G01 Z31.407 F600.
N4494 X15.496 Z30.945
N4495 X16.098 Y-1.394 Z30.926
N4496 X16.447 Y-.862 Z30.907
N4497 X16.472 Y-.515 F1500.
N4498 X16.375 Y-.181
N4499 X15.992 Y.642
N4500 X15.642 Y1.146
N4501 X15.129 Y1.482
N4502 X14.527 Y1.6
N4503 X-.005
N4504 X-14.537
N4505 X-15.139 Y1.482
N4506 X-15.653 Y1.146
N4507 X-16.002 Y.642
N4508 X-16.379 Y-.179
N4509 X-16.481 Y-.663
N4510 X-16.335 Y-1.134
N4511 X-15.978 Y-1.475
N4512 X-15.5 Y-1.6
N4513 X15.496
N4514 X15.914 Y-1.506
N4515 X16.252 Y-1.244
N4516 X16.447 Y-.862
N4517 X16.551 Y-.661
N4518 X18.326 Y1.41
N4519 X18.442 Y1.668
N4520 X18.399 Y1.947
N4521 X17.76 Y2.924
N4522 X16.873 Y3.683
N4523 X15.809 Y4.164
N4524 X14.654 Y4.329
N4525 X-.005
N4526 X-14.646
N4527 X-15.843 Y4.153
N4528 X-16.94 Y3.64
N4529 X-17.842 Y2.834
N4530 X-18.475 Y1.801
N4531 X-19.14 Y.491
N4532 X-19.927 Y-.75
N4533 X-21.847 Y-3.126
N4534 X-22.011 Y-3.501
N4535 X-21.949 Y-3.906
N4536 X-21.679 Y-4.214
N4537 X-21.285 Y-4.329
N4538 X21.285
N4539 X21.679 Y-4.214
N4540 X21.949 Y-3.906
N4541 X22.011 Y-3.501
N4542 X21.847 Y-3.126
N4543 X20.473 Y-1.488
N4544 X19.364 Y.1
N4545 X18.459 Y1.813
N4546 X18.399 Y1.947
N4547 X18.366 Y2.278
N4548 X18.548 Y2.556
N4549 X20.161 Y3.792
N4550 X20.329 Y4.026
N4551 X20.341 Y4.314
N4552 X20.258 Y4.658
N4553 X19.847 Y5.551
N4554 X19.173 Y6.265
N4555 X18.305 Y6.727
N4556 X17.335 Y6.886
N4557 X-.005
N4558 X-17.345
N4559 X-18.307 Y6.729
N4560 X-19.169 Y6.273
N4561 X-19.841 Y5.567
N4562 X-20.253 Y4.684
N4563 X-20.862 Y2.724
N4564 X-21.417 Y1.657
N4565 X-22.068 Y.646
N4566 X-22.433 Y.155
N4567 X-27.327 Y-5.683
N4568 X-27.492 Y-6.058
N4569 X-27.43 Y-6.463
N4570 X-27.159 Y-6.771
N4571 X-26.766 Y-6.886
N4572 X26.766
N4573 X27.159 Y-6.771
N4574 X27.43 Y-6.463
N4575 X27.492 Y-6.058
N4576 X27.327 Y-5.683
N4577 X22.433 Y.155
N4578 X21.056 Y2.284
N4579 X20.341 Y4.314
N4580 X20.361 Y4.623
N4581 X20.559 Y4.861
N4582 X22.339 Y5.98
N4583 X22.515 Y6.17
N4584 X22.572 Y6.422
N4585 X22.527 Y7.64
N4586 X22.408 Y8.326
N4587 X22.031 Y8.912
N4588 X21.456 Y9.305
N4589 X20.774 Y9.443
N4590 X-.005
N4591 X-20.762
N4592 X-21.451 Y9.304
N4593 X-22.031 Y8.909
N4594 X-22.413 Y8.319
N4595 X-22.535 Y7.628
N4596 X-22.586 Y6.101
N4597 X-22.68 Y5.5
N4598 X-23.195 Y3.77
N4599 X-23.659 Y2.881
N4600 X-24.21 Y2.043
N4601 X-32.808 Y-8.24
N4602 X-32.973 Y-8.615
N4603 X-32.91 Y-9.02
N4604 X-32.64 Y-9.328
N4605 X-32.246 Y-9.443
N4606 X32.246
N4607 X32.64 Y-9.328
N4608 X32.91 Y-9.02
N4609 X32.973 Y-8.615
N4610 X32.808 Y-8.24
N4611 X24.217 Y2.034
N4612 X23.556 Y3.036
N4613 X23.052 Y4.139
N4614 X22.585 Y6.087
N4615 X22.572 Y6.422
N4616 X22.655 Y6.717
N4617 X22.894 Y6.908
N4618 X24.878 Y7.662
N4619 X25.077 Y7.8
N4620 X25.188 Y8.015
N4621 X25.406 Y8.945
N4622 X25.692 Y9.557
N4623 X26.203 Y10.321
N4624 X27.119 Y11.31
N4625 X27.465 Y11.579
N4626 X27.515 Y11.691
N4627 X27.452 Y11.796
N4628 X27.2 Y11.951
N4629 X27.024 Y12.
N4630 X-.005
N4631 X-27.024
N4632 X-27.2 Y11.951
N4633 X-27.456 Y11.796
N4634 X-27.52 Y11.69
N4635 X-27.47 Y11.578
N4636 X-27.119 Y11.3
N4637 X-26.184 Y10.321
N4638 X-25.692 Y9.574
N4639 X-25.404 Y8.945
N4640 X-25.092 Y7.568
N4641 X-25.141 Y6.192
N4642 X-25.528 Y4.816
N4643 X-25.692 Y4.453
N4644 X-26.352 Y3.44
N4645 X-37.889 Y-10.321
N4646 X-38.537 Y-11.034
N4647 X-39.269 Y-11.595
N4648 X-39.243 Y-11.752
N4649 X-38.61 Y-11.974
N4650 X-38.46 Y-12.
N4651 X38.46
N4652 X38.61 Y-11.974
N4653 X39.245 Y-11.752
N4654 X39.27 Y-11.595
N4655 X38.537 Y-11.034
N4656 X37.889 Y-10.321
N4657 X26.352 Y3.44
N4658 X25.692 Y4.443
N4659 X25.518 Y4.816
N4660 X25.14 Y6.192
N4661 X25.083 Y7.568
