190883.MPF
;This Post Processor is distributed on an "AS IS" BASIS,
;WITHOUT WARRANTIES OR CONDITIONS OF ANY KIND, either express or implied.
N1 T10 D10
N2 L6
N3 MSG("10MM CRB 2FL 22 LOC")
N4 G60
N5 G64
N6 SOFT
N7 G00 G17 G90 G54
N8 S2700 M03
N9 G00 G90 X-50.377 Y28.626
N10 Z25. M08
N11 Z.5
N12 G01 Z1.498 F300.
N13 G41 X-47.825 Y24.095 Z1.482 F900.
N14 X-47.571 Y23.799 Z1.481
N15 X-47.222 Y23.623 Z1.48
N16 X-46.259 Y23.354 Z1.477 F1200.
N17 X-1.665 Y7.123 Z1.328
N18 X-.904 Y6.904 Z1.325
N19 X-.303 Y6.819 Z1.323
N20 X.303 Z1.321
N21 X.904 Y6.904 Z1.319
N22 X1.665 Y7.123 Z1.317
N23 X46.072 Y23.285 Z1.169
N24 X47.345 Y23.649 Z1.165
N25 X48.656 Y23.83 Z1.16
N26 X49.98 Y23.825 Z1.156
N27 X51.29 Y23.634 Z1.152
N28 X52.56 Y23.26 Z1.148
N29 X52.873 Y23.144 Z1.147
N30 X54.311 Y22.386 Z1.142
N31 X55.682 Y21.339 Z1.136
N32 X56.861 Y20.086 Z1.131
N33 X57.819 Y18.66 Z1.126
N34 X58.447 Y17.292 Z1.121
N35 X63.797 Y2.593 Z1.072
N36 X64.17 Y1.312 Z1.068
N37 X64.373 Y-.007 Z1.064
N38 X64.402 Y-1.341 Z1.059
N39 X64.257 Y-2.667 Z1.055
N40 X63.94 Y-3.963 Z1.051
N41 X63.456 Y-5.207 Z1.047
N42 X62.815 Y-6.376 Z1.043
N43 X62.026 Y-7.452 Z1.038
N44 X61.103 Y-8.416 Z1.034
N45 X60.063 Y-9.251 Z1.03
N46 X58.922 Y-9.944 Z1.026
N47 X57.701 Y-10.481 Z1.022
N48 X21.944 Y-23.495 Z.902
N49 X20.9 Y-23.775 Z.899
N50 X19.824 Y-23.869 Z.896
N51 X-19.824 Z.771
N52 X-20.9 Y-23.775 Z.768
N53 X-21.944 Y-23.495 Z.764
N54 X-57.701 Y-10.481 Z.645
N55 X-58.922 Y-9.944 Z.641
N56 X-60.063 Y-9.251 Z.637
N57 X-61.103 Y-8.416 Z.632
N58 X-62.026 Y-7.452 Z.628
N59 X-62.815 Y-6.376 Z.624
N60 X-63.456 Y-5.207 Z.62
N61 X-63.94 Y-3.963 Z.616
N62 X-64.257 Y-2.667 Z.612
N63 X-64.402 Y-1.341 Z.607
N64 X-64.373 Y-.007 Z.603
N65 X-64.17 Y1.312 Z.599
N66 X-63.797 Y2.593 Z.595
N67 X-58.447 Y17.292 Z.546
N68 X-57.819 Y18.66 Z.541
N69 X-56.861 Y20.086 Z.536
N70 X-55.682 Y21.339 Z.53
N71 X-54.311 Y22.386 Z.525
N72 X-52.716 Y23.226 Z.519
N73 X-50.96 Y23.749 Z.513
N74 X-49.188 Y23.891 Z.508
N75 X-47.556 Y23.716 Z.503
N76 X-46.259 Y23.354 Z.498
N77 X-1.665 Y7.123 Z.422
N78 X-.904 Y6.904 Z.421
N79 X-.303 Y6.819 Z.42
N80 X.303 Z.419
N81 X.904 Y6.904 Z.418
N82 X1.665 Y7.123 Z.417
N83 X46.072 Y23.285 Z.341
N84 X47.345 Y23.649 Z.339
N85 X48.656 Y23.83 Z.337
N86 X49.98 Y23.825 Z.335
N87 X51.29 Y23.634 Z.333
N88 X52.56 Y23.26 Z.331
N89 X52.873 Y23.144 Z.33
N90 X54.311 Y22.386 Z.327
N91 X55.682 Y21.339 Z.325
N92 X56.861 Y20.086 Z.322
N93 X57.819 Y18.66 Z.319
N94 X58.447 Y17.292 Z.317
N95 X63.797 Y2.593 Z.292
N96 X64.17 Y1.312 Z.289
N97 X64.373 Y-.007 Z.287
N98 X64.402 Y-1.341 Z.285
N99 X64.257 Y-2.667 Z.283
N100 X63.94 Y-3.963 Z.281
N101 X63.456 Y-5.207 Z.279
N102 X62.815 Y-6.376 Z.277
N103 X62.026 Y-7.452 Z.274
N104 X61.103 Y-8.416 Z.272
N105 X60.063 Y-9.251 Z.27
N106 X58.922 Y-9.944 Z.268
N107 X57.701 Y-10.481 Z.266
N108 X21.944 Y-23.495 Z.205
N109 X20.9 Y-23.775 Z.203
N110 X19.824 Y-23.869 Z.201
N111 X-19.824 Z.138
N112 X-20.9 Y-23.775 Z.136
N113 X-21.944 Y-23.495 Z.134
N114 X-57.701 Y-10.481 Z.073
N115 X-58.922 Y-9.944 Z.071
N116 X-60.063 Y-9.251 Z.069
N117 X-61.103 Y-8.416 Z.067
N118 X-62.026 Y-7.452 Z.065
N119 X-62.815 Y-6.376 Z.063
N120 X-63.456 Y-5.207 Z.061
N121 X-63.94 Y-3.963 Z.058
N122 X-64.257 Y-2.667 Z.056
N123 X-64.402 Y-1.341 Z.054
N124 X-64.373 Y-.007 Z.052
N125 X-64.17 Y1.312 Z.05
N126 X-63.797 Y2.593 Z.048
N127 X-58.447 Y17.292 Z.023
N128 X-57.819 Y18.66 Z.02
N129 X-56.861 Y20.086 Z.017
N130 X-55.682 Y21.339 Z.015
N131 X-54.311 Y22.386 Z.012
N132 X-52.716 Y23.226 Z.009
N133 X-50.96 Y23.749 Z.006
N134 X-49.188 Y23.891 Z.003
N135 X-47.556 Y23.716 Z0
N136 X-46.259 Y23.354 Z-.002
N137 X-1.665 Y7.123 Z-.078
N138 X-.904 Y6.904 Z-.079
N139 X-.303 Y6.819 Z-.08
N140 X.303 Z-.081
N141 X.904 Y6.904 Z-.082
N142 X1.665 Y7.123 Z-.083
N143 X46.072 Y23.285 Z-.159
N144 X47.345 Y23.649 Z-.161
N145 X48.656 Y23.83 Z-.163
N146 X49.98 Y23.825 Z-.165
N147 X51.29 Y23.634 Z-.167
N148 X52.56 Y23.26 Z-.169
N149 X52.873 Y23.144 Z-.17
N150 X54.311 Y22.386 Z-.173
N151 X55.682 Y21.339 Z-.175
N152 X56.861 Y20.086 Z-.178
N153 X57.819 Y18.66 Z-.181
N154 X58.447 Y17.292 Z-.183
N155 X63.797 Y2.593 Z-.208
N156 X64.17 Y1.312 Z-.211
N157 X64.373 Y-.007 Z-.213
N158 X64.402 Y-1.341 Z-.215
N159 X64.257 Y-2.667 Z-.217
N160 X63.94 Y-3.963 Z-.219
N161 X63.456 Y-5.207 Z-.221
N162 X62.815 Y-6.376 Z-.223
N163 X62.026 Y-7.452 Z-.226
N164 X61.103 Y-8.416 Z-.228
N165 X60.063 Y-9.251 Z-.23
N166 X58.922 Y-9.944 Z-.232
N167 X57.701 Y-10.481 Z-.234
N168 X21.944 Y-23.495 Z-.295
N169 X20.9 Y-23.775 Z-.297
N170 X19.824 Y-23.869 Z-.299
N171 X-19.824 Z-.362
N172 X-20.9 Y-23.775 Z-.364
N173 X-21.944 Y-23.495 Z-.366
N174 X-57.701 Y-10.481 Z-.427
N175 X-58.922 Y-9.944 Z-.429
N176 X-60.063 Y-9.251 Z-.431
N177 X-61.103 Y-8.416 Z-.433
N178 X-62.026 Y-7.452 Z-.435
N179 X-62.815 Y-6.376 Z-.437
N180 X-63.456 Y-5.207 Z-.439
N181 X-63.94 Y-3.963 Z-.442
N182 X-64.257 Y-2.667 Z-.444
N183 X-64.402 Y-1.341 Z-.446
N184 X-64.373 Y-.007 Z-.448
N185 X-64.17 Y1.312 Z-.45
N186 X-63.797 Y2.593 Z-.452
N187 X-58.447 Y17.292 Z-.477
N188 X-57.819 Y18.66 Z-.48
N189 X-56.861 Y20.086 Z-.483
N190 X-55.682 Y21.339 Z-.485
N191 X-54.311 Y22.386 Z-.488
N192 X-52.716 Y23.226 Z-.491
N193 X-50.96 Y23.749 Z-.494
N194 X-49.188 Y23.891 Z-.497
N195 X-47.556 Y23.716 Z-.499
N196 X-46.259 Y23.354 Z-.502
N197 X-1.665 Y7.123 Z-.578
N198 X-.904 Y6.904 Z-.579
N199 X-.303 Y6.819 Z-.58
N200 X.303 Z-.581
N201 X.904 Y6.904 Z-.582
N202 X1.665 Y7.123 Z-.583
N203 X46.072 Y23.285 Z-.659
N204 X47.345 Y23.649 Z-.661
N205 X48.656 Y23.83 Z-.663
N206 X49.98 Y23.825 Z-.665
N207 X51.29 Y23.634 Z-.667
N208 X52.56 Y23.26 Z-.669
N209 X52.873 Y23.144 Z-.67
N210 X54.311 Y22.386 Z-.673
N211 X55.682 Y21.339 Z-.675
N212 X56.861 Y20.086 Z-.678
N213 X57.819 Y18.66 Z-.681
N214 X58.447 Y17.292 Z-.683
N215 X63.797 Y2.593 Z-.708
N216 X64.17 Y1.312 Z-.711
N217 X64.373 Y-.007 Z-.713
N218 X64.402 Y-1.341 Z-.715
N219 X64.257 Y-2.667 Z-.717
N220 X63.94 Y-3.963 Z-.719
N221 X63.456 Y-5.207 Z-.721
N222 X62.815 Y-6.376 Z-.723
N223 X62.026 Y-7.452 Z-.726
N224 X61.103 Y-8.416 Z-.728
N225 X60.063 Y-9.251 Z-.73
N226 X58.922 Y-9.944 Z-.732
N227 X57.701 Y-10.481 Z-.734
N228 X21.944 Y-23.495 Z-.795
N229 X20.9 Y-23.775 Z-.797
N230 X19.824 Y-23.869 Z-.799
N231 X-19.824 Z-.862
N232 X-20.9 Y-23.775 Z-.864
N233 X-21.944 Y-23.495 Z-.866
N234 X-57.701 Y-10.481 Z-.927
N235 X-58.922 Y-9.944 Z-.929
N236 X-60.063 Y-9.251 Z-.931
N237 X-61.103 Y-8.416 Z-.933
N238 X-62.026 Y-7.452 Z-.935
N239 X-62.815 Y-6.376 Z-.937
N240 X-63.456 Y-5.207 Z-.939
N241 X-63.94 Y-3.963 Z-.942
N242 X-64.257 Y-2.667 Z-.944
N243 X-64.402 Y-1.341 Z-.946
N244 X-64.373 Y-.007 Z-.948
N245 X-64.17 Y1.312 Z-.95
N246 X-63.797 Y2.593 Z-.952
N247 X-58.447 Y17.292 Z-.977
N248 X-57.819 Y18.66 Z-.98
N249 X-56.861 Y20.086 Z-.983
N250 X-55.682 Y21.339 Z-.985
N251 X-54.311 Y22.386 Z-.988
N252 X-52.716 Y23.226 Z-.991
N253 X-50.96 Y23.749 Z-.994
N254 X-49.188 Y23.891 Z-.997
N255 X-47.556 Y23.716 Z-.999
N256 X-46.259 Y23.354 Z-1.002
N257 X-1.665 Y7.123 Z-1.078
N258 X-.904 Y6.904 Z-1.079
N259 X-.303 Y6.819 Z-1.08
N260 X.303 Z-1.081
N261 X.904 Y6.904 Z-1.082
N262 X1.665 Y7.123 Z-1.083
N263 X46.072 Y23.285 Z-1.159
N264 X47.345 Y23.649 Z-1.161
N265 X48.656 Y23.83 Z-1.163
N266 X49.98 Y23.825 Z-1.165
N267 X51.29 Y23.634 Z-1.167
N268 X52.56 Y23.26 Z-1.169
N269 X52.873 Y23.144 Z-1.17
N270 X54.311 Y22.386 Z-1.173
N271 X55.682 Y21.339 Z-1.175
N272 X56.861 Y20.086 Z-1.178
N273 X57.819 Y18.66 Z-1.181
N274 X58.447 Y17.292 Z-1.183
N275 X63.797 Y2.593 Z-1.208
N276 X64.17 Y1.312 Z-1.211
N277 X64.373 Y-.007 Z-1.213
N278 X64.402 Y-1.341 Z-1.215
N279 X64.257 Y-2.667 Z-1.217
N280 X63.94 Y-3.963 Z-1.219
N281 X63.456 Y-5.207 Z-1.221
N282 X62.815 Y-6.376 Z-1.223
N283 X62.026 Y-7.452 Z-1.226
N284 X61.103 Y-8.416 Z-1.228
N285 X60.063 Y-9.251 Z-1.23
N286 X58.922 Y-9.944 Z-1.232
N287 X57.701 Y-10.481 Z-1.234
N288 X21.944 Y-23.495 Z-1.295
N289 X20.9 Y-23.775 Z-1.297
N290 X19.824 Y-23.869 Z-1.299
N291 X-19.824 Z-1.362
N292 X-20.9 Y-23.775 Z-1.364
N293 X-21.944 Y-23.495 Z-1.366
N294 X-57.701 Y-10.481 Z-1.427
N295 X-58.922 Y-9.944 Z-1.429
N296 X-60.063 Y-9.251 Z-1.431
N297 X-61.103 Y-8.416 Z-1.433
N298 X-62.026 Y-7.452 Z-1.435
N299 X-62.815 Y-6.376 Z-1.437
N300 X-63.456 Y-5.207 Z-1.439
N301 X-63.94 Y-3.963 Z-1.442
N302 X-64.257 Y-2.667 Z-1.444
N303 X-64.402 Y-1.341 Z-1.446
N304 X-64.373 Y-.007 Z-1.448
N305 X-64.17 Y1.312 Z-1.45
N306 X-63.797 Y2.593 Z-1.452
N307 X-58.447 Y17.292 Z-1.477
N308 X-57.819 Y18.66 Z-1.48
N309 X-56.861 Y20.086 Z-1.483
N310 X-55.682 Y21.339 Z-1.485
N311 X-54.311 Y22.386 Z-1.488
N312 X-52.716 Y23.226 Z-1.491
N313 X-50.96 Y23.749 Z-1.494
N314 X-49.188 Y23.891 Z-1.497
N315 X-47.556 Y23.716 Z-1.499
N316 X-46.259 Y23.354 Z-1.502
N317 X-1.665 Y7.123 Z-1.578
N318 X-.904 Y6.904 Z-1.579
N319 X-.303 Y6.819 Z-1.58
N320 X.303 Z-1.581
N321 X.904 Y6.904 Z-1.582
N322 X1.665 Y7.123 Z-1.583
N323 X46.072 Y23.285 Z-1.659
N324 X47.345 Y23.649 Z-1.661
N325 X48.656 Y23.83 Z-1.663
N326 X49.98 Y23.825 Z-1.665
N327 X51.29 Y23.634 Z-1.667
N328 X52.56 Y23.26 Z-1.669
N329 X52.873 Y23.144 Z-1.67
N330 X54.311 Y22.386 Z-1.673
N331 X55.682 Y21.339 Z-1.675
N332 X56.861 Y20.086 Z-1.678
N333 X57.819 Y18.66 Z-1.681
N334 X58.447 Y17.292 Z-1.683
N335 X63.797 Y2.593 Z-1.708
N336 X64.17 Y1.312 Z-1.711
N337 X64.373 Y-.007 Z-1.713
N338 X64.402 Y-1.341 Z-1.715
N339 X64.257 Y-2.667 Z-1.717
N340 X63.94 Y-3.963 Z-1.719
N341 X63.456 Y-5.207 Z-1.721
N342 X62.815 Y-6.376 Z-1.723
N343 X62.026 Y-7.452 Z-1.726
N344 X61.103 Y-8.416 Z-1.728
N345 X60.063 Y-9.251 Z-1.73
N346 X58.922 Y-9.944 Z-1.732
N347 X57.701 Y-10.481 Z-1.734
N348 X21.944 Y-23.495 Z-1.795
N349 X20.9 Y-23.775 Z-1.797
N350 X19.824 Y-23.869 Z-1.799
N351 X-19.824 Z-1.862
N352 X-20.9 Y-23.775 Z-1.864
N353 X-21.944 Y-23.495 Z-1.866
N354 X-57.701 Y-10.481 Z-1.927
N355 X-58.922 Y-9.944 Z-1.929
N356 X-60.063 Y-9.251 Z-1.931
N357 X-61.103 Y-8.416 Z-1.933
N358 X-62.026 Y-7.452 Z-1.935
N359 X-62.815 Y-6.376 Z-1.937
N360 X-63.456 Y-5.207 Z-1.939
N361 X-63.94 Y-3.963 Z-1.942
N362 X-64.257 Y-2.667 Z-1.944
N363 X-64.402 Y-1.341 Z-1.946
N364 X-64.373 Y-.007 Z-1.948
N365 X-64.17 Y1.312 Z-1.95
N366 X-63.797 Y2.593 Z-1.952
N367 X-58.447 Y17.292 Z-1.977
N368 X-57.819 Y18.66 Z-1.98
N369 X-56.861 Y20.086 Z-1.983
N370 X-55.682 Y21.339 Z-1.985
N371 X-54.311 Y22.386 Z-1.988
N372 X-52.716 Y23.226 Z-1.991
N373 X-50.96 Y23.749 Z-1.994
N374 X-49.188 Y23.891 Z-1.997
N375 X-47.556 Y23.716 Z-1.999
N376 X-46.259 Y23.354 Z-2.002
N377 X-1.665 Y7.123 Z-2.078
N378 X-.904 Y6.904 Z-2.079
N379 X-.303 Y6.819 Z-2.08
N380 X.303 Z-2.081
N381 X.904 Y6.904 Z-2.082
N382 X1.665 Y7.123 Z-2.083
N383 X46.072 Y23.285 Z-2.159
N384 X47.345 Y23.649 Z-2.161
N385 X48.656 Y23.83 Z-2.163
N386 X49.98 Y23.825 Z-2.165
N387 X51.29 Y23.634 Z-2.167
N388 X52.56 Y23.26 Z-2.169
N389 X52.873 Y23.144 Z-2.17
N390 X54.311 Y22.386 Z-2.173
N391 X55.682 Y21.339 Z-2.175
N392 X56.861 Y20.086 Z-2.178
N393 X57.819 Y18.66 Z-2.181
N394 X58.447 Y17.292 Z-2.183
N395 X63.797 Y2.593 Z-2.208
N396 X64.17 Y1.312 Z-2.211
N397 X64.373 Y-.007 Z-2.213
N398 X64.402 Y-1.341 Z-2.215
N399 X64.257 Y-2.667 Z-2.217
N400 X63.94 Y-3.963 Z-2.219
N401 X63.456 Y-5.207 Z-2.221
N402 X62.815 Y-6.376 Z-2.223
N403 X62.026 Y-7.452 Z-2.226
N404 X61.103 Y-8.416 Z-2.228
N405 X60.063 Y-9.251 Z-2.23
N406 X58.922 Y-9.944 Z-2.232
N407 X57.701 Y-10.481 Z-2.234
N408 X21.944 Y-23.495 Z-2.295
N409 X20.9 Y-23.775 Z-2.297
N410 X19.824 Y-23.869 Z-2.299
N411 X-19.824 Z-2.362
N412 X-20.9 Y-23.775 Z-2.364
N413 X-21.944 Y-23.495 Z-2.366
N414 X-57.701 Y-10.481 Z-2.427
N415 X-58.922 Y-9.944 Z-2.429
N416 X-60.063 Y-9.251 Z-2.431
N417 X-61.103 Y-8.416 Z-2.433
N418 X-62.026 Y-7.452 Z-2.435
N419 X-62.815 Y-6.376 Z-2.437
N420 X-63.456 Y-5.207 Z-2.439
N421 X-63.94 Y-3.963 Z-2.442
N422 X-64.257 Y-2.667 Z-2.444
N423 X-64.402 Y-1.341 Z-2.446
N424 X-64.373 Y-.007 Z-2.448
N425 X-64.17 Y1.312 Z-2.45
N426 X-63.797 Y2.593 Z-2.452
N427 X-58.447 Y17.292 Z-2.477
N428 X-57.819 Y18.66 Z-2.48
N429 X-56.861 Y20.086 Z-2.483
N430 X-55.682 Y21.339 Z-2.485
N431 X-54.311 Y22.386 Z-2.488
N432 X-52.716 Y23.226 Z-2.491
N433 X-50.96 Y23.749 Z-2.494
N434 X-49.188 Y23.891 Z-2.497
N435 X-47.556 Y23.716 Z-2.499
N436 X-46.259 Y23.354 Z-2.502
N437 X-1.665 Y7.123 Z-2.578
N438 X-.904 Y6.904 Z-2.579
N439 X-.303 Y6.819 Z-2.58
N440 X.303 Z-2.581
N441 X.904 Y6.904 Z-2.582
N442 X1.665 Y7.123 Z-2.583
N443 X46.072 Y23.285 Z-2.659
N444 X47.345 Y23.649 Z-2.661
N445 X48.656 Y23.83 Z-2.663
N446 X49.98 Y23.825 Z-2.665
N447 X51.29 Y23.634 Z-2.667
N448 X52.56 Y23.26 Z-2.669
N449 X52.873 Y23.144 Z-2.67
N450 X54.311 Y22.386 Z-2.673
N451 X55.682 Y21.339 Z-2.675
N452 X56.861 Y20.086 Z-2.678
N453 X57.819 Y18.66 Z-2.681
N454 X58.447 Y17.292 Z-2.683
N455 X63.797 Y2.593 Z-2.708
N456 X64.17 Y1.312 Z-2.711
N457 X64.373 Y-.007 Z-2.713
N458 X64.402 Y-1.341 Z-2.715
N459 X64.257 Y-2.667 Z-2.717
N460 X63.94 Y-3.963 Z-2.719
N461 X63.456 Y-5.207 Z-2.721
N462 X62.815 Y-6.376 Z-2.723
N463 X62.026 Y-7.452 Z-2.726
N464 X61.103 Y-8.416 Z-2.728
N465 X60.063 Y-9.251 Z-2.73
N466 X58.922 Y-9.944 Z-2.732
N467 X57.701 Y-10.481 Z-2.734
N468 X21.944 Y-23.495 Z-2.795
N469 X20.9 Y-23.775 Z-2.797
N470 X19.824 Y-23.869 Z-2.799
N471 X-19.824 Z-2.862
N472 X-20.9 Y-23.775 Z-2.864
N473 X-21.944 Y-23.495 Z-2.866
N474 X-57.701 Y-10.481 Z-2.927
N475 X-58.922 Y-9.944 Z-2.929
N476 X-60.063 Y-9.251 Z-2.931
N477 X-61.103 Y-8.416 Z-2.933
N478 X-62.026 Y-7.452 Z-2.935
N479 X-62.815 Y-6.376 Z-2.937
N480 X-63.456 Y-5.207 Z-2.939
N481 X-63.94 Y-3.963 Z-2.942
N482 X-64.257 Y-2.667 Z-2.944
N483 X-64.402 Y-1.341 Z-2.946
N484 X-64.373 Y-.007 Z-2.948
N485 X-64.17 Y1.312 Z-2.95
N486 X-63.797 Y2.593 Z-2.952
N487 X-58.447 Y17.292 Z-2.977
N488 X-57.819 Y18.66 Z-2.98
N489 X-56.861 Y20.086 Z-2.983
N490 X-55.682 Y21.339 Z-2.985
N491 X-54.311 Y22.386 Z-2.988
N492 X-52.716 Y23.226 Z-2.991
N493 X-50.96 Y23.749 Z-2.994
N494 X-49.188 Y23.891 Z-2.997
N495 X-47.556 Y23.716 Z-2.999
N496 X-46.259 Y23.354 Z-3.002
N497 X-1.665 Y7.123 Z-3.078
N498 X-.904 Y6.904 Z-3.079
N499 X-.303 Y6.819 Z-3.08
N500 X.303 Z-3.081
N501 X.904 Y6.904 Z-3.082
N502 X1.665 Y7.123 Z-3.083
N503 X46.072 Y23.285 Z-3.159
N504 X47.345 Y23.649 Z-3.161
N505 X48.656 Y23.83 Z-3.163
N506 X49.98 Y23.825 Z-3.165
N507 X51.29 Y23.634 Z-3.167
N508 X52.56 Y23.26 Z-3.169
N509 X52.873 Y23.144 Z-3.17
N510 X54.311 Y22.386 Z-3.173
N511 X55.682 Y21.339 Z-3.175
N512 X56.861 Y20.086 Z-3.178
N513 X57.819 Y18.66 Z-3.181
N514 X58.447 Y17.292 Z-3.183
N515 X63.797 Y2.593 Z-3.208
N516 X64.17 Y1.312 Z-3.211
N517 X64.373 Y-.007 Z-3.213
N518 X64.402 Y-1.341 Z-3.215
N519 X64.257 Y-2.667 Z-3.217
N520 X63.94 Y-3.963 Z-3.219
N521 X63.456 Y-5.207 Z-3.221
N522 X62.815 Y-6.376 Z-3.223
N523 X62.026 Y-7.452 Z-3.226
N524 X61.103 Y-8.416 Z-3.228
N525 X60.063 Y-9.251 Z-3.23
N526 X58.922 Y-9.944 Z-3.232
N527 X57.701 Y-10.481 Z-3.234
N528 X21.944 Y-23.495 Z-3.295
N529 X20.9 Y-23.775 Z-3.297
N530 X19.824 Y-23.869 Z-3.299
N531 X-19.824 Z-3.362
N532 X-20.9 Y-23.775 Z-3.364
N533 X-21.944 Y-23.495 Z-3.366
N534 X-57.701 Y-10.481 Z-3.427
N535 X-58.922 Y-9.944 Z-3.429
N536 X-60.063 Y-9.251 Z-3.431
N537 X-61.103 Y-8.416 Z-3.433
N538 X-62.026 Y-7.452 Z-3.435
N539 X-62.815 Y-6.376 Z-3.437
N540 X-63.456 Y-5.207 Z-3.439
N541 X-63.94 Y-3.963 Z-3.442
N542 X-64.257 Y-2.667 Z-3.444
N543 X-64.402 Y-1.341 Z-3.446
N544 X-64.373 Y-.007 Z-3.448
N545 X-64.17 Y1.312 Z-3.45
N546 X-63.797 Y2.593 Z-3.452
N547 X-58.447 Y17.292 Z-3.477
N548 X-57.819 Y18.66 Z-3.48
N549 X-56.861 Y20.086 Z-3.483
N550 X-55.682 Y21.339 Z-3.485
N551 X-54.311 Y22.386 Z-3.488
N552 X-52.716 Y23.226 Z-3.491
N553 X-50.96 Y23.749 Z-3.494
N554 X-49.188 Y23.891 Z-3.497
N555 X-47.556 Y23.716 Z-3.499
N556 X-46.259 Y23.354 Z-3.502
N557 X-1.665 Y7.123 Z-3.578
N558 X-.904 Y6.904 Z-3.579
N559 X-.303 Y6.819 Z-3.58
N560 X.303 Z-3.581
N561 X.904 Y6.904 Z-3.582
N562 X1.665 Y7.123 Z-3.583
N563 X46.072 Y23.285 Z-3.659
N564 X47.345 Y23.649 Z-3.661
N565 X48.656 Y23.83 Z-3.663
N566 X49.98 Y23.825 Z-3.665
N567 X51.29 Y23.634 Z-3.667
N568 X52.56 Y23.26 Z-3.669
N569 X52.873 Y23.144 Z-3.67
N570 X54.311 Y22.386 Z-3.673
N571 X55.682 Y21.339 Z-3.675
N572 X56.861 Y20.086 Z-3.678
N573 X57.819 Y18.66 Z-3.681
N574 X58.447 Y17.292 Z-3.683
N575 X63.797 Y2.593 Z-3.708
N576 X64.17 Y1.312 Z-3.711
N577 X64.373 Y-.007 Z-3.713
N578 X64.402 Y-1.341 Z-3.715
N579 X64.257 Y-2.667 Z-3.717
N580 X63.94 Y-3.963 Z-3.719
N581 X63.456 Y-5.207 Z-3.721
N582 X62.815 Y-6.376 Z-3.723
N583 X62.026 Y-7.452 Z-3.726
N584 X61.103 Y-8.416 Z-3.728
N585 X60.063 Y-9.251 Z-3.73
N586 X58.922 Y-9.944 Z-3.732
N587 X57.701 Y-10.481 Z-3.734
N588 X21.944 Y-23.495 Z-3.795
N589 X20.9 Y-23.775 Z-3.797
N590 X19.824 Y-23.869 Z-3.799
N591 X-19.824 Z-3.862
N592 X-20.9 Y-23.775 Z-3.864
N593 X-21.944 Y-23.495 Z-3.866
N594 X-57.701 Y-10.481 Z-3.927
N595 X-58.922 Y-9.944 Z-3.929
N596 X-60.063 Y-9.251 Z-3.931
N597 X-61.103 Y-8.416 Z-3.933
N598 X-62.026 Y-7.452 Z-3.935
N599 X-62.815 Y-6.376 Z-3.937
N600 X-63.456 Y-5.207 Z-3.939
N601 X-63.94 Y-3.963 Z-3.942
N602 X-64.257 Y-2.667 Z-3.944
N603 X-64.402 Y-1.341 Z-3.946
N604 X-64.373 Y-.007 Z-3.948
N605 X-64.17 Y1.312 Z-3.95
N606 X-63.797 Y2.593 Z-3.952
N607 X-58.447 Y17.292 Z-3.977
N608 X-57.819 Y18.66 Z-3.98
N609 X-56.861 Y20.086 Z-3.983
N610 X-55.682 Y21.339 Z-3.985
N611 X-54.311 Y22.386 Z-3.988
N612 X-52.716 Y23.226 Z-3.991
N613 X-50.96 Y23.749 Z-3.994
N614 X-49.188 Y23.891 Z-3.997
N615 X-47.556 Y23.716 Z-3.999
N616 X-46.259 Y23.354 Z-4.002
N617 X-1.665 Y7.123 Z-4.078
N618 X-.904 Y6.904 Z-4.079
N619 X-.303 Y6.819 Z-4.08
N620 X.303 Z-4.081
N621 X.904 Y6.904 Z-4.082
N622 X1.665 Y7.123 Z-4.083
N623 X46.072 Y23.285 Z-4.159
N624 X47.345 Y23.649 Z-4.161
N625 X48.656 Y23.83 Z-4.163
N626 X49.98 Y23.825 Z-4.165
N627 X51.29 Y23.634 Z-4.167
N628 X52.56 Y23.26 Z-4.169
N629 X52.873 Y23.144 Z-4.17
N630 X54.311 Y22.386 Z-4.173
N631 X55.682 Y21.339 Z-4.175
N632 X56.861 Y20.086 Z-4.178
N633 X57.819 Y18.66 Z-4.181
N634 X58.447 Y17.292 Z-4.183
N635 X63.797 Y2.593 Z-4.208
N636 X64.17 Y1.312 Z-4.211
N637 X64.373 Y-.007 Z-4.213
N638 X64.402 Y-1.341 Z-4.215
N639 X64.257 Y-2.667 Z-4.217
N640 X63.94 Y-3.963 Z-4.219
N641 X63.456 Y-5.207 Z-4.221
N642 X62.815 Y-6.376 Z-4.223
N643 X62.026 Y-7.452 Z-4.226
N644 X61.103 Y-8.416 Z-4.228
N645 X60.063 Y-9.251 Z-4.23
N646 X58.922 Y-9.944 Z-4.232
N647 X57.701 Y-10.481 Z-4.234
N648 X21.944 Y-23.495 Z-4.295
N649 X20.9 Y-23.775 Z-4.297
N650 X19.824 Y-23.869 Z-4.299
N651 X-19.824 Z-4.362
N652 X-20.9 Y-23.775 Z-4.364
N653 X-21.944 Y-23.495 Z-4.366
N654 X-57.701 Y-10.481 Z-4.427
N655 X-58.922 Y-9.944 Z-4.429
N656 X-60.063 Y-9.251 Z-4.431
N657 X-61.103 Y-8.416 Z-4.433
N658 X-62.026 Y-7.452 Z-4.435
N659 X-62.815 Y-6.376 Z-4.437
N660 X-63.456 Y-5.207 Z-4.439
N661 X-63.94 Y-3.963 Z-4.442
N662 X-64.257 Y-2.667 Z-4.444
N663 X-64.402 Y-1.341 Z-4.446
N664 X-64.373 Y-.007 Z-4.448
N665 X-64.17 Y1.312 Z-4.45
N666 X-63.797 Y2.593 Z-4.452
N667 X-58.447 Y17.292 Z-4.477
N668 X-57.819 Y18.66 Z-4.48
N669 X-56.861 Y20.086 Z-4.483
N670 X-55.682 Y21.339 Z-4.485
N671 X-54.311 Y22.386 Z-4.488
N672 X-52.716 Y23.226 Z-4.491
N673 X-50.96 Y23.749 Z-4.494
N674 X-49.188 Y23.891 Z-4.497
N675 X-47.556 Y23.716 Z-4.499
N676 X-46.259 Y23.354 Z-4.502
N677 X-1.665 Y7.123 Z-4.578
N678 X-.904 Y6.904 Z-4.579
N679 X-.303 Y6.819 Z-4.58
N680 X.303 Z-4.581
N681 X.904 Y6.904 Z-4.582
N682 X1.665 Y7.123 Z-4.583
N683 X46.072 Y23.285 Z-4.659
N684 X47.345 Y23.649 Z-4.661
N685 X48.656 Y23.83 Z-4.663
N686 X49.98 Y23.825 Z-4.665
N687 X51.29 Y23.634 Z-4.667
N688 X52.56 Y23.26 Z-4.669
N689 X52.873 Y23.144 Z-4.67
N690 X54.311 Y22.386 Z-4.673
N691 X55.682 Y21.339 Z-4.675
N692 X56.861 Y20.086 Z-4.678
N693 X57.819 Y18.66 Z-4.681
N694 X58.447 Y17.292 Z-4.683
N695 X63.797 Y2.593 Z-4.708
N696 X64.17 Y1.312 Z-4.711
N697 X64.373 Y-.007 Z-4.713
N698 X64.402 Y-1.341 Z-4.715
N699 X64.257 Y-2.667 Z-4.717
N700 X63.94 Y-3.963 Z-4.719
N701 X63.456 Y-5.207 Z-4.721
N702 X62.815 Y-6.376 Z-4.723
N703 X62.026 Y-7.452 Z-4.726
N704 X61.103 Y-8.416 Z-4.728
N705 X60.063 Y-9.251 Z-4.73
N706 X58.922 Y-9.944 Z-4.732
N707 X57.701 Y-10.481 Z-4.734
N708 X21.944 Y-23.495 Z-4.795
N709 X20.9 Y-23.775 Z-4.797
N710 X19.824 Y-23.869 Z-4.799
N711 X-19.824 Z-4.862
N712 X-20.9 Y-23.775 Z-4.864
N713 X-21.944 Y-23.495 Z-4.866
N714 X-57.701 Y-10.481 Z-4.927
N715 X-58.922 Y-9.944 Z-4.929
N716 X-60.063 Y-9.251 Z-4.931
N717 X-61.103 Y-8.416 Z-4.933
N718 X-62.026 Y-7.452 Z-4.935
N719 X-62.815 Y-6.376 Z-4.937
N720 X-63.456 Y-5.207 Z-4.939
N721 X-63.94 Y-3.963 Z-4.942
N722 X-64.257 Y-2.667 Z-4.944
N723 X-64.402 Y-1.341 Z-4.946
N724 X-64.373 Y-.007 Z-4.948
N725 X-64.17 Y1.312 Z-4.95
N726 X-63.797 Y2.593 Z-4.952
N727 X-58.447 Y17.292 Z-4.977
N728 X-57.819 Y18.66 Z-4.98
N729 X-56.861 Y20.086 Z-4.983
N730 X-55.682 Y21.339 Z-4.985
N731 X-54.311 Y22.386 Z-4.988
N732 X-52.716 Y23.226 Z-4.991
N733 X-50.96 Y23.749 Z-4.994
N734 X-49.188 Y23.891 Z-4.997
N735 X-47.556 Y23.716 Z-4.999
N736 X-46.259 Y23.354 Z-5.002
N737 X-1.665 Y7.123 Z-5.078
N738 X-.904 Y6.904 Z-5.079
N739 X-.303 Y6.819 Z-5.08
N740 X.303 Z-5.081
N741 X.904 Y6.904 Z-5.082
N742 X1.665 Y7.123 Z-5.083
N743 X46.072 Y23.285 Z-5.159
N744 X47.345 Y23.649 Z-5.161
N745 X48.656 Y23.83 Z-5.163
N746 X49.98 Y23.825 Z-5.165
N747 X51.29 Y23.634 Z-5.167
N748 X52.56 Y23.26 Z-5.169
N749 X52.873 Y23.144 Z-5.17
N750 X54.311 Y22.386 Z-5.173
N751 X55.682 Y21.339 Z-5.175
N752 X56.861 Y20.086 Z-5.178
N753 X57.819 Y18.66 Z-5.181
N754 X58.447 Y17.292 Z-5.183
N755 X63.797 Y2.593 Z-5.208
N756 X64.17 Y1.312 Z-5.211
N757 X64.373 Y-.007 Z-5.213
N758 X64.402 Y-1.341 Z-5.215
N759 X64.257 Y-2.667 Z-5.217
N760 X63.94 Y-3.963 Z-5.219
N761 X63.456 Y-5.207 Z-5.221
N762 X62.815 Y-6.376 Z-5.223
N763 X62.026 Y-7.452 Z-5.226
N764 X61.103 Y-8.416 Z-5.228
N765 X60.063 Y-9.251 Z-5.23
N766 X58.922 Y-9.944 Z-5.232
N767 X57.701 Y-10.481 Z-5.234
N768 X21.944 Y-23.495 Z-5.295
N769 X20.9 Y-23.775 Z-5.297
N770 X19.824 Y-23.869 Z-5.299
N771 X-19.824 Z-5.362
N772 X-20.9 Y-23.775 Z-5.364
N773 X-21.944 Y-23.495 Z-5.366
N774 X-57.701 Y-10.481 Z-5.427
N775 X-58.922 Y-9.944 Z-5.429
N776 X-60.063 Y-9.251 Z-5.431
N777 X-61.103 Y-8.416 Z-5.433
N778 X-62.026 Y-7.452 Z-5.435
N779 X-62.815 Y-6.376 Z-5.437
N780 X-63.456 Y-5.207 Z-5.439
N781 X-63.94 Y-3.963 Z-5.442
N782 X-64.257 Y-2.667 Z-5.444
N783 X-64.402 Y-1.341 Z-5.446
N784 X-64.373 Y-.007 Z-5.448
N785 X-64.17 Y1.312 Z-5.45
N786 X-63.797 Y2.593 Z-5.452
N787 X-58.447 Y17.292 Z-5.477
N788 X-57.819 Y18.66 Z-5.48
N789 X-56.861 Y20.086 Z-5.483
N790 X-55.682 Y21.339 Z-5.485
N791 X-54.311 Y22.386 Z-5.488
N792 X-52.716 Y23.226 Z-5.491
N793 X-50.96 Y23.749 Z-5.494
N794 X-49.188 Y23.891 Z-5.497
N795 X-47.556 Y23.716 Z-5.499
N796 X-46.259 Y23.354 Z-5.502
N797 X-1.665 Y7.123 Z-5.578
N798 X-.904 Y6.904 Z-5.579
N799 X-.303 Y6.819 Z-5.58
N800 X.303 Z-5.581
N801 X.904 Y6.904 Z-5.582
N802 X1.665 Y7.123 Z-5.583
N803 X46.072 Y23.285 Z-5.659
N804 X47.345 Y23.649 Z-5.661
N805 X48.656 Y23.83 Z-5.663
N806 X49.98 Y23.825 Z-5.665
N807 X51.29 Y23.634 Z-5.667
N808 X52.56 Y23.26 Z-5.669
N809 X52.873 Y23.144 Z-5.67
N810 X54.311 Y22.386 Z-5.673
N811 X55.682 Y21.339 Z-5.675
N812 X56.861 Y20.086 Z-5.678
N813 X57.819 Y18.66 Z-5.681
N814 X58.447 Y17.292 Z-5.683
N815 X63.797 Y2.593 Z-5.708
N816 X64.17 Y1.312 Z-5.711
N817 X64.373 Y-.007 Z-5.713
N818 X64.402 Y-1.341 Z-5.715
N819 X64.257 Y-2.667 Z-5.717
N820 X63.94 Y-3.963 Z-5.719
N821 X63.456 Y-5.207 Z-5.721
N822 X62.815 Y-6.376 Z-5.723
N823 X62.026 Y-7.452 Z-5.726
N824 X61.103 Y-8.416 Z-5.728
N825 X60.063 Y-9.251 Z-5.73
N826 X58.922 Y-9.944 Z-5.732
N827 X57.701 Y-10.481 Z-5.734
N828 X21.944 Y-23.495 Z-5.795
N829 X20.9 Y-23.775 Z-5.797
N830 X19.824 Y-23.869 Z-5.799
N831 X-19.824 Z-5.862
N832 X-20.9 Y-23.775 Z-5.864
N833 X-21.944 Y-23.495 Z-5.866
N834 X-57.701 Y-10.481 Z-5.927
N835 X-58.922 Y-9.944 Z-5.929
N836 X-60.063 Y-9.251 Z-5.931
N837 X-61.103 Y-8.416 Z-5.933
N838 X-62.026 Y-7.452 Z-5.935
N839 X-62.815 Y-6.376 Z-5.937
N840 X-63.456 Y-5.207 Z-5.939
N841 X-63.94 Y-3.963 Z-5.942
N842 X-64.257 Y-2.667 Z-5.944
N843 X-64.402 Y-1.341 Z-5.946
N844 X-64.373 Y-.007 Z-5.948
N845 X-64.17 Y1.312 Z-5.95
N846 X-63.797 Y2.593 Z-5.952
N847 X-58.447 Y17.292 Z-5.977
N848 X-57.819 Y18.66 Z-5.98
N849 X-56.861 Y20.086 Z-5.983
N850 X-55.682 Y21.339 Z-5.985
N851 X-54.311 Y22.386 Z-5.988
N852 X-52.716 Y23.226 Z-5.991
N853 X-50.96 Y23.749 Z-5.994
N854 X-49.188 Y23.891 Z-5.997
N855 X-47.556 Y23.716 Z-5.999
N856 X-46.259 Y23.354 Z-6.002
N857 X-1.665 Y7.123 Z-6.078
N858 X-.904 Y6.904 Z-6.079
N859 X-.303 Y6.819 Z-6.08
N860 X.303 Z-6.081
N861 X.904 Y6.904 Z-6.082
N862 X1.665 Y7.123 Z-6.083
N863 X46.072 Y23.285 Z-6.159
N864 X47.345 Y23.649 Z-6.161
N865 X48.656 Y23.83 Z-6.163
N866 X49.98 Y23.825 Z-6.165
N867 X51.29 Y23.634 Z-6.167
N868 X52.56 Y23.26 Z-6.169
N869 X52.873 Y23.144 Z-6.17
N870 X54.311 Y22.386 Z-6.173
N871 X55.682 Y21.339 Z-6.175
N872 X56.861 Y20.086 Z-6.178
N873 X57.819 Y18.66 Z-6.181
N874 X58.447 Y17.292 Z-6.183
N875 X63.797 Y2.593 Z-6.208
N876 X64.17 Y1.312 Z-6.211
N877 X64.373 Y-.007 Z-6.213
N878 X64.402 Y-1.341 Z-6.215
N879 X64.257 Y-2.667 Z-6.217
N880 X63.94 Y-3.963 Z-6.219
N881 X63.456 Y-5.207 Z-6.221
N882 X62.815 Y-6.376 Z-6.223
N883 X62.026 Y-7.452 Z-6.226
N884 X61.103 Y-8.416 Z-6.228
N885 X60.063 Y-9.251 Z-6.23
N886 X58.922 Y-9.944 Z-6.232
N887 X57.701 Y-10.481 Z-6.234
N888 X21.944 Y-23.495 Z-6.295
N889 X20.9 Y-23.775 Z-6.297
N890 X19.824 Y-23.869 Z-6.299
N891 X-19.824 Z-6.362
N892 X-20.9 Y-23.775 Z-6.364
N893 X-21.944 Y-23.495 Z-6.366
N894 X-57.701 Y-10.481 Z-6.427
N895 X-58.922 Y-9.944 Z-6.429
N896 X-60.063 Y-9.251 Z-6.431
N897 X-61.103 Y-8.416 Z-6.433
N898 X-62.026 Y-7.452 Z-6.435
N899 X-62.815 Y-6.376 Z-6.437
N900 X-63.456 Y-5.207 Z-6.439
N901 X-63.94 Y-3.963 Z-6.442
N902 X-64.257 Y-2.667 Z-6.444
N903 X-64.402 Y-1.341 Z-6.446
N904 X-64.373 Y-.007 Z-6.448
N905 X-64.17 Y1.312 Z-6.45
N906 X-63.797 Y2.593 Z-6.452
N907 X-58.447 Y17.292 Z-6.477
N908 X-57.819 Y18.66 Z-6.48
N909 X-56.861 Y20.086 Z-6.483
N910 X-55.682 Y21.339 Z-6.485
N911 X-54.311 Y22.386 Z-6.488
N912 X-52.716 Y23.226 Z-6.491
N913 X-50.96 Y23.749 Z-6.494
N914 X-49.188 Y23.891 Z-6.497
N915 X-47.556 Y23.716 Z-6.499
N916 X-46.259 Y23.354 Z-6.502
N917 X-1.665 Y7.123 Z-6.578
N918 X-.904 Y6.904 Z-6.579
N919 X-.303 Y6.819 Z-6.58
N920 X.303 Z-6.581
N921 X.904 Y6.904 Z-6.582
N922 X1.665 Y7.123 Z-6.583
N923 X46.072 Y23.285 Z-6.659
N924 X47.345 Y23.649 Z-6.661
N925 X48.656 Y23.83 Z-6.663
N926 X49.98 Y23.825 Z-6.665
N927 X51.29 Y23.634 Z-6.667
N928 X52.56 Y23.26 Z-6.669
N929 X52.873 Y23.144 Z-6.67
N930 X54.311 Y22.386 Z-6.673
N931 X55.682 Y21.339 Z-6.675
N932 X56.861 Y20.086 Z-6.678
N933 X57.819 Y18.66 Z-6.681
N934 X58.447 Y17.292 Z-6.683
N935 X63.797 Y2.593 Z-6.708
N936 X64.17 Y1.312 Z-6.711
N937 X64.373 Y-.007 Z-6.713
N938 X64.402 Y-1.341 Z-6.715
N939 X64.257 Y-2.667 Z-6.717
N940 X63.94 Y-3.963 Z-6.719
N941 X63.456 Y-5.207 Z-6.721
N942 X62.815 Y-6.376 Z-6.723
N943 X62.026 Y-7.452 Z-6.726
N944 X61.103 Y-8.416 Z-6.728
N945 X60.063 Y-9.251 Z-6.73
N946 X58.922 Y-9.944 Z-6.732
N947 X57.701 Y-10.481 Z-6.734
N948 X21.944 Y-23.495 Z-6.795
N949 X20.9 Y-23.775 Z-6.797
N950 X19.824 Y-23.869 Z-6.799
N951 X-19.824 Z-6.862
N952 X-20.9 Y-23.775 Z-6.864
N953 X-21.944 Y-23.495 Z-6.866
N954 X-57.701 Y-10.481 Z-6.927
N955 X-58.922 Y-9.944 Z-6.929
N956 X-60.063 Y-9.251 Z-6.931
N957 X-61.103 Y-8.416 Z-6.933
N958 X-62.026 Y-7.452 Z-6.935
N959 X-62.815 Y-6.376 Z-6.937
N960 X-63.456 Y-5.207 Z-6.939
N961 X-63.94 Y-3.963 Z-6.942
N962 X-64.257 Y-2.667 Z-6.944
N963 X-64.402 Y-1.341 Z-6.946
N964 X-64.373 Y-.007 Z-6.948
N965 X-64.17 Y1.312 Z-6.95
N966 X-63.797 Y2.593 Z-6.952
N967 X-58.447 Y17.292 Z-6.977
N968 X-57.819 Y18.66 Z-6.98
N969 X-56.861 Y20.086 Z-6.983
N970 X-55.682 Y21.339 Z-6.985
N971 X-54.311 Y22.386 Z-6.988
N972 X-52.716 Y23.226 Z-6.991
N973 X-50.96 Y23.749 Z-6.994
N974 X-49.188 Y23.891 Z-6.997
N975 X-47.556 Y23.716 Z-6.999
N976 X-46.259 Y23.354 Z-7.002
N977 X-1.665 Y7.123 Z-7.078
N978 X-.904 Y6.904 Z-7.079
N979 X-.303 Y6.819 Z-7.08
N980 X.303 Z-7.081
N981 X.904 Y6.904 Z-7.082
N982 X1.665 Y7.123 Z-7.083
N983 X46.072 Y23.285 Z-7.159
N984 X47.345 Y23.649 Z-7.161
N985 X48.656 Y23.83 Z-7.163
N986 X49.98 Y23.825 Z-7.165
N987 X51.29 Y23.634 Z-7.167
N988 X52.56 Y23.26 Z-7.169
N989 X52.873 Y23.144 Z-7.17
N990 X54.311 Y22.386 Z-7.173
N991 X55.682 Y21.339 Z-7.175
N992 X56.861 Y20.086 Z-7.178
N993 X57.819 Y18.66 Z-7.181
N994 X58.447 Y17.292 Z-7.183
N995 X63.797 Y2.593 Z-7.208
N996 X64.17 Y1.312 Z-7.211
N997 X64.373 Y-.007 Z-7.213
N998 X64.402 Y-1.341 Z-7.215
N999 X64.257 Y-2.667 Z-7.217
N1000 X63.94 Y-3.963 Z-7.219
N1001 X63.456 Y-5.207 Z-7.221
N1002 X62.815 Y-6.376 Z-7.223
N1003 X62.026 Y-7.452 Z-7.226
N1004 X61.103 Y-8.416 Z-7.228
N1005 X60.063 Y-9.251 Z-7.23
N1006 X58.922 Y-9.944 Z-7.232
N1007 X57.701 Y-10.481 Z-7.234
N1008 X21.944 Y-23.495 Z-7.295
N1009 X20.9 Y-23.775 Z-7.297
N1010 X19.824 Y-23.869 Z-7.299
N1011 X-19.824 Z-7.362
N1012 X-20.9 Y-23.775 Z-7.364
N1013 X-21.944 Y-23.495 Z-7.366
N1014 X-57.701 Y-10.481 Z-7.427
N1015 X-58.922 Y-9.944 Z-7.429
N1016 X-60.063 Y-9.251 Z-7.431
N1017 X-61.103 Y-8.416 Z-7.433
N1018 X-62.026 Y-7.452 Z-7.435
N1019 X-62.815 Y-6.376 Z-7.437
N1020 X-63.456 Y-5.207 Z-7.439
N1021 X-63.94 Y-3.963 Z-7.442
N1022 X-64.257 Y-2.667 Z-7.444
N1023 X-64.402 Y-1.341 Z-7.446
N1024 X-64.373 Y-.007 Z-7.448
N1025 X-64.17 Y1.312 Z-7.45
N1026 X-63.797 Y2.593 Z-7.452
N1027 X-58.447 Y17.292 Z-7.477
N1028 X-57.819 Y18.66 Z-7.48
N1029 X-56.861 Y20.086 Z-7.483
N1030 X-55.682 Y21.339 Z-7.485
N1031 X-54.311 Y22.386 Z-7.488
N1032 X-52.716 Y23.226 Z-7.491
N1033 X-50.96 Y23.749 Z-7.494
N1034 X-49.188 Y23.891 Z-7.497
N1035 X-47.556 Y23.716 Z-7.499
N1036 X-46.259 Y23.354 Z-7.502
N1037 X-1.665 Y7.123 Z-7.578
N1038 X-.904 Y6.904 Z-7.579
N1039 X-.303 Y6.819 Z-7.58
N1040 X.303 Z-7.581
N1041 X.904 Y6.904 Z-7.582
N1042 X1.665 Y7.123 Z-7.583
N1043 X46.072 Y23.285 Z-7.659
N1044 X47.345 Y23.649 Z-7.661
N1045 X48.656 Y23.83 Z-7.663
N1046 X49.98 Y23.825 Z-7.665
N1047 X51.29 Y23.634 Z-7.667
N1048 X52.56 Y23.26 Z-7.669
N1049 X52.873 Y23.144 Z-7.67
N1050 X54.311 Y22.386 Z-7.673
N1051 X55.682 Y21.339 Z-7.675
N1052 X56.861 Y20.086 Z-7.678
N1053 X57.819 Y18.66 Z-7.681
N1054 X58.447 Y17.292 Z-7.683
N1055 X63.797 Y2.593 Z-7.708
N1056 X64.17 Y1.312 Z-7.711
N1057 X64.373 Y-.007 Z-7.713
N1058 X64.402 Y-1.341 Z-7.715
N1059 X64.257 Y-2.667 Z-7.717
N1060 X63.94 Y-3.963 Z-7.719
N1061 X63.456 Y-5.207 Z-7.721
N1062 X62.815 Y-6.376 Z-7.723
N1063 X62.026 Y-7.452 Z-7.726
N1064 X61.103 Y-8.416 Z-7.728
N1065 X60.063 Y-9.251 Z-7.73
N1066 X58.922 Y-9.944 Z-7.732
N1067 X57.701 Y-10.481 Z-7.734
N1068 X21.944 Y-23.495 Z-7.795
N1069 X20.9 Y-23.775 Z-7.797
N1070 X19.824 Y-23.869 Z-7.799
N1071 X-19.824 Z-7.862
N1072 X-20.9 Y-23.775 Z-7.864
N1073 X-21.944 Y-23.495 Z-7.866
N1074 X-57.701 Y-10.481 Z-7.927
N1075 X-58.922 Y-9.944 Z-7.929
N1076 X-60.063 Y-9.251 Z-7.931
N1077 X-61.103 Y-8.416 Z-7.933
N1078 X-62.026 Y-7.452 Z-7.935
N1079 X-62.815 Y-6.376 Z-7.937
N1080 X-63.456 Y-5.207 Z-7.939
N1081 X-63.94 Y-3.963 Z-7.942
N1082 X-64.257 Y-2.667 Z-7.944
N1083 X-64.402 Y-1.341 Z-7.946
N1084 X-64.373 Y-.007 Z-7.948
N1085 X-64.17 Y1.312 Z-7.95
N1086 X-63.797 Y2.593 Z-7.952
N1087 X-58.447 Y17.292 Z-7.977
N1088 X-57.819 Y18.66 Z-7.98
N1089 X-56.861 Y20.086 Z-7.983
N1090 X-55.682 Y21.339 Z-7.985
N1091 X-54.311 Y22.386 Z-7.988
N1092 X-52.716 Y23.226 Z-7.991
N1093 X-50.96 Y23.749 Z-7.994
N1094 X-49.188 Y23.891 Z-7.997
N1095 X-47.556 Y23.716 Z-7.999
N1096 X-46.259 Y23.354 Z-8.002
N1097 X-1.665 Y7.123 Z-8.078
N1098 X-.904 Y6.904 Z-8.079
N1099 X-.303 Y6.819 Z-8.08
N1100 X.303 Z-8.081
N1101 X.904 Y6.904 Z-8.082
N1102 X1.665 Y7.123 Z-8.083
N1103 X46.072 Y23.285 Z-8.159
N1104 X47.345 Y23.649 Z-8.161
N1105 X48.656 Y23.83 Z-8.163
N1106 X49.98 Y23.825 Z-8.165
N1107 X51.29 Y23.634 Z-8.167
N1108 X52.56 Y23.26 Z-8.169
N1109 X52.873 Y23.144 Z-8.17
N1110 X54.311 Y22.386 Z-8.173
N1111 X55.682 Y21.339 Z-8.175
N1112 X56.861 Y20.086 Z-8.178
N1113 X57.819 Y18.66 Z-8.181
N1114 X58.447 Y17.292 Z-8.183
N1115 X63.797 Y2.593 Z-8.208
N1116 X64.17 Y1.312 Z-8.211
N1117 X64.373 Y-.007 Z-8.213
N1118 X64.402 Y-1.341 Z-8.215
N1119 X64.257 Y-2.667 Z-8.217
N1120 X63.94 Y-3.963 Z-8.219
N1121 X63.456 Y-5.207 Z-8.221
N1122 X62.815 Y-6.376 Z-8.223
N1123 X62.026 Y-7.452 Z-8.226
N1124 X61.103 Y-8.416 Z-8.228
N1125 X60.063 Y-9.251 Z-8.23
N1126 X58.922 Y-9.944 Z-8.232
N1127 X57.701 Y-10.481 Z-8.234
N1128 X21.944 Y-23.495 Z-8.295
N1129 X20.9 Y-23.775 Z-8.297
N1130 X19.824 Y-23.869 Z-8.299
N1131 X-19.824 Z-8.362
N1132 X-20.9 Y-23.775 Z-8.364
N1133 X-21.944 Y-23.495 Z-8.366
N1134 X-57.701 Y-10.481 Z-8.427
N1135 X-58.922 Y-9.944 Z-8.429
N1136 X-60.063 Y-9.251 Z-8.431
N1137 X-61.103 Y-8.416 Z-8.433
N1138 X-62.026 Y-7.452 Z-8.435
N1139 X-62.815 Y-6.376 Z-8.437
N1140 X-63.456 Y-5.207 Z-8.439
N1141 X-63.94 Y-3.963 Z-8.442
N1142 X-64.257 Y-2.667 Z-8.444
N1143 X-64.402 Y-1.341 Z-8.446
N1144 X-64.373 Y-.007 Z-8.448
N1145 X-64.17 Y1.312 Z-8.45
N1146 X-63.797 Y2.593 Z-8.452
N1147 X-58.447 Y17.292 Z-8.477
N1148 X-57.819 Y18.66 Z-8.48
N1149 X-56.861 Y20.086 Z-8.483
N1150 X-55.682 Y21.339 Z-8.485
N1151 X-54.311 Y22.386 Z-8.488
N1152 X-52.716 Y23.226 Z-8.491
N1153 X-50.96 Y23.749 Z-8.494
N1154 X-49.188 Y23.891 Z-8.497
N1155 X-47.556 Y23.716 Z-8.499
N1156 X-46.259 Y23.354 Z-8.502
N1157 X-1.665 Y7.123 Z-8.578
N1158 X-.904 Y6.904 Z-8.579
N1159 X-.303 Y6.819 Z-8.58
N1160 X.303 Z-8.581
N1161 X.904 Y6.904 Z-8.582
N1162 X1.665 Y7.123 Z-8.583
N1163 X46.072 Y23.285 Z-8.659
N1164 X47.345 Y23.649 Z-8.661
N1165 X48.656 Y23.83 Z-8.663
N1166 X49.98 Y23.825 Z-8.665
N1167 X51.29 Y23.634 Z-8.667
N1168 X52.56 Y23.26 Z-8.669
N1169 X52.873 Y23.144 Z-8.67
N1170 X54.311 Y22.386 Z-8.673
N1171 X55.682 Y21.339 Z-8.675
N1172 X56.861 Y20.086 Z-8.678
N1173 X57.819 Y18.66 Z-8.681
N1174 X58.447 Y17.292 Z-8.683
N1175 X63.797 Y2.593 Z-8.708
N1176 X64.17 Y1.312 Z-8.711
N1177 X64.373 Y-.007 Z-8.713
N1178 X64.402 Y-1.341 Z-8.715
N1179 X64.257 Y-2.667 Z-8.717
N1180 X63.94 Y-3.963 Z-8.719
N1181 X63.456 Y-5.207 Z-8.721
N1182 X62.815 Y-6.376 Z-8.723
N1183 X62.026 Y-7.452 Z-8.726
N1184 X61.103 Y-8.416 Z-8.728
N1185 X60.063 Y-9.251 Z-8.73
N1186 X58.922 Y-9.944 Z-8.732
N1187 X57.701 Y-10.481 Z-8.734
N1188 X21.944 Y-23.495 Z-8.795
N1189 X20.9 Y-23.775 Z-8.797
N1190 X19.824 Y-23.869 Z-8.799
N1191 X-19.824 Z-8.862
N1192 X-20.9 Y-23.775 Z-8.864
N1193 X-21.944 Y-23.495 Z-8.866
N1194 X-57.701 Y-10.481 Z-8.927
N1195 X-58.922 Y-9.944 Z-8.929
N1196 X-60.063 Y-9.251 Z-8.931
N1197 X-61.103 Y-8.416 Z-8.933
N1198 X-62.026 Y-7.452 Z-8.935
N1199 X-62.815 Y-6.376 Z-8.937
N1200 X-63.456 Y-5.207 Z-8.939
N1201 X-63.94 Y-3.963 Z-8.942
N1202 X-64.257 Y-2.667 Z-8.944
N1203 X-64.402 Y-1.341 Z-8.946
N1204 X-64.373 Y-.007 Z-8.948
N1205 X-64.17 Y1.312 Z-8.95
N1206 X-63.797 Y2.593 Z-8.952
N1207 X-58.447 Y17.292 Z-8.977
N1208 X-57.819 Y18.66 Z-8.98
N1209 X-56.861 Y20.086 Z-8.983
N1210 X-55.682 Y21.339 Z-8.985
N1211 X-54.311 Y22.386 Z-8.988
N1212 X-52.716 Y23.226 Z-8.991
N1213 X-50.96 Y23.749 Z-8.994
N1214 X-49.188 Y23.891 Z-8.997
N1215 X-47.556 Y23.716 Z-8.999
N1216 X-46.259 Y23.354 Z-9.002
N1217 X-1.665 Y7.123 Z-9.078
N1218 X-.904 Y6.904 Z-9.079
N1219 X-.303 Y6.819 Z-9.08
N1220 X.303 Z-9.081
N1221 X.904 Y6.904 Z-9.082
N1222 X1.665 Y7.123 Z-9.083
N1223 X46.072 Y23.285 Z-9.159
N1224 X47.345 Y23.649 Z-9.161
N1225 X48.656 Y23.83 Z-9.163
N1226 X49.98 Y23.825 Z-9.165
N1227 X51.29 Y23.634 Z-9.167
N1228 X52.56 Y23.26 Z-9.169
N1229 X52.873 Y23.144 Z-9.17
N1230 X54.311 Y22.386 Z-9.173
N1231 X55.682 Y21.339 Z-9.175
N1232 X56.861 Y20.086 Z-9.178
N1233 X57.819 Y18.66 Z-9.181
N1234 X58.447 Y17.292 Z-9.183
N1235 X63.797 Y2.593 Z-9.208
N1236 X64.17 Y1.312 Z-9.211
N1237 X64.373 Y-.007 Z-9.213
N1238 X64.402 Y-1.341 Z-9.215
N1239 X64.257 Y-2.667 Z-9.217
N1240 X63.94 Y-3.963 Z-9.219
N1241 X63.456 Y-5.207 Z-9.221
N1242 X62.815 Y-6.376 Z-9.223
N1243 X62.026 Y-7.452 Z-9.226
N1244 X61.103 Y-8.416 Z-9.228
N1245 X60.063 Y-9.251 Z-9.23
N1246 X58.922 Y-9.944 Z-9.232
N1247 X57.701 Y-10.481 Z-9.234
N1248 X21.944 Y-23.495 Z-9.295
N1249 X20.9 Y-23.775 Z-9.297
N1250 X19.824 Y-23.869 Z-9.299
N1251 X-19.824 Z-9.362
N1252 X-20.9 Y-23.775 Z-9.364
N1253 X-21.944 Y-23.495 Z-9.366
N1254 X-57.701 Y-10.481 Z-9.427
N1255 X-58.922 Y-9.944 Z-9.429
N1256 X-60.063 Y-9.251 Z-9.431
N1257 X-61.103 Y-8.416 Z-9.433
N1258 X-62.026 Y-7.452 Z-9.435
N1259 X-62.815 Y-6.376 Z-9.437
N1260 X-63.456 Y-5.207 Z-9.439
N1261 X-63.94 Y-3.963 Z-9.442
N1262 X-64.257 Y-2.667 Z-9.444
N1263 X-64.402 Y-1.341 Z-9.446
N1264 X-64.373 Y-.007 Z-9.448
N1265 X-64.17 Y1.312 Z-9.45
N1266 X-63.797 Y2.593 Z-9.452
N1267 X-58.447 Y17.292 Z-9.477
N1268 X-57.819 Y18.66 Z-9.48
N1269 X-56.861 Y20.086 Z-9.483
N1270 X-55.682 Y21.339 Z-9.485
N1271 X-54.311 Y22.386 Z-9.488
N1272 X-52.716 Y23.226 Z-9.491
N1273 X-50.96 Y23.749 Z-9.494
N1274 X-49.188 Y23.891 Z-9.497
N1275 X-47.556 Y23.716 Z-9.499
N1276 X-46.259 Y23.354 Z-9.502
N1277 X-1.665 Y7.123 Z-9.578
N1278 X-.904 Y6.904 Z-9.579
N1279 X-.303 Y6.819 Z-9.58
N1280 X.303 Z-9.581
N1281 X.904 Y6.904 Z-9.582
N1282 X1.665 Y7.123 Z-9.583
N1283 X46.072 Y23.285 Z-9.659
N1284 X47.345 Y23.649 Z-9.661
N1285 X48.656 Y23.83 Z-9.663
N1286 X49.98 Y23.825 Z-9.665
N1287 X51.29 Y23.634 Z-9.667
N1288 X52.56 Y23.26 Z-9.669
N1289 X52.873 Y23.144 Z-9.67
N1290 X54.311 Y22.386 Z-9.673
N1291 X55.682 Y21.339 Z-9.675
N1292 X56.861 Y20.086 Z-9.678
N1293 X57.819 Y18.66 Z-9.681
N1294 X58.447 Y17.292 Z-9.683
N1295 X63.797 Y2.593 Z-9.708
N1296 X64.17 Y1.312 Z-9.711
N1297 X64.373 Y-.007 Z-9.713
N1298 X64.402 Y-1.341 Z-9.715
N1299 X64.257 Y-2.667 Z-9.717
N1300 X63.94 Y-3.963 Z-9.719
N1301 X63.456 Y-5.207 Z-9.721
N1302 X62.815 Y-6.376 Z-9.723
N1303 X62.026 Y-7.452 Z-9.726
N1304 X61.103 Y-8.416 Z-9.728
N1305 X60.063 Y-9.251 Z-9.73
N1306 X58.922 Y-9.944 Z-9.732
N1307 X57.701 Y-10.481 Z-9.734
N1308 X21.944 Y-23.495 Z-9.795
N1309 X20.9 Y-23.775 Z-9.797
N1310 X19.824 Y-23.869 Z-9.799
N1311 X-19.824 Z-9.862
N1312 X-20.9 Y-23.775 Z-9.864
N1313 X-21.944 Y-23.495 Z-9.866
N1314 X-57.701 Y-10.481 Z-9.927
N1315 X-58.922 Y-9.944 Z-9.929
N1316 X-60.063 Y-9.251 Z-9.931
N1317 X-61.103 Y-8.416 Z-9.933
N1318 X-62.026 Y-7.452 Z-9.935
N1319 X-62.815 Y-6.376 Z-9.937
N1320 X-63.456 Y-5.207 Z-9.939
N1321 X-63.94 Y-3.963 Z-9.942
N1322 X-64.257 Y-2.667 Z-9.944
N1323 X-64.402 Y-1.341 Z-9.946
N1324 X-64.373 Y-.007 Z-9.948
N1325 X-64.17 Y1.312 Z-9.95
N1326 X-63.797 Y2.593 Z-9.952
N1327 X-58.447 Y17.292 Z-9.977
N1328 X-57.819 Y18.66 Z-9.98
N1329 X-56.861 Y20.086 Z-9.983
N1330 X-55.682 Y21.339 Z-9.985
N1331 X-54.311 Y22.386 Z-9.988
N1332 X-52.716 Y23.226 Z-9.991
N1333 X-50.96 Y23.749 Z-9.994
N1334 X-49.188 Y23.891 Z-9.997
N1335 X-47.556 Y23.716 Z-9.999
N1336 X-46.259 Y23.354 Z-10.002
N1337 X-1.665 Y7.123 Z-10.078
N1338 X-.904 Y6.904 Z-10.079
N1339 X-.303 Y6.819 Z-10.08
N1340 X.303 Z-10.081
N1341 X.904 Y6.904 Z-10.082
N1342 X1.665 Y7.123 Z-10.083
N1343 X46.072 Y23.285 Z-10.159
N1344 X47.345 Y23.649 Z-10.161
N1345 X48.656 Y23.83 Z-10.163
N1346 X49.98 Y23.825 Z-10.165
N1347 X51.29 Y23.634 Z-10.167
N1348 X52.56 Y23.26 Z-10.169
N1349 X52.873 Y23.144 Z-10.17
N1350 X54.311 Y22.386 Z-10.173
N1351 X55.682 Y21.339 Z-10.175
N1352 X56.861 Y20.086 Z-10.178
N1353 X57.819 Y18.66 Z-10.181
N1354 X58.447 Y17.292 Z-10.183
N1355 X63.797 Y2.593 Z-10.208
N1356 X64.17 Y1.312 Z-10.211
N1357 X64.373 Y-.007 Z-10.213
N1358 X64.402 Y-1.341 Z-10.215
N1359 X64.257 Y-2.667 Z-10.217
N1360 X63.94 Y-3.963 Z-10.219
N1361 X63.456 Y-5.207 Z-10.221
N1362 X62.815 Y-6.376 Z-10.223
N1363 X62.026 Y-7.452 Z-10.226
N1364 X61.103 Y-8.416 Z-10.228
N1365 X60.063 Y-9.251 Z-10.23
N1366 X58.922 Y-9.944 Z-10.232
N1367 X57.701 Y-10.481 Z-10.234
N1368 X21.944 Y-23.495 Z-10.295
N1369 X20.9 Y-23.775 Z-10.297
N1370 X19.824 Y-23.869 Z-10.299
N1371 X-19.824 Z-10.362
N1372 X-20.9 Y-23.775 Z-10.364
N1373 X-21.944 Y-23.495 Z-10.366
N1374 X-57.701 Y-10.481 Z-10.427
N1375 X-58.922 Y-9.944 Z-10.429
N1376 X-60.063 Y-9.251 Z-10.431
N1377 X-61.103 Y-8.416 Z-10.433
N1378 X-62.026 Y-7.452 Z-10.435
N1379 X-62.815 Y-6.376 Z-10.437
N1380 X-63.456 Y-5.207 Z-10.439
N1381 X-63.94 Y-3.963 Z-10.442
N1382 X-64.257 Y-2.667 Z-10.444
N1383 X-64.402 Y-1.341 Z-10.446
N1384 X-64.373 Y-.007 Z-10.448
N1385 X-64.17 Y1.312 Z-10.45
N1386 X-63.797 Y2.593 Z-10.452
N1387 X-58.447 Y17.292 Z-10.477
N1388 X-57.819 Y18.66 Z-10.48
N1389 X-56.861 Y20.086 Z-10.483
N1390 X-55.682 Y21.339 Z-10.485
N1391 X-54.311 Y22.386 Z-10.488
N1392 X-52.716 Y23.226 Z-10.491
N1393 X-50.96 Y23.749 Z-10.494
N1394 X-49.188 Y23.891 Z-10.497
N1395 X-47.556 Y23.716 Z-10.499
N1396 X-46.259 Y23.354 Z-10.502
N1397 X-1.665 Y7.123 Z-10.578
N1398 X-.904 Y6.904 Z-10.579
N1399 X-.303 Y6.819 Z-10.58
N1400 X.303 Z-10.581
N1401 X.904 Y6.904 Z-10.582
N1402 X1.665 Y7.123 Z-10.583
N1403 X46.072 Y23.285 Z-10.659
N1404 X47.345 Y23.649 Z-10.661
N1405 X48.656 Y23.83 Z-10.663
N1406 X49.98 Y23.825 Z-10.665
N1407 X51.29 Y23.634 Z-10.667
N1408 X52.56 Y23.26 Z-10.669
N1409 X52.873 Y23.144 Z-10.67
N1410 X54.311 Y22.386 Z-10.673
N1411 X55.682 Y21.339 Z-10.675
N1412 X56.861 Y20.086 Z-10.678
N1413 X57.819 Y18.66 Z-10.681
N1414 X58.447 Y17.292 Z-10.683
N1415 X63.797 Y2.593 Z-10.708
N1416 X64.17 Y1.312 Z-10.711
N1417 X64.373 Y-.007 Z-10.713
N1418 X64.402 Y-1.341 Z-10.715
N1419 X64.257 Y-2.667 Z-10.717
N1420 X63.94 Y-3.963 Z-10.719
N1421 X63.456 Y-5.207 Z-10.721
N1422 X62.815 Y-6.376 Z-10.723
N1423 X62.026 Y-7.452 Z-10.726
N1424 X61.103 Y-8.416 Z-10.728
N1425 X60.063 Y-9.251 Z-10.73
N1426 X58.922 Y-9.944 Z-10.732
N1427 X57.701 Y-10.481 Z-10.734
N1428 X21.944 Y-23.495 Z-10.795
N1429 X20.9 Y-23.775 Z-10.797
N1430 X19.824 Y-23.869 Z-10.799
N1431 X-19.824 Z-10.862
N1432 X-20.9 Y-23.775 Z-10.864
N1433 X-21.944 Y-23.495 Z-10.866
N1434 X-57.701 Y-10.481 Z-10.927
N1435 X-58.922 Y-9.944 Z-10.929
N1436 X-60.063 Y-9.251 Z-10.931
N1437 X-61.103 Y-8.416 Z-10.933
N1438 X-62.026 Y-7.452 Z-10.935
N1439 X-62.815 Y-6.376 Z-10.937
N1440 X-63.456 Y-5.207 Z-10.939
N1441 X-63.94 Y-3.963 Z-10.942
N1442 X-64.257 Y-2.667 Z-10.944
N1443 X-64.402 Y-1.341 Z-10.946
N1444 X-64.373 Y-.007 Z-10.948
N1445 X-64.17 Y1.312 Z-10.95
N1446 X-63.797 Y2.593 Z-10.952
N1447 X-58.447 Y17.292 Z-10.977
N1448 X-57.819 Y18.66 Z-10.98
N1449 X-56.861 Y20.086 Z-10.983
N1450 X-55.682 Y21.339 Z-10.985
N1451 X-54.311 Y22.386 Z-10.988
N1452 X-52.716 Y23.226 Z-10.991
N1453 X-50.96 Y23.749 Z-10.994
N1454 X-49.188 Y23.891 Z-10.997
N1455 X-47.556 Y23.716 Z-10.999
N1456 X-46.259 Y23.354 Z-11.002
N1457 X-1.665 Y7.123 Z-11.078
N1458 X-.904 Y6.904 Z-11.079
N1459 X-.303 Y6.819 Z-11.08
N1460 X.303 Z-11.081
N1461 X.904 Y6.904 Z-11.082
N1462 X1.665 Y7.123 Z-11.083
N1463 X46.072 Y23.285 Z-11.159
N1464 X47.345 Y23.649 Z-11.161
N1465 X48.656 Y23.83 Z-11.163
N1466 X49.98 Y23.825 Z-11.165
N1467 X51.29 Y23.634 Z-11.167
N1468 X52.56 Y23.26 Z-11.169
N1469 X52.873 Y23.144 Z-11.17
N1470 X54.311 Y22.386 Z-11.173
N1471 X55.682 Y21.339 Z-11.175
N1472 X56.861 Y20.086 Z-11.178
N1473 X57.819 Y18.66 Z-11.181
N1474 X58.447 Y17.292 Z-11.183
N1475 X63.797 Y2.593 Z-11.208
N1476 X64.17 Y1.312 Z-11.211
N1477 X64.373 Y-.007 Z-11.213
N1478 X64.402 Y-1.341 Z-11.215
N1479 X64.257 Y-2.667 Z-11.217
N1480 X63.94 Y-3.963 Z-11.219
N1481 X63.456 Y-5.207 Z-11.221
N1482 X62.815 Y-6.376 Z-11.223
N1483 X62.026 Y-7.452 Z-11.226
N1484 X61.103 Y-8.416 Z-11.228
N1485 X60.063 Y-9.251 Z-11.23
N1486 X58.922 Y-9.944 Z-11.232
N1487 X57.701 Y-10.481 Z-11.234
N1488 X21.944 Y-23.495 Z-11.295
N1489 X20.9 Y-23.775 Z-11.297
N1490 X19.824 Y-23.869 Z-11.299
N1491 X-19.824 Z-11.362
N1492 X-20.9 Y-23.775 Z-11.364
N1493 X-21.944 Y-23.495 Z-11.366
N1494 X-57.701 Y-10.481 Z-11.427
N1495 X-58.922 Y-9.944 Z-11.429
N1496 X-60.063 Y-9.251 Z-11.431
N1497 X-61.103 Y-8.416 Z-11.433
N1498 X-62.026 Y-7.452 Z-11.435
N1499 X-62.815 Y-6.376 Z-11.437
N1500 X-63.456 Y-5.207 Z-11.439
N1501 X-63.94 Y-3.963 Z-11.442
N1502 X-64.257 Y-2.667 Z-11.444
N1503 X-64.402 Y-1.341 Z-11.446
N1504 X-64.373 Y-.007 Z-11.448
N1505 X-64.17 Y1.312 Z-11.45
N1506 X-63.797 Y2.593 Z-11.452
N1507 X-58.447 Y17.292 Z-11.477
N1508 X-57.819 Y18.66 Z-11.48
N1509 X-56.861 Y20.086 Z-11.483
N1510 X-55.682 Y21.339 Z-11.485
N1511 X-54.311 Y22.386 Z-11.488
N1512 X-52.716 Y23.226 Z-11.491
N1513 X-50.96 Y23.749 Z-11.494
N1514 X-49.188 Y23.891 Z-11.497
N1515 X-47.556 Y23.716 Z-11.499
N1516 X-46.259 Y23.354 Z-11.502
N1517 X-1.665 Y7.123 Z-11.578
N1518 X-.904 Y6.904 Z-11.579
N1519 X-.303 Y6.819 Z-11.58
N1520 X.303 Z-11.581
N1521 X.904 Y6.904 Z-11.582
N1522 X1.665 Y7.123 Z-11.583
N1523 X46.072 Y23.285 Z-11.659
N1524 X47.345 Y23.649 Z-11.661
N1525 X48.656 Y23.83 Z-11.663
N1526 X49.98 Y23.825 Z-11.665
N1527 X51.29 Y23.634 Z-11.667
N1528 X52.56 Y23.26 Z-11.669
N1529 X52.873 Y23.144 Z-11.67
N1530 X54.311 Y22.386 Z-11.673
N1531 X55.682 Y21.339 Z-11.675
N1532 X56.861 Y20.086 Z-11.678
N1533 X57.819 Y18.66 Z-11.681
N1534 X58.447 Y17.292 Z-11.683
N1535 X63.797 Y2.593 Z-11.708
N1536 X64.17 Y1.312 Z-11.711
N1537 X64.373 Y-.007 Z-11.713
N1538 X64.402 Y-1.341 Z-11.715
N1539 X64.257 Y-2.667 Z-11.717
N1540 X63.94 Y-3.963 Z-11.719
N1541 X63.456 Y-5.207 Z-11.721
N1542 X62.815 Y-6.376 Z-11.723
N1543 X62.026 Y-7.452 Z-11.726
N1544 X61.103 Y-8.416 Z-11.728
N1545 X60.063 Y-9.251 Z-11.73
N1546 X58.922 Y-9.944 Z-11.732
N1547 X57.701 Y-10.481 Z-11.734
N1548 X21.944 Y-23.495 Z-11.795
N1549 X20.9 Y-23.775 Z-11.797
N1550 X19.824 Y-23.869 Z-11.799
N1551 X-19.824 Z-11.862
N1552 X-20.9 Y-23.775 Z-11.864
N1553 X-21.944 Y-23.495 Z-11.866
N1554 X-57.701 Y-10.481 Z-11.927
N1555 X-58.922 Y-9.944 Z-11.929
N1556 X-60.063 Y-9.251 Z-11.931
N1557 X-61.103 Y-8.416 Z-11.933
N1558 X-62.026 Y-7.452 Z-11.935
N1559 X-62.815 Y-6.376 Z-11.937
N1560 X-63.456 Y-5.207 Z-11.939
N1561 X-63.94 Y-3.963 Z-11.942
N1562 X-64.257 Y-2.667 Z-11.944
N1563 X-64.402 Y-1.341 Z-11.946
N1564 X-64.373 Y-.007 Z-11.948
N1565 X-64.17 Y1.312 Z-11.95
N1566 X-63.797 Y2.593 Z-11.952
N1567 X-58.447 Y17.292 Z-11.977
N1568 X-57.819 Y18.66 Z-11.98
N1569 X-56.861 Y20.086 Z-11.983
N1570 X-55.682 Y21.339 Z-11.985
N1571 X-54.311 Y22.386 Z-11.988
N1572 X-52.716 Y23.226 Z-11.991
N1573 X-50.96 Y23.749 Z-11.994
N1574 X-49.188 Y23.891 Z-11.997
N1575 X-47.556 Y23.716 Z-11.999
N1576 X-46.259 Y23.354 Z-12.002
N1577 X-1.665 Y7.123 Z-12.078
N1578 X-.904 Y6.904 Z-12.079
N1579 X-.303 Y6.819 Z-12.08
N1580 X.303 Z-12.081
N1581 X.904 Y6.904 Z-12.082
N1582 X1.665 Y7.123 Z-12.083
N1583 X46.072 Y23.285 Z-12.159
N1584 X47.345 Y23.649 Z-12.161
N1585 X48.656 Y23.83 Z-12.163
N1586 X49.98 Y23.825 Z-12.165
N1587 X51.29 Y23.634 Z-12.167
N1588 X52.56 Y23.26 Z-12.169
N1589 X52.873 Y23.144 Z-12.17
N1590 X54.311 Y22.386 Z-12.173
N1591 X55.682 Y21.339 Z-12.175
N1592 X56.861 Y20.086 Z-12.178
N1593 X57.819 Y18.66 Z-12.181
N1594 X58.447 Y17.292 Z-12.183
N1595 X63.797 Y2.593 Z-12.208
N1596 X64.17 Y1.312 Z-12.211
N1597 X64.373 Y-.007 Z-12.213
N1598 X64.402 Y-1.341 Z-12.215
N1599 X64.257 Y-2.667 Z-12.217
N1600 X63.94 Y-3.963 Z-12.219
N1601 X63.456 Y-5.207 Z-12.221
N1602 X62.815 Y-6.376 Z-12.223
N1603 X62.026 Y-7.452 Z-12.226
N1604 X61.103 Y-8.416 Z-12.228
N1605 X60.063 Y-9.251 Z-12.23
N1606 X58.922 Y-9.944 Z-12.232
N1607 X57.701 Y-10.481 Z-12.234
N1608 X21.944 Y-23.495 Z-12.295
N1609 X20.9 Y-23.775 Z-12.297
N1610 X19.824 Y-23.869 Z-12.299
N1611 X-19.824 Z-12.362
N1612 X-20.9 Y-23.775 Z-12.364
N1613 X-21.944 Y-23.495 Z-12.366
N1614 X-57.701 Y-10.481 Z-12.427
N1615 X-58.922 Y-9.944 Z-12.429
N1616 X-60.063 Y-9.251 Z-12.431
N1617 X-61.103 Y-8.416 Z-12.433
N1618 X-62.026 Y-7.452 Z-12.435
N1619 X-62.815 Y-6.376 Z-12.437
N1620 X-63.456 Y-5.207 Z-12.439
N1621 X-63.94 Y-3.963 Z-12.442
N1622 X-64.257 Y-2.667 Z-12.444
N1623 X-64.402 Y-1.341 Z-12.446
N1624 X-64.373 Y-.007 Z-12.448
N1625 X-64.17 Y1.312 Z-12.45
N1626 X-63.797 Y2.593 Z-12.452
N1627 X-58.447 Y17.292 Z-12.477
N1628 X-57.819 Y18.66 Z-12.48
N1629 X-56.861 Y20.086 Z-12.483
N1630 X-55.682 Y21.339 Z-12.485
N1631 X-54.311 Y22.386 Z-12.488
N1632 X-52.716 Y23.226 Z-12.491
N1633 X-50.96 Y23.749 Z-12.494
N1634 X-49.188 Y23.891 Z-12.497
N1635 X-47.556 Y23.716 Z-12.499
N1636 X-46.259 Y23.354 Z-12.502
N1637 X-1.665 Y7.123 Z-12.578
N1638 X-.904 Y6.904 Z-12.579
N1639 X-.303 Y6.819 Z-12.58
N1640 X.303 Z-12.581
N1641 X.904 Y6.904 Z-12.582
N1642 X1.665 Y7.123 Z-12.583
N1643 X46.072 Y23.285 Z-12.659
N1644 X47.345 Y23.649 Z-12.661
N1645 X48.656 Y23.83 Z-12.663
N1646 X49.98 Y23.825 Z-12.665
N1647 X51.29 Y23.634 Z-12.667
N1648 X52.56 Y23.26 Z-12.669
N1649 X52.873 Y23.144 Z-12.67
N1650 X54.311 Y22.386 Z-12.673
N1651 X55.682 Y21.339 Z-12.675
N1652 X56.861 Y20.086 Z-12.678
N1653 X57.819 Y18.66 Z-12.681
N1654 X58.447 Y17.292 Z-12.683
N1655 X63.797 Y2.593 Z-12.708
N1656 X64.17 Y1.312 Z-12.711
N1657 X64.373 Y-.007 Z-12.713
N1658 X64.402 Y-1.341 Z-12.715
N1659 X64.257 Y-2.667 Z-12.717
N1660 X63.94 Y-3.963 Z-12.719
N1661 X63.456 Y-5.207 Z-12.721
N1662 X62.815 Y-6.376 Z-12.723
N1663 X62.026 Y-7.452 Z-12.726
N1664 X61.103 Y-8.416 Z-12.728
N1665 X60.063 Y-9.251 Z-12.73
N1666 X58.922 Y-9.944 Z-12.732
N1667 X57.701 Y-10.481 Z-12.734
N1668 X21.944 Y-23.495 Z-12.795
N1669 X20.9 Y-23.775 Z-12.797
N1670 X19.824 Y-23.869 Z-12.799
N1671 X-19.824 Z-12.862
N1672 X-20.9 Y-23.775 Z-12.864
N1673 X-21.944 Y-23.495 Z-12.866
N1674 X-57.701 Y-10.481 Z-12.927
N1675 X-58.922 Y-9.944 Z-12.929
N1676 X-60.063 Y-9.251 Z-12.931
N1677 X-61.103 Y-8.416 Z-12.933
N1678 X-62.026 Y-7.452 Z-12.935
N1679 X-62.815 Y-6.376 Z-12.937
N1680 X-63.456 Y-5.207 Z-12.939
N1681 X-63.94 Y-3.963 Z-12.942
N1682 X-64.257 Y-2.667 Z-12.944
N1683 X-64.402 Y-1.341 Z-12.946
N1684 X-64.373 Y-.007 Z-12.948
N1685 X-64.17 Y1.312 Z-12.95
N1686 X-63.797 Y2.593 Z-12.952
N1687 X-58.447 Y17.292 Z-12.977
N1688 X-57.819 Y18.66 Z-12.98
N1689 X-56.861 Y20.086 Z-12.983
N1690 X-55.682 Y21.339 Z-12.985
N1691 X-54.311 Y22.386 Z-12.988
N1692 X-52.716 Y23.226 Z-12.991
N1693 X-50.96 Y23.749 Z-12.994
N1694 X-49.188 Y23.891 Z-12.997
N1695 X-47.556 Y23.716 Z-12.999
N1696 X-46.259 Y23.354 Z-13.002
N1697 X-1.665 Y7.123 Z-13.078
N1698 X-.904 Y6.904 Z-13.079
N1699 X-.303 Y6.819 Z-13.08
N1700 X.303 Z-13.081
N1701 X.904 Y6.904 Z-13.082
N1702 X1.665 Y7.123 Z-13.083
N1703 X46.072 Y23.285 Z-13.159
N1704 X47.345 Y23.649 Z-13.161
N1705 X48.656 Y23.83 Z-13.163
N1706 X49.98 Y23.825 Z-13.165
N1707 X51.29 Y23.634 Z-13.167
N1708 X52.56 Y23.26 Z-13.169
N1709 X52.873 Y23.144 Z-13.17
N1710 X54.311 Y22.386 Z-13.173
N1711 X55.682 Y21.339 Z-13.175
N1712 X56.861 Y20.086 Z-13.178
N1713 X57.819 Y18.66 Z-13.181
N1714 X58.447 Y17.292 Z-13.183
N1715 X63.797 Y2.593 Z-13.208
N1716 X64.17 Y1.312 Z-13.211
N1717 X64.373 Y-.007 Z-13.213
N1718 X64.402 Y-1.341 Z-13.215
N1719 X64.257 Y-2.667 Z-13.217
N1720 X63.94 Y-3.963 Z-13.219
N1721 X63.456 Y-5.207 Z-13.221
N1722 X62.815 Y-6.376 Z-13.223
N1723 X62.026 Y-7.452 Z-13.226
N1724 X61.103 Y-8.416 Z-13.228
N1725 X60.063 Y-9.251 Z-13.23
N1726 X58.922 Y-9.944 Z-13.232
N1727 X57.701 Y-10.481 Z-13.234
N1728 X21.944 Y-23.495 Z-13.295
N1729 X20.9 Y-23.775 Z-13.297
N1730 X19.824 Y-23.869 Z-13.299
N1731 X-19.824 Z-13.362
N1732 X-20.9 Y-23.775 Z-13.364
N1733 X-21.944 Y-23.495 Z-13.366
N1734 X-57.701 Y-10.481 Z-13.427
N1735 X-58.922 Y-9.944 Z-13.429
N1736 X-60.063 Y-9.251 Z-13.431
N1737 X-61.103 Y-8.416 Z-13.433
N1738 X-62.026 Y-7.452 Z-13.435
N1739 X-62.815 Y-6.376 Z-13.437
N1740 X-63.456 Y-5.207 Z-13.439
N1741 X-63.94 Y-3.963 Z-13.442
N1742 X-64.257 Y-2.667 Z-13.444
N1743 X-64.402 Y-1.341 Z-13.446
N1744 X-64.373 Y-.007 Z-13.448
N1745 X-64.17 Y1.312 Z-13.45
N1746 X-63.797 Y2.593 Z-13.452
N1747 X-58.447 Y17.292 Z-13.477
N1748 X-57.819 Y18.66 Z-13.48
N1749 X-56.861 Y20.086 Z-13.483
N1750 X-55.682 Y21.339 Z-13.485
N1751 X-54.311 Y22.386 Z-13.488
N1752 X-52.716 Y23.226 Z-13.491
N1753 X-50.96 Y23.749 Z-13.494
N1754 X-49.188 Y23.891 Z-13.497
N1755 X-47.556 Y23.716 Z-13.499
N1756 X-46.259 Y23.354 Z-13.502
N1757 X-1.665 Y7.123 Z-13.578
N1758 X-.904 Y6.904 Z-13.579
N1759 X-.303 Y6.819 Z-13.58
N1760 X.303 Z-13.581
N1761 X.904 Y6.904 Z-13.582
N1762 X1.665 Y7.123 Z-13.583
N1763 X46.072 Y23.285 Z-13.659
N1764 X47.345 Y23.649 Z-13.661
N1765 X48.656 Y23.83 Z-13.663
N1766 X49.98 Y23.825 Z-13.665
N1767 X51.29 Y23.634 Z-13.667
N1768 X52.56 Y23.26 Z-13.669
N1769 X52.873 Y23.144 Z-13.67
N1770 X54.311 Y22.386 Z-13.673
N1771 X55.682 Y21.339 Z-13.675
N1772 X56.861 Y20.086 Z-13.678
N1773 X57.819 Y18.66 Z-13.681
N1774 X58.447 Y17.292 Z-13.683
N1775 X63.797 Y2.593 Z-13.708
N1776 X64.17 Y1.312 Z-13.711
N1777 X64.373 Y-.007 Z-13.713
N1778 X64.402 Y-1.341 Z-13.715
N1779 X64.257 Y-2.667 Z-13.717
N1780 X63.94 Y-3.963 Z-13.719
N1781 X63.456 Y-5.207 Z-13.721
N1782 X62.815 Y-6.376 Z-13.723
N1783 X62.026 Y-7.452 Z-13.726
N1784 X61.103 Y-8.416 Z-13.728
N1785 X60.063 Y-9.251 Z-13.73
N1786 X58.922 Y-9.944 Z-13.732
N1787 X57.701 Y-10.481 Z-13.734
N1788 X21.944 Y-23.495 Z-13.795
N1789 X20.9 Y-23.775 Z-13.797
N1790 X19.824 Y-23.869 Z-13.799
N1791 X-19.824 Z-13.862
N1792 X-20.9 Y-23.775 Z-13.864
N1793 X-21.944 Y-23.495 Z-13.866
N1794 X-57.701 Y-10.481 Z-13.927
N1795 X-58.922 Y-9.944 Z-13.929
N1796 X-60.063 Y-9.251 Z-13.931
N1797 X-61.103 Y-8.416 Z-13.933
N1798 X-62.026 Y-7.452 Z-13.935
N1799 X-62.815 Y-6.376 Z-13.937
N1800 X-63.456 Y-5.207 Z-13.939
N1801 X-63.94 Y-3.963 Z-13.942
N1802 X-64.257 Y-2.667 Z-13.944
N1803 X-64.402 Y-1.341 Z-13.946
N1804 X-64.373 Y-.007 Z-13.948
N1805 X-64.17 Y1.312 Z-13.95
N1806 X-63.797 Y2.593 Z-13.952
N1807 X-58.447 Y17.292 Z-13.977
N1808 X-57.819 Y18.66 Z-13.98
N1809 X-56.861 Y20.086 Z-13.983
N1810 X-55.682 Y21.339 Z-13.985
N1811 X-54.311 Y22.386 Z-13.988
N1812 X-52.716 Y23.226 Z-13.991
N1813 X-50.96 Y23.749 Z-13.994
N1814 X-49.188 Y23.891 Z-13.997
N1815 X-47.556 Y23.716 Z-13.999
N1816 X-46.259 Y23.354 Z-14.002
N1817 X-1.665 Y7.123 Z-14.078
N1818 X-.904 Y6.904 Z-14.079
N1819 X-.303 Y6.819 Z-14.08
N1820 X.303 Z-14.081
N1821 X.904 Y6.904 Z-14.082
N1822 X1.665 Y7.123 Z-14.083
N1823 X46.072 Y23.285 Z-14.159
N1824 X47.345 Y23.649 Z-14.161
N1825 X48.656 Y23.83 Z-14.163
N1826 X49.98 Y23.825 Z-14.165
N1827 X51.29 Y23.634 Z-14.167
N1828 X52.56 Y23.26 Z-14.169
N1829 X52.873 Y23.144 Z-14.17
N1830 X54.311 Y22.386 Z-14.173
N1831 X55.682 Y21.339 Z-14.175
N1832 X56.861 Y20.086 Z-14.178
N1833 X57.819 Y18.66 Z-14.181
N1834 X58.447 Y17.292 Z-14.183
N1835 X63.797 Y2.593 Z-14.208
N1836 X64.17 Y1.312 Z-14.211
N1837 X64.373 Y-.007 Z-14.213
N1838 X64.402 Y-1.341 Z-14.215
N1839 X64.257 Y-2.667 Z-14.217
N1840 X63.94 Y-3.963 Z-14.219
N1841 X63.456 Y-5.207 Z-14.221
N1842 X62.815 Y-6.376 Z-14.223
N1843 X62.026 Y-7.452 Z-14.226
N1844 X61.103 Y-8.416 Z-14.228
N1845 X60.063 Y-9.251 Z-14.23
N1846 X58.922 Y-9.944 Z-14.232
N1847 X57.701 Y-10.481 Z-14.234
N1848 X21.944 Y-23.495 Z-14.295
N1849 X20.9 Y-23.775 Z-14.297
N1850 X19.824 Y-23.869 Z-14.299
N1851 X-19.824 Z-14.362
N1852 X-20.9 Y-23.775 Z-14.364
N1853 X-21.944 Y-23.495 Z-14.366
N1854 X-57.701 Y-10.481 Z-14.427
N1855 X-58.922 Y-9.944 Z-14.429
N1856 X-60.063 Y-9.251 Z-14.431
N1857 X-61.103 Y-8.416 Z-14.433
N1858 X-62.026 Y-7.452 Z-14.435
N1859 X-62.815 Y-6.376 Z-14.437
N1860 X-63.456 Y-5.207 Z-14.439
N1861 X-63.94 Y-3.963 Z-14.442
N1862 X-64.257 Y-2.667 Z-14.444
N1863 X-64.402 Y-1.341 Z-14.446
N1864 X-64.373 Y-.007 Z-14.448
N1865 X-64.17 Y1.312 Z-14.45
N1866 X-63.797 Y2.593 Z-14.452
N1867 X-58.447 Y17.292 Z-14.477
N1868 X-57.819 Y18.66 Z-14.48
N1869 X-56.861 Y20.086 Z-14.483
N1870 X-55.682 Y21.339 Z-14.485
N1871 X-54.311 Y22.386 Z-14.488
N1872 X-52.716 Y23.226 Z-14.491
N1873 X-50.96 Y23.749 Z-14.494
N1874 X-49.188 Y23.891 Z-14.497
N1875 X-47.556 Y23.716 Z-14.499
N1876 X-46.259 Y23.354 Z-14.502
N1877 X-1.665 Y7.123 Z-14.578
N1878 X-.904 Y6.904 Z-14.579
N1879 X-.303 Y6.819 Z-14.58
N1880 X.303 Z-14.581
N1881 X.904 Y6.904 Z-14.582
N1882 X1.665 Y7.123 Z-14.583
N1883 X46.072 Y23.285 Z-14.659
N1884 X47.345 Y23.649 Z-14.661
N1885 X48.656 Y23.83 Z-14.663
N1886 X49.98 Y23.825 Z-14.665
N1887 X51.29 Y23.634 Z-14.667
N1888 X52.56 Y23.26 Z-14.669
N1889 X52.873 Y23.144 Z-14.67
N1890 X54.311 Y22.386 Z-14.673
N1891 X55.682 Y21.339 Z-14.675
N1892 X56.861 Y20.086 Z-14.678
N1893 X57.819 Y18.66 Z-14.681
N1894 X58.447 Y17.292 Z-14.683
N1895 X63.797 Y2.593 Z-14.708
N1896 X64.17 Y1.312 Z-14.711
N1897 X64.373 Y-.007 Z-14.713
N1898 X64.402 Y-1.341 Z-14.715
N1899 X64.257 Y-2.667 Z-14.717
N1900 X63.94 Y-3.963 Z-14.719
N1901 X63.456 Y-5.207 Z-14.721
N1902 X62.815 Y-6.376 Z-14.723
N1903 X62.026 Y-7.452 Z-14.726
N1904 X61.103 Y-8.416 Z-14.728
N1905 X60.063 Y-9.251 Z-14.73
N1906 X58.922 Y-9.944 Z-14.732
N1907 X57.701 Y-10.481 Z-14.734
N1908 X21.944 Y-23.495 Z-14.795
N1909 X20.9 Y-23.775 Z-14.797
N1910 X19.824 Y-23.869 Z-14.799
N1911 X-19.824 Z-14.862
N1912 X-20.9 Y-23.775 Z-14.864
N1913 X-21.944 Y-23.495 Z-14.866
N1914 X-57.701 Y-10.481 Z-14.927
N1915 X-58.922 Y-9.944 Z-14.929
N1916 X-60.063 Y-9.251 Z-14.931
N1917 X-61.103 Y-8.416 Z-14.933
N1918 X-62.026 Y-7.452 Z-14.935
N1919 X-62.815 Y-6.376 Z-14.937
N1920 X-63.456 Y-5.207 Z-14.939
N1921 X-63.94 Y-3.963 Z-14.942
N1922 X-64.257 Y-2.667 Z-14.944
N1923 X-64.402 Y-1.341 Z-14.946
N1924 X-64.373 Y-.007 Z-14.948
N1925 X-64.17 Y1.312 Z-14.95
N1926 X-63.797 Y2.593 Z-14.952
N1927 X-58.447 Y17.292 Z-14.977
N1928 X-57.819 Y18.66 Z-14.98
N1929 X-56.861 Y20.086 Z-14.983
N1930 X-55.682 Y21.339 Z-14.985
N1931 X-54.311 Y22.386 Z-14.988
N1932 X-52.716 Y23.226 Z-14.991
N1933 X-50.96 Y23.749 Z-14.994
N1934 X-49.188 Y23.891 Z-14.997
N1935 X-47.556 Y23.716 Z-14.999
N1936 X-46.259 Y23.354 Z-15.002
N1937 X-1.665 Y7.123 Z-15.078
N1938 X-.904 Y6.904 Z-15.079
N1939 X-.303 Y6.819 Z-15.08
N1940 X.303 Z-15.081
N1941 X.904 Y6.904 Z-15.082
N1942 X1.665 Y7.123 Z-15.083
N1943 X46.072 Y23.285 Z-15.159
N1944 X47.345 Y23.649 Z-15.161
N1945 X48.656 Y23.83 Z-15.163
N1946 X49.98 Y23.825 Z-15.165
N1947 X51.29 Y23.634 Z-15.167
N1948 X52.56 Y23.26 Z-15.169
N1949 X52.873 Y23.144 Z-15.17
N1950 X54.311 Y22.386 Z-15.173
N1951 X55.682 Y21.339 Z-15.175
N1952 X56.861 Y20.086 Z-15.178
N1953 X57.819 Y18.66 Z-15.181
N1954 X58.447 Y17.292 Z-15.183
N1955 X63.797 Y2.593 Z-15.208
N1956 X64.17 Y1.312 Z-15.211
N1957 X64.373 Y-.007 Z-15.213
N1958 X64.402 Y-1.341 Z-15.215
N1959 X64.257 Y-2.667 Z-15.217
N1960 X63.94 Y-3.963 Z-15.219
N1961 X63.456 Y-5.207 Z-15.221
N1962 X62.815 Y-6.376 Z-15.223
N1963 X62.026 Y-7.452 Z-15.226
N1964 X61.103 Y-8.416 Z-15.228
N1965 X60.063 Y-9.251 Z-15.23
N1966 X58.922 Y-9.944 Z-15.232
N1967 X57.701 Y-10.481 Z-15.234
N1968 X21.944 Y-23.495 Z-15.295
N1969 X20.9 Y-23.775 Z-15.297
N1970 X19.824 Y-23.869 Z-15.299
N1971 X-19.824 Z-15.362
N1972 X-20.9 Y-23.775 Z-15.364
N1973 X-21.944 Y-23.495 Z-15.366
N1974 X-57.701 Y-10.481 Z-15.427
N1975 X-58.922 Y-9.944 Z-15.429
N1976 X-60.063 Y-9.251 Z-15.431
N1977 X-61.103 Y-8.416 Z-15.433
N1978 X-62.026 Y-7.452 Z-15.435
N1979 X-62.815 Y-6.376 Z-15.437
N1980 X-63.456 Y-5.207 Z-15.439
N1981 X-63.94 Y-3.963 Z-15.442
N1982 X-64.257 Y-2.667 Z-15.444
N1983 X-64.402 Y-1.341 Z-15.446
N1984 X-64.373 Y-.007 Z-15.448
N1985 X-64.17 Y1.312 Z-15.45
N1986 X-63.797 Y2.593 Z-15.452
N1987 X-58.447 Y17.292 Z-15.477
N1988 X-57.819 Y18.66 Z-15.48
N1989 X-56.861 Y20.086 Z-15.483
N1990 X-55.682 Y21.339 Z-15.485
N1991 X-54.311 Y22.386 Z-15.488
N1992 X-52.716 Y23.226 Z-15.491
N1993 X-50.96 Y23.749 Z-15.494
N1994 X-49.188 Y23.891 Z-15.497
N1995 X-47.556 Y23.716 Z-15.499
N1996 X-46.259 Y23.354 Z-15.502
N1997 X-1.665 Y7.123 Z-15.578
N1998 X-.904 Y6.904 Z-15.579
N1999 X-.303 Y6.819 Z-15.58
N2000 X.303 Z-15.581
N2001 X.904 Y6.904 Z-15.582
N2002 X1.665 Y7.123 Z-15.583
N2003 X46.072 Y23.285 Z-15.659
N2004 X47.345 Y23.649 Z-15.661
N2005 X48.656 Y23.83 Z-15.663
N2006 X49.98 Y23.825 Z-15.665
N2007 X51.29 Y23.634 Z-15.667
N2008 X52.56 Y23.26 Z-15.669
N2009 X52.873 Y23.144 Z-15.67
N2010 X54.311 Y22.386 Z-15.673
N2011 X55.682 Y21.339 Z-15.675
N2012 X56.861 Y20.086 Z-15.678
N2013 X57.819 Y18.66 Z-15.681
N2014 X58.447 Y17.292 Z-15.683
N2015 X63.797 Y2.593 Z-15.708
N2016 X64.17 Y1.312 Z-15.711
N2017 X64.373 Y-.007 Z-15.713
N2018 X64.402 Y-1.341 Z-15.715
N2019 X64.257 Y-2.667 Z-15.717
N2020 X63.94 Y-3.963 Z-15.719
N2021 X63.456 Y-5.207 Z-15.721
N2022 X62.815 Y-6.376 Z-15.723
N2023 X62.026 Y-7.452 Z-15.726
N2024 X61.103 Y-8.416 Z-15.728
N2025 X60.063 Y-9.251 Z-15.73
N2026 X58.922 Y-9.944 Z-15.732
N2027 X57.701 Y-10.481 Z-15.734
N2028 X21.944 Y-23.495 Z-15.795
N2029 X20.9 Y-23.775 Z-15.797
N2030 X19.824 Y-23.869 Z-15.799
N2031 X-19.824 Z-15.862
N2032 X-20.9 Y-23.775 Z-15.864
N2033 X-21.944 Y-23.495 Z-15.866
N2034 X-57.701 Y-10.481 Z-15.927
N2035 X-58.922 Y-9.944 Z-15.929
N2036 X-60.063 Y-9.251 Z-15.931
N2037 X-61.103 Y-8.416 Z-15.933
N2038 X-62.026 Y-7.452 Z-15.935
N2039 X-62.815 Y-6.376 Z-15.937
N2040 X-63.456 Y-5.207 Z-15.939
N2041 X-63.94 Y-3.963 Z-15.942
N2042 X-64.257 Y-2.667 Z-15.944
N2043 X-64.402 Y-1.341 Z-15.946
N2044 X-64.373 Y-.007 Z-15.948
N2045 X-64.17 Y1.312 Z-15.95
N2046 X-63.797 Y2.593 Z-15.952
N2047 X-58.447 Y17.292 Z-15.977
N2048 X-57.819 Y18.66 Z-15.98
N2049 X-56.861 Y20.086 Z-15.983
N2050 X-55.682 Y21.339 Z-15.985
N2051 X-54.311 Y22.386 Z-15.988
N2052 X-52.716 Y23.226 Z-15.991
N2053 X-50.96 Y23.749 Z-15.994
N2054 X-49.188 Y23.891 Z-15.997
N2055 X-47.556 Y23.716 Z-15.999
N2056 X-46.259 Y23.354 Z-16.002
N2057 X-1.665 Y7.123 Z-16.078
N2058 X-.904 Y6.904 Z-16.079
N2059 X-.303 Y6.819 Z-16.08
N2060 X.303 Z-16.081
N2061 X.904 Y6.904 Z-16.082
N2062 X1.665 Y7.123 Z-16.083
N2063 X46.072 Y23.285 Z-16.159
N2064 X47.345 Y23.649 Z-16.161
N2065 X48.656 Y23.83 Z-16.163
N2066 X49.98 Y23.825 Z-16.165
N2067 X51.29 Y23.634 Z-16.167
N2068 X52.56 Y23.26 Z-16.169
N2069 X52.873 Y23.144 Z-16.17
N2070 X54.311 Y22.386 Z-16.173
N2071 X55.682 Y21.339 Z-16.175
N2072 X56.861 Y20.086 Z-16.178
N2073 X57.819 Y18.66 Z-16.181
N2074 X58.447 Y17.292 Z-16.183
N2075 X63.797 Y2.593 Z-16.208
N2076 X64.17 Y1.312 Z-16.211
N2077 X64.373 Y-.007 Z-16.213
N2078 X64.402 Y-1.341 Z-16.215
N2079 X64.257 Y-2.667 Z-16.217
N2080 X63.94 Y-3.963 Z-16.219
N2081 X63.456 Y-5.207 Z-16.221
N2082 X62.815 Y-6.376 Z-16.223
N2083 X62.026 Y-7.452 Z-16.226
N2084 X61.103 Y-8.416 Z-16.228
N2085 X60.063 Y-9.251 Z-16.23
N2086 X58.922 Y-9.944 Z-16.232
N2087 X57.701 Y-10.481 Z-16.234
N2088 X21.944 Y-23.495 Z-16.295
N2089 X20.9 Y-23.775 Z-16.297
N2090 X19.824 Y-23.869 Z-16.299
N2091 X-19.824 Z-16.362
N2092 X-20.9 Y-23.775 Z-16.364
N2093 X-21.944 Y-23.495 Z-16.366
N2094 X-57.701 Y-10.481 Z-16.427
N2095 X-58.922 Y-9.944 Z-16.429
N2096 X-60.063 Y-9.251 Z-16.431
N2097 X-61.103 Y-8.416 Z-16.433
N2098 X-62.026 Y-7.452 Z-16.435
N2099 X-62.815 Y-6.376 Z-16.437
N2100 X-63.456 Y-5.207 Z-16.439
N2101 X-63.94 Y-3.963 Z-16.442
N2102 X-64.257 Y-2.667 Z-16.444
N2103 X-64.402 Y-1.341 Z-16.446
N2104 X-64.373 Y-.007 Z-16.448
N2105 X-64.17 Y1.312 Z-16.45
N2106 X-63.797 Y2.593 Z-16.452
N2107 X-58.447 Y17.292 Z-16.477
N2108 X-57.819 Y18.66 Z-16.48
N2109 X-56.861 Y20.086 Z-16.483
N2110 X-55.682 Y21.339 Z-16.485
N2111 X-54.311 Y22.386 Z-16.488
N2112 X-52.716 Y23.226 Z-16.491
N2113 X-50.96 Y23.749 Z-16.494
N2114 X-49.188 Y23.891 Z-16.497
N2115 X-47.556 Y23.716 Z-16.499
N2116 X-46.259 Y23.354 Z-16.502
N2117 X-1.665 Y7.123 Z-16.578
N2118 X-.904 Y6.904 Z-16.579
N2119 X-.303 Y6.819 Z-16.58
N2120 X.303 Z-16.581
N2121 X.904 Y6.904 Z-16.582
N2122 X1.665 Y7.123 Z-16.583
N2123 X46.072 Y23.285 Z-16.659
N2124 X47.345 Y23.649 Z-16.661
N2125 X48.656 Y23.83 Z-16.663
N2126 X49.98 Y23.825 Z-16.665
N2127 X51.29 Y23.634 Z-16.667
N2128 X52.56 Y23.26 Z-16.669
N2129 X52.873 Y23.144 Z-16.67
N2130 X54.311 Y22.386 Z-16.673
N2131 X55.682 Y21.339 Z-16.675
N2132 X56.861 Y20.086 Z-16.678
N2133 X57.819 Y18.66 Z-16.681
N2134 X58.447 Y17.292 Z-16.683
N2135 X63.797 Y2.593 Z-16.708
N2136 X64.17 Y1.312 Z-16.711
N2137 X64.373 Y-.007 Z-16.713
N2138 X64.402 Y-1.341 Z-16.715
N2139 X64.257 Y-2.667 Z-16.717
N2140 X63.94 Y-3.963 Z-16.719
N2141 X63.456 Y-5.207 Z-16.721
N2142 X62.815 Y-6.376 Z-16.723
N2143 X62.026 Y-7.452 Z-16.726
N2144 X61.103 Y-8.416 Z-16.728
N2145 X60.063 Y-9.251 Z-16.73
N2146 X58.922 Y-9.944 Z-16.732
N2147 X57.701 Y-10.481 Z-16.734
N2148 X21.944 Y-23.495 Z-16.795
N2149 X20.9 Y-23.775 Z-16.797
N2150 X19.824 Y-23.869 Z-16.799
N2151 X-19.824 Z-16.862
N2152 X-20.9 Y-23.775 Z-16.864
N2153 X-21.944 Y-23.495 Z-16.866
N2154 X-57.701 Y-10.481 Z-16.927
N2155 X-58.922 Y-9.944 Z-16.929
N2156 X-60.063 Y-9.251 Z-16.931
N2157 X-61.103 Y-8.416 Z-16.933
N2158 X-62.026 Y-7.452 Z-16.935
N2159 X-62.815 Y-6.376 Z-16.937
N2160 X-63.456 Y-5.207 Z-16.939
N2161 X-63.94 Y-3.963 Z-16.942
N2162 X-64.257 Y-2.667 Z-16.944
N2163 X-64.402 Y-1.341 Z-16.946
N2164 X-64.373 Y-.007 Z-16.948
N2165 X-64.17 Y1.312 Z-16.95
N2166 X-63.797 Y2.593 Z-16.952
N2167 X-58.447 Y17.292 Z-16.977
N2168 X-57.819 Y18.66 Z-16.98
N2169 X-56.861 Y20.086 Z-16.983
N2170 X-55.682 Y21.339 Z-16.985
N2171 X-54.311 Y22.386 Z-16.988
N2172 X-52.716 Y23.226 Z-16.991
N2173 X-50.96 Y23.749 Z-16.994
N2174 X-49.188 Y23.891 Z-16.997
N2175 X-47.556 Y23.716 Z-16.999
N2176 X-46.259 Y23.354 Z-17.002
N2177 X-1.665 Y7.123
N2178 X-.904 Y6.904
N2179 X-.303 Y6.819
N2180 X.303
N2181 X.904 Y6.904
N2182 X1.665 Y7.123
N2183 X46.072 Y23.285
N2184 G02 X52.56 Y23.26 CR=9.385
N2185 G01 X52.873 Y23.144
N2186 X54.311 Y22.386
N2187 X55.682 Y21.339
N2188 X56.861 Y20.086
N2189 X57.819 Y18.66
N2190 X58.447 Y17.292
N2191 X63.797 Y2.593
N2192 G02 X57.701 Y-10.481 CR=10.2
N2193 G01 X21.944 Y-23.495
N2194 G02 X19.824 Y-23.869 CR=6.2
N2195 G01 X-19.824
N2196 G02 X-21.944 Y-23.495 CR=6.2
N2197 G01 X-57.701 Y-10.481
N2198 G02 X-63.797 Y2.593 CR=10.2
N2199 G01 X-58.447 Y17.292
N2200 X-57.819 Y18.66
N2201 X-56.861 Y20.086
N2202 X-55.682 Y21.339
N2203 X-54.311 Y22.386
N2204 X-52.716 Y23.226
N2205 X-50.96 Y23.749
N2206 X-49.188 Y23.891
N2207 X-47.556 Y23.716
N2208 X-46.259 Y23.354
N2209 X-45.32 Y23.012
N2210 G03 X-44.555 Y23.045 CR=1.
N2211 G40 G01 X-39.842 Y25.243
N2212 G00 Z.5
N2213 Z25.
N2214 M05
N2215 M09

N2216 M01
N2217 T12 D12
N2218 L6
N2219 MSG("12MM CRB 2FL 25 LOC")
N2220 S2000 M03
N2221 G00 G90 X-50.956 Y30.442
N2222 Z25. M08
N2223 Z3.998
N2224 G01 Z-17.002 F300.
N2225 G41 X-47.893 Y25.005 F225.
N2226 G03 X-47.17 Y24.439 CR=1.2
N2227 G01 X-46.014 Y24.116 F300.
N2228 X-1.418 Y7.884
N2229 X-.737 Y7.688
N2230 X-.246 Y7.619
N2231 X.246
N2232 X.737 Y7.688
N2233 X1.418 Y7.884
N2234 X45.798 Y24.037
N2235 G02 X52.839 Y24.01 CR=10.185
N2236 G01 X53.2 Y23.875
N2237 X54.743 Y23.062
N2238 X56.22 Y21.935
N2239 X57.489 Y20.586
N2240 X58.52 Y19.053
N2241 X59.187 Y17.596
N2242 X64.549 Y2.866
N2243 G02 X57.974 Y-11.233 CR=11.
N2244 G01 X22.218 Y-24.247
N2245 G02 X19.824 Y-24.669 CR=7.
N2246 G01 X-19.824
N2247 G02 X-22.218 Y-24.247 CR=7.
N2248 G01 X-57.974 Y-11.233
N2249 G02 X-64.549 Y2.866 CR=11.
N2250 G01 X-59.187 Y17.596
N2251 X-58.52 Y19.053
N2252 X-57.489 Y20.586
N2253 X-56.22 Y21.935
N2254 X-54.743 Y23.062
N2255 X-53.02 Y23.97
N2256 X-51.108 Y24.539
N2257 X-49.178 Y24.694
N2258 X-47.405 Y24.504
N2259 X-46.014 Y24.116
N2260 X-44.887 Y23.705
N2261 G03 X-43.969 Y23.745 CR=1.2
N2262 G40 G01 X-38.314 Y26.383
N2263 G00 Z3.998
N2264 Z25.
N2265 M05
N2266 M09
N2267 M30
