190897-2S.MPF
;This Post Processor is distributed on an "AS IS" BASIS,
;WITHOUT WARRANTIES OR CONDITIONS OF ANY KIND, either express or implied.
N1 T10 D10
N2 L6
N3 MSG("10MM CRB 2FL 22 LOC")
N4 G60
N5 G64
N6 SOFT
N7 G00 G17 G90 G54
N8 S2500 M03
N9 G00 G90 X-19.527 Y-1.
N10 Z59.903 M08
N11 Z38.479
N12 G01 Z35.979 F600.
N13 X23.516 Z34.519
N14 X24.07 Y-.833 Z34.499
N15 X24.438 Y-.386 Z34.479
N16 X24.516 Y.023 F1500.
N17 X24.42 Y.429
N18 X24.05 Y.845
N19 X23.516 Y1.
N20 X0
N21 X-23.516
N22 X-24.05 Y.845
N23 X-24.42 Y.429
N24 X-24.514 Y-.06
N25 X-24.361 Y-.535
N26 X-23.998 Y-.876
N27 X-23.516 Y-1.
N28 X23.516
N29 X24.07 Y-.833
N30 X24.438 Y-.386
N31 X24.498 Y-.282
N32 X25.564 Y1.156
N33 X25.662 Y1.476
N34 X25.537 Y1.785
N35 X24.959 Y2.278
N36 X24.267 Y2.59
N37 X23.516 Y2.697
N38 X0
N39 X-23.516
N40 X-24.506 Y2.508
N41 X-25.358 Y1.97
N42 X-25.952 Y1.156
N43 X-27.072 Y-1.202
N44 X-27.178 Y-1.711
N45 X-27.023 Y-2.208
N46 X-26.646 Y-2.566
N47 X-26.143 Y-2.697
N48 X26.144
N49 X26.647 Y-2.566
N50 X27.023 Y-2.208
N51 X27.178 Y-1.711
N52 X27.073 Y-1.202
N53 X25.952 Y1.156
N54 X25.537 Y1.785
N55 X25.412 Y2.128
N56 X25.554 Y2.465
N57 X26.824 Y3.769
N58 X26.964 Y4.16
N59 X26.76 Y4.522
N60 X25.869 Y5.038
N61 X24.89 Y5.357
N62 X23.865 Y5.465
N63 X0
N64 X-23.865
N65 X-25.232 Y5.271
N66 X-26.491 Y4.705
N67 X-27.543 Y3.81
N68 X-28.304 Y2.658
N69 X-29.744 Y-.335
N70 X-31.054 Y-2.533
N71 X-32.666 Y-4.521
N72 X-32.82 Y-4.915
N73 X-32.653 Y-5.305
N74 X-32.26 Y-5.465
N75 X32.271
N76 X32.67 Y-5.302
N77 X32.84 Y-4.906
N78 X32.685 Y-4.504
N79 X31.528 Y-3.142
N80 X30.501 Y-1.681
N81 X29.504 Y.129
N82 X28.304 Y2.658
N83 X27.648 Y3.687
N84 X26.76 Y4.522
N85 X26.572 Y4.796
N86 X26.597 Y5.127
N87 X26.824 Y5.369
N88 X28.533 Y6.258
N89 X28.756 Y6.491
N90 X28.79 Y6.811
N91 X28.622 Y7.086
N92 X27.92 Y7.544
N93 X27.132 Y7.828
N94 X26.3 Y7.925
N95 X-26.3
N96 X-27.393 Y7.757
N97 X-28.385 Y7.267
N98 X-29.184 Y6.502
N99 X-29.715 Y5.532
N100 X-29.928 Y5.
N101 X-31.726 Y1.183
N102 X-32.887 Y-.864
N103 X-34.078 Y-2.407
N104 X-35.494 Y-3.747
N105 X-36.5 Y-4.408
N106 X-37.91 Y-5.11
N107 X-38.899 Y-5.476
N108 X-39.928 Y-5.708
N109 X-41.35 Y-5.862
N110 X-42.779 Y-5.798
N111 X-43.345 Y-5.912
N112 X-43.768 Y-6.304
N113 X-43.925 Y-6.86
N114 X-43.782 Y-7.392
N115 X-43.392 Y-7.782
N116 X-42.86 Y-7.925
N117 X41.582
N118 X42.875
N119 X43.4 Y-7.784
N120 X43.784 Y-7.4
N121 X43.925 Y-6.875
N122 X43.766 Y-6.319
N123 X43.337 Y-5.931
N124 X42.768 Y-5.83
N125 X41.582 Y-5.924
N126 X40.122 Y-5.767
N127 X38.69 Y-5.444
N128 X37.529 Y-4.943
N129 X36.412 Y-4.351
N130 X35.425 Y-3.677
N131 X34.823 Y-3.151
N132 X33.663 Y-1.87
N133 X32.645 Y-.474
N134 X31.726 Y1.183
N135 X29.715 Y5.532
N136 X29.272 Y6.382
N137 X28.622 Y7.086
N138 X28.445 Y7.411
N139 X28.54 Y7.768
N140 X28.854 Y7.963
N141 X30.761 Y8.302
N142 X31.04 Y8.455
N143 X31.171 Y8.746
N144 X31.099 Y9.057
N145 X30.569 Y9.658
N146 X29.87 Y10.048
N147 X29.08 Y10.183
N148 X-29.08
N149 X-29.889 Y10.041
N150 X-30.601 Y9.631
N151 X-31.131 Y9.003
N152 X-31.414 Y8.233
N153 X-31.673 Y6.864
N154 X-31.978 Y5.949
N155 X-33.767 Y2.151
N156 X-34.612 Y.634
N157 X-35.404 Y-.471
N158 X-36.312 Y-1.483
N159 X-37.507 Y-2.386
N160 X-39.431 Y-3.284
N161 X-41.233 Y-3.595
N162 X-43.207 Y-3.5
N163 X-44.595 Y-3.179
N164 X-45.164 Y-3.149
N165 X-45.687 Y-3.377
N166 X-46.052 Y-3.814
N167 X-46.183 Y-4.369
N168 Y-6.86
N169 X-46.021 Y-7.887
N170 X-45.549 Y-8.813
N171 X-44.813 Y-9.549
N172 X-43.887 Y-10.021
N173 X-42.86 Y-10.183
N174 X41.582
N175 X42.875
N176 X43.897 Y-10.021
N177 X44.819 Y-9.551
N178 X45.551 Y-8.819
N179 X46.021 Y-7.897
N180 X46.183 Y-6.875
N181 Y-4.31
N182 X46.05 Y-3.755
N183 X45.678 Y-3.322
N184 X45.149 Y-3.106
N185 X44.581 Y-3.154
N186 X43.704 Y-3.43
N187 X41.869 Y-3.651
N188 X40.932 Y-3.605
N189 X40.005 Y-3.455
N190 X38.867 Y-3.087
N191 X37.458 Y-2.35
N192 X36.91 Y-1.976
N193 X35.665 Y-.756
N194 X34.613 Y.634
N195 X33.767 Y2.151
N196 X31.887 Y6.169
N197 X31.601 Y7.19
N198 X31.414 Y8.233
N199 X31.099 Y9.057
N200 X31.029 Y9.388
N201 X31.187 Y9.688
N202 X31.499 Y9.818
N203 X33.907 Y9.94
N204 X34.19 Y10.045
N205 X34.36 Y10.294
N206 X34.534 Y10.869
N207 X34.79 Y11.419
N208 X35.832 Y12.762
N209 X35.841 Y12.771
N210 X35.876 Y12.916
N211 X35.753 Y13.
N212 X-35.753
N213 X-35.876 Y12.916
N214 X-35.841 Y12.771
N215 X-35.832 Y12.762
N216 X-34.79 Y11.419
N217 X-34.534 Y10.869
N218 X-34.294 Y10.075
N219 X-34.186 Y8.732
N220 X-34.441 Y7.389
N221 X-34.534 Y7.131
N222 X-35.037 Y6.045
N223 X-36.311 Y3.358
N224 X-37.067 Y2.015
N225 X-37.353 Y1.599
N226 X-38.126 Y.672
N227 X-38.763 Y.135
N228 X-40.172 Y-.567
N229 X-40.557 Y-.672
N230 X-41.582 Y-.8
N231 X-42.992 Y-.692
N232 X-43.135 Y-.672
N233 X-44.401 Y-.301
N234 X-45.811 Y.605
N235 X-45.882 Y.672
N236 X-46.917 Y2.015
N237 X-47.22 Y2.508
N238 X-47.668 Y3.358
N239 X-48.127 Y4.702
N240 X-48.63 Y6.432
N241 X-48.795 Y7.234
N242 X-48.907 Y7.316
N243 X-49. Y7.213
N244 Y-8.732
N245 X-48.841 Y-10.022
N246 X-48.817 Y-10.126
N247 X-48.647 Y-10.613
N248 X-48.603 Y-10.705
N249 X-48.211 Y-11.357
N250 X-48.122 Y-11.467
N251 X-47.273 Y-12.25
N252 X-47.156 Y-12.331
N253 X-46.319 Y-12.745
N254 X-46.245 Y-12.774
N255 X-45.867 Y-12.891
N256 X-45.752 Y-12.912
N257 X-44.401 Y-13.
N258 X41.582
N259 X44.401
N260 X45.752 Y-12.912
N261 X45.867 Y-12.891
N262 X46.245 Y-12.774
N263 X46.319 Y-12.745
N264 X47.156 Y-12.331
N265 X47.273 Y-12.25
N266 X48.122 Y-11.467
N267 X48.211 Y-11.357
N268 X48.603 Y-10.705
N269 X48.647 Y-10.613
N270 X48.817 Y-10.126
N271 X48.841 Y-10.022
N272 X49. Y-8.732
N273 Y7.217
N274 X48.914 Y7.314
N275 X48.808 Y7.24
N276 X48.514 Y6.045
N277 X48.164 Y4.702
N278 X47.628 Y3.358
N279 X47.22 Y2.567
N280 X46.944 Y2.015
N281 X45.869 Y.672
N282 X45.811 Y.62
N283 X44.401 Y-.245
N284 X43.12 Y-.672
N285 X42.992 Y-.705
N286 X41.582 Y-.849
N287 X40.437 Y-.672
N288 X40.172 Y-.591
N289 X38.763 Y.146
N290 X38.161 Y.672
N291 X37.353 Y1.643
N292 X37.067 Y2.015
N293 X36.311 Y3.358
N294 X35.037 Y6.045
N295 X34.534 Y7.131
N296 X34.441 Y7.389
N297 X34.186 Y8.732
N298 X34.294 Y10.075
N299 X34.36 Y10.294
N300 X34.326 Y10.668
N301 X34.042 Y10.913
N302 X33.668 Y10.891
N303 X8.115 Y-1.183
N304 X7.841 Y-1.521
N305 X7.937 Y-1.945
N306 X8.328 Y-2.135
N307 X23.49 Z34.092 F600.
N308 X24.204 Y-1.886 Z34.072
N309 X24.608 Y-1.246 Z34.052
N310 X24.527 Y-.494 Z34.033
N311 X23.859 Y.915 Z33.993
N312 X23.574 Y1.362 Z33.979
N313 X23.111 Y1.778 F1500.
N314 X22.547 Y2.044
N315 X21.93 Y2.135
N316 X-21.93
N317 X-22.714 Y1.986
N318 X-23.388 Y1.559
N319 X-23.859 Y.915
N320 X-24.527 Y-.494
N321 X-24.636 Y-1.056
N322 X-24.461 Y-1.6
N323 X-24.044 Y-1.992
N324 X-23.49 Y-2.135
N325 X0
N326 X23.49
N327 X24.044 Y-1.992
N328 X24.46 Y-1.6
N329 X24.636 Y-1.056
N330 X24.527 Y-.494
N331 X23.859 Y.915
N332 X23.574 Y1.362
N333 X23.459 Y1.68
N334 X23.574 Y1.999
N335 X24.756 Y3.427
N336 X24.865 Y3.821
N337 X24.643 Y4.165
N338 X23.796 Y4.607
N339 X22.881 Y4.879
N340 X21.93 Y4.971
N341 X-21.93
N342 X-23.313 Y4.775
N343 X-24.587 Y4.201
N344 X-25.651 Y3.296
N345 X-26.421 Y2.131
N346 X-29.062 Y-3.424
N347 X-29.167 Y-3.953
N348 X-29.004 Y-4.466
N349 X-28.612 Y-4.836
N350 X-28.091 Y-4.971
N351 X0
N352 X28.091
N353 X28.612 Y-4.836
N354 X29.004 Y-4.466
N355 X29.167 Y-3.953
N356 X29.062 Y-3.424
N357 X26.421 Y2.131
N358 X25.673 Y3.271
N359 X24.643 Y4.165
N360 X24.428 Y4.477
N361 X24.493 Y4.851
N362 X25.764 Y6.869
N363 X25.84 Y7.168
N364 X25.727 Y7.454
N365 X25.467 Y7.619
N366 X24.528 Y7.74
N367 X-24.528
N368 X-25.616 Y7.577
N369 X-26.609 Y7.104
N370 X-27.42 Y6.361
N371 X-27.979 Y5.414
N372 X-28.372 Y4.478
N373 X-31.248 Y-1.583
N374 X-32.142 Y-3.364
N375 X-33.248 Y-5.022
N376 X-35.02 Y-6.899
N377 X-35.164 Y-7.247
N378 X-35.019 Y-7.596
N379 X-34.671 Y-7.74
N380 X0
N381 X34.671
N382 X35.02 Y-7.596
N383 X35.165 Y-7.248
N384 X35.022 Y-6.899
N385 X33.85 Y-5.714
N386 X32.8 Y-4.392
N387 X31.911 Y-2.957
N388 X28.372 Y4.478
N389 X27.979 Y5.414
N390 X27.388 Y6.401
N391 X26.523 Y7.161
N392 X25.467 Y7.619
N393 X25.257 Y7.733
N394 X25.124 Y7.932
N395 X24.437 Y9.818
N396 X24.254 Y10.057
N397 X23.967 Y10.147
N398 X-27.447
N399 X-28.258 Y10.006
N400 X-28.973 Y9.597
N401 X-29.507 Y8.971
N402 X-29.798 Y8.2
N403 X-30.052 Y6.857
N404 X-30.486 Y5.648
N405 X-33.423 Y-.551
N406 X-34.182 Y-2.087
N407 X-35.127 Y-3.517
N408 X-36.742 Y-5.217
N409 X-37.769 Y-5.936
N410 X-38.95 Y-6.496
N411 X-39.687 Y-6.73
N412 X-41.582 Y-7.015
N413 X-43.29 Y-6.851
N414 X-44.449 Y-6.569
N415 X-45.06 Y-6.545
N416 X-45.618 Y-6.794
N417 X-46.008 Y-7.265
N418 X-46.147 Y-7.86
N419 Y-8.393
N420 X-46.025 Y-9.034
N421 X-45.676 Y-9.586
N422 X-45.148 Y-9.97
N423 X-44.516 Y-10.134
N424 X-44.309 Y-10.147
N425 X41.582
N426 X44.517 Y-10.134
N427 X45.148 Y-9.97
N428 X45.676 Y-9.586
N429 X46.025 Y-9.035
N430 X46.147 Y-8.394
N431 Y-7.847
N432 X46.007 Y-7.251
N433 X45.614 Y-6.781
N434 X45.053 Y-6.536
N435 X44.442 Y-6.567
N436 X43.301 Y-6.854
N437 X41.582 Y-7.025
N438 X39.677 Y-6.733
N439 X38.941 Y-6.497
N440 X37.144 Y-5.549
N441 X35.562 Y-4.021
N442 X34.769 Y-3.003
N443 X34.079 Y-1.911
N444 X30.547 Y5.51
N445 X30.052 Y6.857
N446 X29.798 Y8.2
N447 X29.507 Y8.971
N448 X28.973 Y9.597
N449 X28.258 Y10.006
N450 X27.447 Y10.147
N451 X23.967
N452 X23.66 Y10.253
N453 X23.483 Y10.525
N454 X22.952 Y12.623
N455 X22.775 Y12.895
N456 X22.467 Y13.
N457 X-33.072
N458 X-33.176 Y12.989
N459 X-34.069 Y12.8
N460 X-34.152 Y12.728
N461 X-34.135 Y12.619
N462 X-33.204 Y11.419
N463 X-33.125 Y11.266
N464 X-32.708 Y10.075
N465 X-32.6 Y8.732
N466 X-32.855 Y7.389
N467 X-33.125 Y6.733
N468 X-36. Y.672
N469 X-36.649 Y-.672
N470 X-37.353 Y-1.733
N471 X-37.579 Y-2.015
N472 X-38.763 Y-3.203
N473 X-38.991 Y-3.358
N474 X-40.172 Y-3.919
N475 X-41.582 Y-4.162
N476 X-42.992 Y-4.014
N477 X-44.401 Y-3.622
N478 X-44.936 Y-3.358
N479 X-45.811 Y-2.732
N480 X-46.475 Y-2.015
N481 X-47.22 Y-.851
N482 X-47.321 Y-.672
N483 X-47.921 Y.672
N484 X-48.315 Y2.015
N485 X-48.63 Y3.133
N486 X-48.92 Y4.575
N487 X-49. Y4.567
N488 Y-8.732
N489 X-48.841 Y-10.022
N490 X-48.817 Y-10.126
N491 X-48.647 Y-10.613
N492 X-48.603 Y-10.705
N493 X-48.211 Y-11.357
N494 X-48.122 Y-11.467
N495 X-47.273 Y-12.25
N496 X-47.156 Y-12.331
N497 X-46.319 Y-12.745
N498 X-46.245 Y-12.774
N499 X-45.867 Y-12.891
N500 X-45.752 Y-12.912
N501 X-44.401 Y-13.
N502 X41.582
N503 X44.401
N504 X45.752 Y-12.912
N505 X45.867 Y-12.891
N506 X46.245 Y-12.774
N507 X46.319 Y-12.745
N508 X47.156 Y-12.331
N509 X47.273 Y-12.25
N510 X48.122 Y-11.467
N511 X48.211 Y-11.357
N512 X48.603 Y-10.705
N513 X48.647 Y-10.613
N514 X48.817 Y-10.126
N515 X48.841 Y-10.022
N516 X49. Y-8.732
N517 Y4.572
N518 X48.933 Y4.579
N519 X48.682 Y3.358
N520 X48.346 Y2.015
N521 X47.925 Y.672
N522 X47.22 Y-.74
N523 X46.479 Y-2.015
N524 X45.811 Y-2.728
N525 X44.917 Y-3.358
N526 X44.401 Y-3.608
N527 X42.992 Y-4.018
N528 X41.582 Y-4.172
N529 X40.172 Y-3.924
N530 X38.992 Y-3.358
N531 X38.763 Y-3.201
N532 X37.59 Y-2.015
N533 X37.353 Y-1.719
N534 X36.649 Y-.672
N535 X36. Y.672
N536 X33.125 Y6.733
N537 X32.855 Y7.389
N538 X32.6 Y8.732
N539 X32.708 Y10.075
N540 X33.125 Y11.266
N541 X33.204 Y11.419
N542 X34.135 Y12.619
N543 X34.152 Y12.728
N544 X34.069 Y12.8
N545 X33.176 Y12.989
N546 X33.072 Y13.
N547 X22.467
N548 X22.176 Y12.906
N549 X4.086 Y-.094
N550 X3.88 Y-.446
N551 X4.005 Y-.834
N552 X4.377 Y-1.
N553 X20.344 Z33.558 F600.
N554 X20.967 Y-.783 Z33.54
N555 X21.319 Y-.226 Z33.522
N556 X21.248 Y.429 Z33.505
N557 X20.946 Y.799 Z33.492
N558 X20.506 Y.987 Z33.479
N559 X20.344 Y1. F1500.
N560 X-20.345
N561 X-20.879 Y.845
N562 X-21.249 Y.429
N563 X-21.343 Y-.06
N564 X-21.19 Y-.535
N565 X-20.827 Y-.876
N566 X-20.345 Y-1.
N567 X0
N568 X20.344
N569 X20.827 Y-.876
N570 X21.19 Y-.535
N571 X21.343 Y-.06
N572 X21.248 Y.429
N573 X20.946 Y.799
N574 X20.506 Y.987
N575 X20.243 Y1.117
N576 X20.098 Y1.371
N577 X19.819 Y2.617
N578 X19.644 Y2.897
N579 X19.331 Y3.007
N580 X-20.345
N581 X-21.182 Y2.888
N582 X-21.952 Y2.542
N583 X-22.596 Y1.994
N584 X-23.062 Y1.289
N585 X-24.322 Y-1.367
N586 X-24.43 Y-1.928
N587 X-24.255 Y-2.473
N588 X-23.838 Y-2.865
N589 X-23.284 Y-3.007
N590 X0
N591 X23.284
N592 X23.838 Y-2.865
N593 X24.254 Y-2.473
N594 X24.43 Y-1.928
N595 X24.321 Y-1.367
N596 X23.061 Y1.289
N597 X22.595 Y1.994
N598 X21.952 Y2.542
N599 X21.181 Y2.888
N600 X20.344 Y3.007
N601 X19.331
N602 X19.024 Y3.112
N603 X18.847 Y3.384
N604 X18.316 Y5.467
N605 X18.138 Y5.738
N606 X17.831 Y5.843
N607 X-21.045
N608 X-22.363 Y5.656
N609 X-23.576 Y5.11
N610 X-24.59 Y4.248
N611 X-25.324 Y3.137
N612 X-28.806 Y-4.203
N613 X-28.915 Y-4.764
N614 X-28.739 Y-5.309
N615 X-28.323 Y-5.701
N616 X-27.769 Y-5.843
N617 X0
N618 X27.769
N619 X28.323 Y-5.701
N620 X28.739 Y-5.309
N621 X28.915 Y-4.764
N622 X28.806 Y-4.203
N623 X25.323 Y3.138
N624 X24.59 Y4.248
N625 X23.576 Y5.11
N626 X22.363 Y5.656
N627 X21.046 Y5.843
N628 X17.831
N629 X17.524 Y5.948
N630 X17.347 Y6.22
N631 X16.816 Y8.303
N632 X16.638 Y8.574
N633 X16.331 Y8.68
N634 X-23.955
N635 X-25. Y8.507
N636 X-25.935 Y8.008
N637 X-26.659 Y7.235
N638 X-27.096 Y6.27
N639 X-27.812 Y4.511
N640 X-32.569 Y-5.491
N641 X-33.777 Y-7.489
N642 X-33.92 Y-8.007
N643 X-33.678 Y-8.486
N644 X-33.177 Y-8.68
N645 X0
N646 X33.153
N647 X33.654 Y-8.489
N648 X33.902 Y-8.013
N649 X33.77 Y-7.493
N650 X33.331 Y-6.834
N651 X32.423 Y-5.21
N652 X27.812 Y4.51
N653 X27.096 Y6.27
N654 X26.659 Y7.235
N655 X25.935 Y8.008
N656 X25. Y8.507
N657 X23.955 Y8.68
N658 X16.331
N659 X16.031 Y8.78
N660 X15.851 Y9.04
N661 X15.311 Y10.901
N662 X15.132 Y11.162
N663 X14.831 Y11.262
N664 X-27.593
N665 X-28.289 Y11.116
N666 X-28.869 Y10.704
N667 X-29.234 Y10.093
N668 X-29.324 Y9.387
N669 X-29.282 Y8.871
N670 X-29.307 Y8.408
N671 X-29.562 Y7.065
N672 X-30.121 Y5.67
N673 X-34.757 Y-4.103
N674 X-35.692 Y-5.735
N675 X-36.858 Y-7.166
N676 X-37.964 Y-8.084
N677 X-39.696 Y-8.942
N678 X-40.63 Y-9.155
N679 X-41.582 Y-9.262
N680 X-43.5 Y-9.036
N681 X-44.909 Y-8.605
N682 X-46.034 Y-7.975
N683 X-46.46 Y-7.855
N684 X-46.885 Y-7.98
N685 X-47.177 Y-8.313
N686 X-47.247 Y-8.75
N687 X-47.148 Y-9.551
N688 X-47.091 Y-9.798
N689 X-46.658 Y-10.456
N690 X-46.037 Y-10.941
N691 X-45.293 Y-11.201
N692 X-44.345 Y-11.262
N693 X44.345
N694 X45.295 Y-11.201
N695 X45.859 Y-11.033
N696 X46.362 Y-10.727
N697 X46.783 Y-10.312
N698 X47.088 Y-9.805
N699 X47.148 Y-9.553
N700 X47.247 Y-8.751
N701 X47.177 Y-8.317
N702 X46.885 Y-7.988
N703 X46.463 Y-7.866
N704 X46.041 Y-7.989
N705 X44.866 Y-8.646
N706 X43.457 Y-9.038
N707 X41.38 Y-9.221
N708 X40.37 Y-9.093
N709 X39.391 Y-8.809
N710 X37.982 Y-8.099
N711 X37.048 Y-7.375
N712 X35.667 Y-5.701
N713 X34.757 Y-4.103
N714 X30.145 Y5.617
N715 X29.675 Y6.696
N716 X29.307 Y8.408
N717 X29.324 Y9.387
N718 X29.234 Y10.093
N719 X28.869 Y10.704
N720 X28.289 Y11.116
N721 X27.593 Y11.262
N722 X14.831
N723 X14.57 Y11.336
N724 X14.386 Y11.535
N725 X13.777 Y12.728
N726 X13.592 Y12.926
N727 X13.331 Y13.
N728 X-31.653
N729 X-31.775 Y12.985
N730 X-32.483 Y12.807
N731 X-32.565 Y12.73
N732 X-32.545 Y12.62
N733 X-31.715 Y11.591
N734 X-31.618 Y11.419
N735 X-31.122 Y10.075
N736 X-31.014 Y8.732
N737 X-31.269 Y7.389
N738 X-31.715 Y6.363
N739 X-36.327 Y-3.358
N740 X-37.089 Y-4.702
N741 X-37.353 Y-5.059
N742 X-38.186 Y-6.045
N743 X-38.763 Y-6.541
N744 X-40.172 Y-7.27
N745 X-40.587 Y-7.389
N746 X-41.582 Y-7.524
N747 X-42.935 Y-7.389
N748 X-42.992 Y-7.375
N749 X-44.401 Y-6.943
N750 X-45.811 Y-6.068
N751 X-45.837 Y-6.045
N752 X-46.921 Y-4.702
N753 X-47.22 Y-4.199
N754 X-47.63 Y-3.358
N755 X-48.114 Y-2.015
N756 X-48.513 Y-.672
N757 X-48.63 Y-.123
N758 X-48.788 Y.52
N759 X-48.905 Y.601
N760 X-49. Y.494
N761 Y-8.732
N762 X-48.841 Y-10.022
N763 X-48.817 Y-10.126
N764 X-48.647 Y-10.613
N765 X-48.603 Y-10.705
N766 X-48.211 Y-11.357
N767 X-48.122 Y-11.467
N768 X-47.273 Y-12.25
N769 X-47.156 Y-12.331
N770 X-46.319 Y-12.745
N771 X-46.245 Y-12.774
N772 X-45.867 Y-12.891
N773 X-45.752 Y-12.912
N774 X-44.401 Y-13.
N775 X44.401
N776 X45.752 Y-12.912
N777 X45.867 Y-12.891
N778 X46.245 Y-12.774
N779 X46.319 Y-12.745
N780 X47.156 Y-12.331
N781 X47.273 Y-12.25
N782 X48.122 Y-11.467
N783 X48.211 Y-11.357
N784 X48.603 Y-10.705
N785 X48.647 Y-10.613
N786 X48.817 Y-10.126
N787 X48.841 Y-10.022
N788 X49. Y-8.732
N789 Y.498
N790 X48.91 Y.598
N791 X48.8 Y.521
N792 X48.63 Y-.209
N793 X48.514 Y-.672
N794 X48.139 Y-2.015
N795 X47.637 Y-3.358
N796 X47.22 Y-4.085
N797 X46.897 Y-4.702
N798 X45.845 Y-6.045
N799 X45.811 Y-6.076
N800 X44.401 Y-6.972
N801 X42.992 Y-7.364
N802 X42.749 Y-7.389
N803 X41.582 Y-7.495
N804 X40.673 Y-7.389
N805 X40.172 Y-7.256
N806 X38.763 Y-6.547
N807 X38.166 Y-6.045
N808 X37.353 Y-5.078
N809 X37.089 Y-4.702
N810 X36.327 Y-3.358
N811 X31.715 Y6.362
N812 X31.269 Y7.389
N813 X31.014 Y8.732
N814 X31.122 Y10.075
N815 X31.618 Y11.419
N816 X31.715 Y11.591
N817 X32.545 Y12.62
N818 X32.565 Y12.73
N819 X32.483 Y12.807
N820 X31.775 Y12.985
N821 X31.653 Y13.
N822 X13.331
N823 X13.031 Y12.9
N824 X12.851 Y12.64
N825 X8.813 Y-1.228
N826 X8.82 Y-1.532
N827 X9.003 Y-1.775
N828 X9.293 Y-1.868
N829 X19.896 Z33.234 F600.
N830 X20.611 Y-1.618 Z33.216
N831 X21.015 Y-.979 Z33.198
N832 X20.934 Y-.227 Z33.18
N833 X20.446 Y.801 Z33.154
N834 X19.757 Y1.578 Z33.129
N835 X18.759 Y1.868 Z33.105
N836 X13.331 Z32.979
N837 X-18.76 F1500.
N838 X-19.445 Y1.737
N839 X-20.035 Y1.364
N840 X-20.447 Y.8
N841 X-20.934 Y-.227
N842 X-21.043 Y-.789
N843 X-20.867 Y-1.333
N844 X-20.451 Y-1.725
N845 X-19.897 Y-1.868
N846 X0
N847 X19.896
N848 X20.45 Y-1.725
N849 X20.867 Y-1.333
N850 X21.042 Y-.789
N851 X20.934 Y-.227
N852 X20.446 Y.801
N853 X20.034 Y1.364
N854 X19.445 Y1.737
N855 X18.759 Y1.868
N856 X13.331
N857 X13.024 Y1.973
N858 X12.847 Y2.244
N859 X12.316 Y4.327
N860 X12.138 Y4.598
N861 X11.831 Y4.704
N862 X-18.76
N863 X-20.068 Y4.518
N864 X-21.274 Y3.975
N865 X-22.281 Y3.119
N866 X-23.009 Y2.016
N867 X-25.419 Y-3.063
N868 X-25.528 Y-3.625
N869 X-25.352 Y-4.169
N870 X-24.935 Y-4.561
N871 X-24.381 Y-4.704
N872 X0
N873 X24.381
N874 X24.935 Y-4.561
N875 X25.352 Y-4.169
N876 X25.527 Y-3.625
N877 X25.418 Y-3.063
N878 X23.009 Y2.016
N879 X22.28 Y3.119
N880 X21.273 Y3.975
N881 X20.068 Y4.518
N882 X18.759 Y4.704
N883 X11.831
N884 X11.524 Y4.809
N885 X11.347 Y5.08
N886 X10.816 Y7.163
N887 X10.638 Y7.435
N888 X10.331 Y7.54
N889 X-21.157
N890 X-22.254 Y7.379
N891 X-23.259 Y6.91
N892 X-24.087 Y6.173
N893 X-24.669 Y5.229
N894 X-25.347 Y3.705
N895 X-29.904 Y-5.9
N896 X-30.012 Y-6.461
N897 X-29.837 Y-7.005
N898 X-29.42 Y-7.398
N899 X-28.866 Y-7.54
N900 X0
N901 X28.866
N902 X29.42 Y-7.398
N903 X29.836 Y-7.005
N904 X30.012 Y-6.461
N905 X29.903 Y-5.9
N906 X25.347 Y3.705
N907 X24.669 Y5.229
N908 X24.087 Y6.173
N909 X23.259 Y6.91
N910 X22.254 Y7.379
N911 X21.157 Y7.54
N912 X10.331
N913 X10.024 Y7.645
N914 X9.847 Y7.916
N915 X9.316 Y10.
N916 X9.138 Y10.271
N917 X8.831 Y10.376
N918 X-24.577
N919 X-25.378 Y10.23
N920 X-26.075 Y9.811
N921 X-26.579 Y9.173
N922 X-26.826 Y8.398
N923 X-27.105 Y6.9
N924 X-27.286 Y6.323
N925 X-27.91 Y4.921
N926 X-33.645 Y-7.17
N927 X-34.644 Y-9.077
N928 X-34.789 Y-9.497
N929 X-34.696 Y-9.932
N930 X-34.391 Y-10.257
N931 X-33.962 Y-10.376
N932 X0
N933 X33.885
N934 X34.329 Y-10.254
N935 X34.648 Y-9.92
N936 X34.75 Y-9.471
N937 X34.608 Y-9.033
N938 X33.654 Y-7.189
N939 X27.882 Y4.981
N940 X27.285 Y6.324
N941 X27.105 Y6.9
N942 X26.826 Y8.398
N943 X26.579 Y9.173
N944 X26.075 Y9.811
N945 X25.378 Y10.23
N946 X24.577 Y10.376
N947 X8.831
N948 X8.53 Y10.477
N949 X8.35 Y10.74
N950 X7.812 Y12.636
N951 X7.633 Y12.899
N952 X7.331 Y13.
N953 X-30.233
N954 X-30.375 Y12.979
N955 X-30.897 Y12.817
N956 X-30.978 Y12.735
N957 X-30.953 Y12.622
N958 X-30.306 Y11.869
N959 X-30.032 Y11.419
N960 X-29.536 Y10.075
N961 X-29.429 Y8.732
N962 X-29.683 Y7.389
N963 X-30.28 Y6.045
N964 X-36.016 Y-6.045
N965 X-36.667 Y-7.389
N966 X-37.353 Y-8.382
N967 X-37.637 Y-8.732
N968 X-38.763 Y-9.878
N969 X-39.046 Y-10.075
N970 X-40.172 Y-10.622
N971 X-41.582 Y-10.886
N972 X-42.992 Y-10.746
N973 X-44.401 Y-10.265
N974 X-44.811 Y-10.075
N975 X-45.811 Y-9.404
N976 X-46.461 Y-8.732
N977 X-47.22 Y-7.531
N978 X-47.289 Y-7.389
N979 X-47.9 Y-6.045
N980 X-48.337 Y-4.702
N981 X-48.66 Y-3.358
N982 X-48.921 Y-2.141
N983 X-49. Y-2.149
N984 Y-8.732
N985 X-48.841 Y-10.022
N986 X-48.817 Y-10.126
N987 X-48.647 Y-10.613
N988 X-48.603 Y-10.705
N989 X-48.211 Y-11.357
N990 X-48.122 Y-11.467
N991 X-47.273 Y-12.25
N992 X-47.156 Y-12.331
N993 X-46.319 Y-12.745
N994 X-46.245 Y-12.774
N995 X-45.867 Y-12.891
N996 X-45.752 Y-12.912
N997 X-44.401 Y-13.
N998 X44.401
N999 X45.752 Y-12.912
N1000 X45.867 Y-12.891
N1001 X46.245 Y-12.774
N1002 X46.319 Y-12.745
N1003 X47.156 Y-12.331
N1004 X47.273 Y-12.25
N1005 X48.122 Y-11.467
N1006 X48.211 Y-11.357
N1007 X48.603 Y-10.705
N1008 X48.647 Y-10.613
N1009 X48.817 Y-10.126
N1010 X48.841 Y-10.022
N1011 X49. Y-8.732
N1012 Y-2.149
N1013 X48.921 Y-2.142
N1014 X48.682 Y-3.358
N1015 X48.63 Y-3.569
N1016 X48.322 Y-4.702
N1017 X47.913 Y-6.045
N1018 X47.263 Y-7.389
N1019 X46.441 Y-8.732
N1020 X45.811 Y-9.423
N1021 X44.92 Y-10.075
N1022 X44.401 Y-10.336
N1023 X42.992 Y-10.726
N1024 X41.582 Y-10.817
N1025 X40.172 Y-10.589
N1026 X39.04 Y-10.075
N1027 X38.763 Y-9.893
N1028 X37.583 Y-8.732
N1029 X37.353 Y-8.429
N1030 X36.667 Y-7.389
N1031 X36.016 Y-6.045
N1032 X30.28 Y6.045
N1033 X29.683 Y7.389
N1034 X29.429 Y8.732
N1035 X29.536 Y10.075
N1036 X30.032 Y11.419
N1037 X30.306 Y11.869
N1038 X30.953 Y12.622
N1039 X30.978 Y12.735
N1040 X30.897 Y12.817
N1041 X30.375 Y12.979
N1042 X30.233 Y13.
N1043 X7.331
N1044 X7.022 Y12.893
N1045 X6.845 Y12.617
N1046 X6.877 Y12.291
N1047 X13.178 Y-1.365
N1048 X13.362 Y-1.576
N1049 X13.632 Y-1.655
N1050 X18.006 Z32.868 F600.
N1051 X18.72 Y-1.406 Z32.848
N1052 X19.125 Y-.766 Z32.828
N1053 X19.044 Y-.014 Z32.809
N1054 X18.702 Y.709 Z32.788
N1055 X18.091 Y1.399 Z32.765
N1056 X17.206 Y1.655 Z32.741
N1057 X7.331 Z32.489
N1058 X-17.205 F1500.
N1059 X-17.813 Y1.54
N1060 X-18.336 Y1.209
N1061 X-18.701 Y.709
N1062 X-19.044 Y-.015
N1063 X-19.153 Y-.576
N1064 X-18.977 Y-1.121
N1065 X-18.561 Y-1.513
N1066 X-18.007 Y-1.655
N1067 X0
N1068 X18.006
N1069 X18.56 Y-1.513
N1070 X18.977 Y-1.12
N1071 X19.153 Y-.576
N1072 X19.044 Y-.014
N1073 X18.702 Y.709
N1074 X18.337 Y1.208
N1075 X17.814 Y1.539
N1076 X17.206 Y1.655
N1077 X7.331
N1078 X7.024 Y1.76
N1079 X6.847 Y2.032
N1080 X6.316 Y4.115
N1081 X6.138 Y4.386
N1082 X5.831 Y4.491
N1083 X-17.205
N1084 X-18.455 Y4.314
N1085 X-19.606 Y3.796
N1086 X-20.567 Y2.978
N1087 X-21.263 Y1.925
N1088 X-23.529 Y-2.851
N1089 X-23.638 Y-3.413
N1090 X-23.462 Y-3.957
N1091 X-23.046 Y-4.349
N1092 X-22.492 Y-4.491
N1093 X0
N1094 X22.491
N1095 X23.045 Y-4.349
N1096 X23.462 Y-3.957
N1097 X23.637 Y-3.413
N1098 X23.529 Y-2.851
N1099 X21.265 Y1.923
N1100 X20.57 Y2.977
N1101 X19.608 Y3.795
N1102 X18.457 Y4.314
N1103 X17.206 Y4.491
N1104 X5.831
N1105 X5.524 Y4.597
N1106 X5.347 Y4.868
N1107 X4.816 Y6.951
N1108 X4.638 Y7.222
N1109 X4.331 Y7.328
N1110 X-19.386
N1111 X-20.507 Y7.165
N1112 X-21.535 Y6.691
N1113 X-22.386 Y5.944
N1114 X-22.99 Y4.986
N1115 X-23.601 Y3.614
N1116 X-28.014 Y-5.687
N1117 X-28.123 Y-6.249
N1118 X-27.947 Y-6.793
N1119 X-27.53 Y-7.185
N1120 X-26.977 Y-7.328
N1121 X0
N1122 X26.976
N1123 X27.53 Y-7.185
N1124 X27.947 Y-6.793
N1125 X28.122 Y-6.249
N1126 X28.014 Y-5.687
N1127 X24.875 Y.927
N1128 X22.99 Y4.985
N1129 X22.387 Y5.943
N1130 X21.536 Y6.69
N1131 X20.507 Y7.165
N1132 X19.387 Y7.328
N1133 X4.331
N1134 X4.024 Y7.433
N1135 X3.847 Y7.704
N1136 X3.316 Y9.787
N1137 X3.138 Y10.059
N1138 X2.831 Y10.164
N1139 X-22.743
N1140 X-23.553 Y10.022
N1141 X-24.267 Y9.613
N1142 X-24.799 Y8.986
N1143 X-25.086 Y8.215
N1144 X-25.537 Y6.237
N1145 X-26.164 Y4.83
N1146 X-32.499 Y-8.523
N1147 X-32.607 Y-9.085
N1148 X-32.432 Y-9.629
N1149 X-32.015 Y-10.021
N1150 X-31.461 Y-10.164
N1151 X0
N1152 X31.461
N1153 X32.015 Y-10.021
N1154 X32.431 Y-9.629
N1155 X32.607 Y-9.085
N1156 X32.498 Y-8.523
N1157 X27.438 Y2.143
N1158 X25.537 Y6.238
N1159 X25.086 Y8.215
N1160 X24.799 Y8.986
N1161 X24.267 Y9.613
N1162 X23.553 Y10.022
N1163 X22.743 Y10.164
N1164 X2.831
N1165 X2.524 Y10.269
N1166 X2.347 Y10.54
N1167 X1.816 Y12.623
N1168 X1.638 Y12.895
N1169 X1.331 Y13.
N1170 X-28.821
N1171 X-28.966 Y12.973
N1172 X-29.343 Y12.83
N1173 X-29.423 Y12.739
N1174 X-29.393 Y12.621
N1175 X-28.896 Y12.071
N1176 X-28.478 Y11.419
N1177 X-27.982 Y10.075
N1178 X-27.875 Y8.732
N1179 X-28.129 Y7.389
N1180 X-28.726 Y6.045
N1181 X-36.374 Y-10.075
N1182 X-37.176 Y-11.419
N1183 X-37.353 Y-11.638
N1184 X-38.225 Y-12.629
N1185 X-38.246 Y-12.732
N1186 X-38.17 Y-12.804
N1187 X-37.411 Y-12.986
N1188 X-37.294 Y-13.
N1189 X0
N1190 X37.288
N1191 X37.416 Y-12.983
N1192 X38.073 Y-12.809
N1193 X38.153 Y-12.732
N1194 X38.131 Y-12.624
N1195 X37.353 Y-11.706
N1196 X37.157 Y-11.419
N1197 X36.374 Y-10.075
N1198 X28.896 Y5.69
N1199 X28.726 Y6.045
N1200 X28.129 Y7.389
N1201 X27.875 Y8.732
N1202 X27.982 Y10.075
N1203 X28.478 Y11.419
N1204 X28.896 Y12.071
N1205 X29.393 Y12.621
N1206 X29.423 Y12.739
N1207 X29.343 Y12.83
N1208 X28.966 Y12.973
N1209 X28.821 Y13.
N1210 X1.331
N1211 Z34.989
N1212 G00 Z36.091
N1213 X47.956 Y-11.621
N1214 Z35.479
N1215 G01 Z32.979 F600.
N1216 X48.122 Y-11.467 Z32.974
N1217 X48.211 Y-11.357 Z32.971
N1218 X48.603 Y-10.705 Z32.954
N1219 X48.647 Y-10.613 Z32.952
N1220 X48.817 Y-10.126 Z32.94
N1221 X48.841 Y-10.022 Z32.938
N1222 X49. Y-8.732 Z32.908
N1223 Y-6.225 Z32.852
N1224 X48.784 Y-6.183 Z32.845
N1225 X48.63 Y-6.861 Z32.829
N1226 X48.486 Y-7.389 Z32.817
N1227 X48.095 Y-8.732 Z32.786
N1228 X47.613 Y-10.075 Z32.754
N1229 X47.22 Y-10.763 Z32.736
N1230 X46.819 Y-11.419 Z32.719
N1231 X45.852 Y-12.65 Z32.683
N1232 X45.991 Y-12.853 Z32.676
N1233 X46.246 Y-12.774 Z32.67
N1234 X46.319 Y-12.745 Z32.668
N1235 X47.156 Y-12.331 Z32.647
N1236 X47.272 Y-12.251 Z32.644
N1237 X48.122 Y-11.467 Z32.618
N1238 X48.211 Y-11.357 Z32.615
N1239 X48.603 Y-10.705 Z32.598
N1240 X48.647 Y-10.613 Z32.596
N1241 X48.817 Y-10.126 Z32.584
N1242 X48.841 Y-10.022 Z32.582
N1243 X49. Y-8.732 Z32.552
N1244 Y-6.225 Z32.496
N1245 X48.784 Y-6.183 Z32.489
N1246 X48.63 Y-6.861 F1500.
N1247 X48.486 Y-7.389
N1248 X48.095 Y-8.732
N1249 X47.613 Y-10.075
N1250 X47.22 Y-10.763
N1251 X46.819 Y-11.419
N1252 X45.852 Y-12.65
N1253 X45.847 Y-12.803
N1254 X45.991 Y-12.853
N1255 X46.246 Y-12.774
N1256 X46.319 Y-12.745
N1257 X47.156 Y-12.331
N1258 X47.272 Y-12.251
N1259 X48.122 Y-11.467
N1260 X48.211 Y-11.357
N1261 X48.603 Y-10.705
N1262 X48.647 Y-10.613
N1263 X48.817 Y-10.126
N1264 X48.841 Y-10.022
N1265 X49. Y-8.732
N1266 Y-6.225
N1267 X48.909 Y-6.115
N1268 X48.784 Y-6.183
N1269 Z34.989
N1270 G00 Z36.277
N1271 X-49. Y-8.251
N1272 Z35.479
N1273 G01 Z32.979 F600.
N1274 Y-8.732 Z32.969
N1275 X-48.841 Y-10.022 Z32.94
N1276 X-48.817 Y-10.126 Z32.937
N1277 X-48.647 Y-10.613 Z32.926
N1278 X-48.603 Y-10.705 Z32.924
N1279 X-48.211 Y-11.357 Z32.907
N1280 X-48.122 Y-11.467 Z32.904
N1281 X-47.265 Y-12.258 Z32.878
N1282 X-47.166 Y-12.326 Z32.875
N1283 X-46.318 Y-12.745 Z32.854
N1284 X-46.246 Y-12.774 Z32.853
N1285 X-45.97 Y-12.859 Z32.846
N1286 X-45.8 Y-12.725 Z32.841
N1287 X-45.832 Y-12.648 Z32.839
N1288 X-46.884 Y-11.419 Z32.803
N1289 X-47.22 Y-10.784 Z32.787
N1290 X-47.56 Y-10.075 Z32.77
N1291 X-48.119 Y-8.732 Z32.738
N1292 X-48.475 Y-7.389 Z32.707
N1293 X-48.772 Y-6.199 Z32.68
N1294 X-48.898 Y-6.112 Z32.676
N1295 X-49. Y-6.227 Z32.672
N1296 Y-8.732 Z32.617
N1297 X-48.841 Y-10.022 Z32.588
N1298 X-48.817 Y-10.126 Z32.586
N1299 X-48.647 Y-10.613 Z32.575
N1300 X-48.603 Y-10.705 Z32.572
N1301 X-48.211 Y-11.357 Z32.555
N1302 X-48.122 Y-11.467 Z32.552
N1303 X-47.265 Y-12.258 Z32.527
N1304 X-47.166 Y-12.326 Z32.524
N1305 X-46.318 Y-12.745 Z32.503
N1306 X-46.246 Y-12.774 Z32.501
N1307 X-45.97 Y-12.859 Z32.495
N1308 X-45.8 Y-12.725 Z32.489
N1309 X-45.832 Y-12.648 F1500.
N1310 X-46.884 Y-11.419
N1311 X-47.22 Y-10.784
N1312 X-47.56 Y-10.075
N1313 X-48.119 Y-8.732
N1314 X-48.475 Y-7.389
N1315 X-48.772 Y-6.199
N1316 X-48.898 Y-6.112
N1317 X-49. Y-6.227
N1318 Y-8.732
N1319 X-48.841 Y-10.022
N1320 X-48.817 Y-10.126
N1321 X-48.647 Y-10.613
N1322 X-48.603 Y-10.705
N1323 X-48.211 Y-11.357
N1324 X-48.122 Y-11.467
N1325 X-47.265 Y-12.258
N1326 X-47.166 Y-12.326
N1327 X-46.318 Y-12.745
N1328 X-46.246 Y-12.774
N1329 X-45.97 Y-12.859
N1330 X-45.85 Y-12.837
N1331 X-45.8 Y-12.725
N1332 X-48.194 Y-11.325
N1333 X-48.63 Y-10.127 Z32.449 F600.
N1334 X-48.915 Y-8.85 Z32.409
N1335 X-48.984 Y-8.862 Z32.405
N1336 X-48.841 Y-10.023 Z32.369
N1337 X-48.817 Y-10.126 Z32.366
N1338 X-48.708 Y-10.439 Z32.355
N1339 X-48.647 Y-10.613 Z32.35
N1340 X-48.603 Y-10.705 Z32.346
N1341 X-48.275 Y-11.251 Z32.327
N1342 X-48.231 Y-11.325 Z32.324
N1343 X-48.63 Y-10.127 Z32.283
N1344 X-48.915 Y-8.85 Z32.242
N1345 X-48.984 Y-8.862 Z32.239
N1346 X-48.841 Y-10.023 Z32.202
N1347 X-48.817 Y-10.126 Z32.199
N1348 X-48.708 Y-10.439 Z32.189
N1349 X-48.647 Y-10.613 Z32.183
N1350 X-48.603 Y-10.705 Z32.18
N1351 X-48.275 Y-11.251 Z32.16
N1352 X-48.231 Y-11.325 Z32.157
N1353 X-48.63 Y-10.127 Z32.116
N1354 X-48.915 Y-8.85 Z32.075
N1355 X-48.984 Y-8.862 Z32.072
N1356 X-48.841 Y-10.023 Z32.036
N1357 X-48.817 Y-10.126 Z32.032
N1358 X-48.708 Y-10.439 Z32.022
N1359 X-48.647 Y-10.613 Z32.016
N1360 X-48.603 Y-10.705 Z32.013
N1361 X-48.275 Y-11.251 Z31.993
N1362 X-48.231 Y-11.325 Z31.991
N1363 X-48.63 Y-10.127 Z31.989 F1500.
N1364 X-48.915 Y-8.85
N1365 X-48.984 Y-8.862
N1366 X-48.841 Y-10.023
N1367 X-48.817 Y-10.126
N1368 X-48.708 Y-10.439
N1369 X-48.647 Y-10.613
N1370 X-48.603 Y-10.705
N1371 X-48.275 Y-11.251
N1372 X-48.231 Y-11.325
N1373 X-48.194 Z34.489
N1374 G00 Z35.834
N1375 X-1.626 Y1.655
N1376 Z34.989
N1377 G01 Z32.489 F600.
N1378 X-15.62 Z32.09
N1379 X-16.504 Y1.399 Z32.064
N1380 X-17.115 Y.709 Z32.037
N1381 X-17.459 Y-.015 Z32.014
N1382 X-17.508 Y-.877 Z31.989
N1383 X-17.267 Y-1.283 F1500.
N1384 X-16.883 Y-1.558
N1385 X-16.421 Y-1.655
N1386 X0
N1387 X16.421
N1388 X16.975 Y-1.513
N1389 X17.391 Y-1.121
N1390 X17.567 Y-.576
N1391 X17.458 Y-.015
N1392 X17.114 Y.709
N1393 X16.749 Y1.209
N1394 X16.227 Y1.54
N1395 X15.619 Y1.655
N1396 X-15.62
N1397 X-16.227 Y1.54
N1398 X-16.75 Y1.209
N1399 X-17.115 Y.709
N1400 X-17.459 Y-.015
N1401 X-17.568 Y-.441
N1402 X-17.508 Y-.877
N1403 X-17.527 Y-1.247
N1404 X-17.796 Y-1.502
N1405 X-18.166 Y-1.503
N1406 X-20.371 Y-.627
N1407 X-20.738 Y-.626
N1408 X-21.007 Y-.877
N1409 X-21.943 Y-2.851
N1410 X-22.052 Y-3.413
N1411 X-21.876 Y-3.957
N1412 X-21.46 Y-4.349
N1413 X-20.906 Y-4.491
N1414 X0
N1415 X20.906
N1416 X21.46 Y-4.349
N1417 X21.876 Y-3.957
N1418 X22.052 Y-3.413
N1419 X21.943 Y-2.851
N1420 X19.677 Y1.925
N1421 X18.981 Y2.978
N1422 X18.02 Y3.796
N1423 X16.869 Y4.314
N1424 X15.619 Y4.491
N1425 X-15.62
N1426 X-16.869 Y4.314
N1427 X-18.02 Y3.796
N1428 X-18.982 Y2.978
N1429 X-19.678 Y1.925
N1430 X-21.007 Y-.877
N1431 X-21.234 Y-1.109
N1432 X-21.555 Y-1.154
N1433 X-23.665 Y-.74
N1434 X-23.986 Y-.785
N1435 X-24.212 Y-1.017
N1436 X-26.428 Y-5.687
N1437 X-26.537 Y-6.249
N1438 X-26.361 Y-6.793
N1439 X-25.945 Y-7.185
N1440 X-25.391 Y-7.328
N1441 X0
N1442 X25.391
N1443 X25.945 Y-7.185
N1444 X26.361 Y-6.793
N1445 X26.537 Y-6.249
N1446 X26.428 Y-5.687
N1447 X22.015 Y3.614
N1448 X21.404 Y4.985
N1449 X20.801 Y5.943
N1450 X19.95 Y6.69
N1451 X18.922 Y7.165
N1452 X17.801 Y7.328
N1453 X-17.801
N1454 X-18.921 Y7.165
N1455 X-19.949 Y6.691
N1456 X-20.8 Y5.944
N1457 X-21.404 Y4.986
N1458 X-22.016 Y3.614
N1459 X-24.212 Y-1.017
N1460 X-24.439 Y-1.249
N1461 X-24.76 Y-1.293
N1462 X-26.87 Y-.88
N1463 X-27.191 Y-.924
N1464 X-27.418 Y-1.156
N1465 X-30.913 Y-8.523
N1466 X-31.021 Y-9.085
N1467 X-30.846 Y-9.629
N1468 X-30.429 Y-10.021
N1469 X-29.875 Y-10.164
N1470 X0
N1471 X29.875
N1472 X30.429 Y-10.021
N1473 X30.846 Y-9.629
N1474 X31.021 Y-9.085
N1475 X30.913 Y-8.523
N1476 X24.577 Y4.829
N1477 X23.951 Y6.238
N1478 X23.5 Y8.215
N1479 X23.213 Y8.986
N1480 X22.681 Y9.613
N1481 X21.967 Y10.022
N1482 X21.157 Y10.164
N1483 X-21.157
N1484 X-21.967 Y10.022
N1485 X-22.681 Y9.613
N1486 X-23.213 Y8.986
N1487 X-23.5 Y8.215
N1488 X-23.952 Y6.237
N1489 X-24.578 Y4.83
N1490 X-27.418 Y-1.156
N1491 X-27.644 Y-1.389
N1492 X-27.966 Y-1.433
N1493 X-30.075 Y-1.02
N1494 X-30.397 Y-1.064
N1495 X-30.623 Y-1.296
N1496 X-34.788 Y-10.075
N1497 X-35.433 Y-11.419
N1498 X-35.944 Y-12.191
N1499 X-36.342 Y-12.62
N1500 X-36.377 Y-12.742
N1501 X-36.297 Y-12.842
N1502 X-36.014 Y-12.968
N1503 X-35.867 Y-13.
N1504 X0
N1505 X35.867
N1506 X36.014 Y-12.968
N1507 X36.297 Y-12.842
N1508 X36.377 Y-12.742
N1509 X36.342 Y-12.62
N1510 X35.944 Y-12.191
N1511 X35.433 Y-11.419
N1512 X34.788 Y-10.075
N1513 X27.14 Y6.045
N1514 X26.543 Y7.389
N1515 X26.289 Y8.732
N1516 X26.397 Y10.075
N1517 X26.892 Y11.419
N1518 X27.486 Y12.293
N1519 X27.795 Y12.617
N1520 X27.836 Y12.746
N1521 X27.756 Y12.857
N1522 X27.558 Y12.962
N1523 X27.406 Y13.
N1524 X-27.406
N1525 X-27.558 Y12.962
N1526 X-27.756 Y12.857
N1527 X-27.836 Y12.746
N1528 X-27.795 Y12.617
N1529 X-27.486 Y12.293
N1530 X-26.892 Y11.419
N1531 X-26.397 Y10.075
N1532 X-26.289 Y8.732
N1533 X-26.543 Y7.389
N1534 X-27.14 Y6.045
N1535 X-30.623 Y-1.296
N1536 Z34.489
N1537 G00 Z35.664
N1538 X48.205 Y-11.316
N1539 Z34.989
N1540 G01 Z32.489 F600.
N1541 X48.427 Y-10.998 Z32.476
N1542 X48.603 Y-10.705 Z32.465
N1543 X48.647 Y-10.614 Z32.462
N1544 X48.785 Y-10.218 Z32.449
N1545 X48.817 Y-10.126 Z32.446
N1546 X48.841 Y-10.023 Z32.443
N1547 X48.983 Y-8.867 Z32.407
N1548 X48.947 Y-8.82 Z32.405
N1549 X48.899 Y-8.854 Z32.403
N1550 X48.666 Y-10.075 Z32.364
N1551 X48.63 Y-10.21 Z32.359
N1552 X48.206 Y-11.313 Z32.323
N1553 X48.427 Y-10.998 Z32.309
N1554 X48.603 Y-10.705 Z32.299
N1555 X48.647 Y-10.614 Z32.296
N1556 X48.785 Y-10.218 Z32.283
N1557 X48.817 Y-10.126 Z32.28
N1558 X48.841 Y-10.023 Z32.276
N1559 X48.983 Y-8.867 Z32.24
N1560 X48.947 Y-8.82 Z32.238
N1561 X48.899 Y-8.854 Z32.236
N1562 X48.666 Y-10.075 Z32.197
N1563 X48.63 Y-10.21 Z32.193
N1564 X48.206 Y-11.313 Z32.156
N1565 X48.427 Y-10.998 Z32.143
N1566 X48.603 Y-10.705 Z32.132
N1567 X48.647 Y-10.614 Z32.129
N1568 X48.785 Y-10.218 Z32.116
N1569 X48.817 Y-10.126 Z32.113
N1570 X48.841 Y-10.023 Z32.11
N1571 X48.983 Y-8.867 Z32.073
N1572 X48.947 Y-8.82 Z32.071
N1573 X48.899 Y-8.854 Z32.069
N1574 X48.666 Y-10.075 Z32.03
N1575 X48.63 Y-10.21 Z32.026
N1576 X48.206 Y-11.313 Z31.989
N1577 X48.427 Y-10.998 F1500.
N1578 X48.603 Y-10.705
N1579 X48.647 Y-10.614
N1580 X48.785 Y-10.218
N1581 X48.817 Y-10.126
N1582 X48.841 Y-10.023
N1583 X48.983 Y-8.867
N1584 X48.947 Y-8.82
N1585 X48.899 Y-8.854
N1586 X48.666 Y-10.075
N1587 X48.63 Y-10.21
N1588 X48.206 Y-11.313
N1589 X48.205 Y-11.316 Z34.489
N1590 G00 Z35.744
N1591 X-.515 Y-1.655
N1592 Z34.489
N1593 G01 Z31.989 F600.
N1594 X0 Z31.974
N1595 X14.835 Z31.532
N1596 X15.51 Y-1.436 Z31.511
N1597 X15.927 Y-.861 Z31.489
N1598 X15.981 Y-.433 F1500.
N1599 X15.872 Y-.015
N1600 X15.529 Y.709
N1601 X15.164 Y1.209
N1602 X14.641 Y1.54
N1603 X14.033 Y1.655
N1604 X-14.034
N1605 X-14.642 Y1.54
N1606 X-15.164 Y1.209
N1607 X-15.529 Y.709
N1608 X-15.873 Y-.015
N1609 X-15.981 Y-.576
N1610 X-15.806 Y-1.121
N1611 X-15.389 Y-1.513
N1612 X-14.835 Y-1.655
N1613 X0
N1614 X14.835
N1615 X15.302 Y-1.556
N1616 X15.689 Y-1.275
N1617 X15.927 Y-.861
N1618 X16.053 Y-.657
N1619 X18.027 Y1.272
N1620 X18.17 Y1.542
N1621 X18.129 Y1.844
N1622 X18.091 Y1.925
N1623 X17.395 Y2.978
N1624 X16.434 Y3.796
N1625 X15.283 Y4.314
N1626 X14.033 Y4.491
N1627 X-14.034
N1628 X-15.284 Y4.314
N1629 X-16.434 Y3.796
N1630 X-17.396 Y2.978
N1631 X-18.092 Y1.925
N1632 X-20.358 Y-2.851
N1633 X-20.466 Y-3.413
N1634 X-20.291 Y-3.957
N1635 X-19.874 Y-4.349
N1636 X-19.32 Y-4.491
N1637 X0
N1638 X19.32
N1639 X19.874 Y-4.349
N1640 X20.29 Y-3.957
N1641 X20.466 Y-3.413
N1642 X20.357 Y-2.851
N1643 X18.129 Y1.844
N1644 X18.093 Y2.166
N1645 X18.261 Y2.443
N1646 X19.932 Y3.837
N1647 X20.099 Y4.108
N1648 X20.068 Y4.424
N1649 X19.819 Y4.985
N1650 X19.215 Y5.943
N1651 X18.364 Y6.69
N1652 X17.336 Y7.165
N1653 X16.215 Y7.328
N1654 X-16.215
N1655 X-17.335 Y7.165
N1656 X-18.363 Y6.691
N1657 X-19.214 Y5.944
N1658 X-19.818 Y4.986
N1659 X-20.43 Y3.614
N1660 X-24.842 Y-5.687
N1661 X-24.951 Y-6.249
N1662 X-24.775 Y-6.793
N1663 X-24.359 Y-7.185
N1664 X-23.805 Y-7.328
N1665 X0
N1666 X23.805
N1667 X24.359 Y-7.185
N1668 X24.775 Y-6.793
N1669 X24.951 Y-6.249
N1670 X24.842 Y-5.687
N1671 X20.429 Y3.614
N1672 X20.068 Y4.424
N1673 X20.038 Y4.742
N1674 X20.207 Y5.014
N1675 X21.981 Y6.474
N1676 X22.138 Y6.704
N1677 X22.148 Y6.983
N1678 X21.914 Y8.215
N1679 X21.627 Y8.986
N1680 X21.095 Y9.613
N1681 X20.382 Y10.022
N1682 X19.571 Y10.164
N1683 X-19.571
N1684 X-20.382 Y10.022
N1685 X-21.095 Y9.613
N1686 X-21.627 Y8.986
N1687 X-21.914 Y8.215
N1688 X-22.366 Y6.237
N1689 X-22.992 Y4.83
N1690 X-29.327 Y-8.523
N1691 X-29.436 Y-9.085
N1692 X-29.26 Y-9.629
N1693 X-28.843 Y-10.021
N1694 X-28.29 Y-10.164
N1695 X0
N1696 X28.289
N1697 X28.843 Y-10.021
N1698 X29.26 Y-9.629
N1699 X29.436 Y-9.085
N1700 X29.327 Y-8.523
N1701 X22.992 Y4.829
N1702 X22.365 Y6.238
N1703 X22.148 Y6.983
N1704 X22.178 Y7.313
N1705 X22.407 Y7.551
N1706 X24.45 Y8.582
N1707 X24.64 Y8.749
N1708 X24.724 Y8.988
N1709 X24.811 Y10.075
N1710 X25.307 Y11.419
N1711 X26.077 Y12.492
N1712 X26.185 Y12.6
N1713 X26.248 Y12.759
N1714 X26.175 Y12.914
N1715 X26.147 Y12.938
N1716 X25.983 Y13.
N1717 X-25.983
N1718 X-26.147 Y12.938
N1719 X-26.175 Y12.914
N1720 X-26.248 Y12.759
N1721 X-26.185 Y12.6
N1722 X-26.077 Y12.492
N1723 X-25.307 Y11.419
N1724 X-24.811 Y10.075
N1725 X-24.703 Y8.732
N1726 X-24.958 Y7.389
N1727 X-25.555 Y6.045
N1728 X-33.202 Y-10.075
N1729 X-33.847 Y-11.419
N1730 X-34.534 Y-12.4
N1731 X-34.74 Y-12.61
N1732 X-34.789 Y-12.752
N1733 X-34.712 Y-12.881
N1734 X-34.606 Y-12.952
N1735 X-34.448 Y-13.
N1736 X0
N1737 X34.448
N1738 X34.606 Y-12.952
N1739 X34.712 Y-12.881
N1740 X34.79 Y-12.752
N1741 X34.74 Y-12.61
N1742 X34.534 Y-12.4
N1743 X33.847 Y-11.419
N1744 X33.202 Y-10.075
N1745 X25.554 Y6.045
N1746 X24.958 Y7.389
N1747 X24.703 Y8.732
N1748 X24.724 Y8.988
N1749 X24.64 Y9.308
N1750 X24.375 Y9.505
N1751 X24.044 Y9.494
N1752 X-2.227 Y-.689
N1753 X-2.483 Y-.912
N1754 X-2.537 Y-1.247
N1755 X-2.365 Y-1.54
N1756 X-2.046 Y-1.655
N1757 X0 Z31.435 F600.
N1758 X13.249 Z31.081
N1759 X13.963 Y-1.406 Z31.06
N1760 X14.368 Y-.767 Z31.04
N1761 X14.286 Y-.015 Z31.019
N1762 X13.943 Y.709 Z30.998
N1763 X13.783 Y.978 Z30.989
N1764 X13.196 Y1.476 F1500.
N1765 X12.447 Y1.655
N1766 X-12.448
N1767 X-13.056 Y1.54
N1768 X-13.579 Y1.209
N1769 X-13.943 Y.709
N1770 X-14.287 Y-.015
N1771 X-14.396 Y-.576
N1772 X-14.22 Y-1.121
N1773 X-13.804 Y-1.513
N1774 X-13.25 Y-1.655
N1775 X0
N1776 X13.249
N1777 X13.803 Y-1.513
N1778 X14.22 Y-1.121
N1779 X14.395 Y-.576
N1780 X14.286 Y-.015
N1781 X13.943 Y.709
N1782 X13.783 Y.978
N1783 X13.687 Y1.305
N1784 X13.824 Y1.618
N1785 X15.079 Y2.939
N1786 X15.214 Y3.335
N1787 X15.001 Y3.695
N1788 X14.21 Y4.131
N1789 X13.347 Y4.4
N1790 X12.447 Y4.491
N1791 X-12.448
N1792 X-13.698 Y4.314
N1793 X-14.849 Y3.796
N1794 X-15.81 Y2.978
N1795 X-16.506 Y1.925
N1796 X-18.772 Y-2.851
N1797 X-18.881 Y-3.413
N1798 X-18.705 Y-3.957
N1799 X-18.288 Y-4.349
N1800 X-17.734 Y-4.491
N1801 X0
N1802 X17.734
N1803 X18.288 Y-4.349
N1804 X18.705 Y-3.957
N1805 X18.88 Y-3.413
N1806 X18.771 Y-2.851
N1807 X16.505 Y1.925
N1808 X15.87 Y2.909
N1809 X15.001 Y3.695
N1810 X14.788 Y4.056
N1811 X14.925 Y4.452
N1812 X16.517 Y6.112
N1813 X16.651 Y6.388
N1814 X16.598 Y6.691
N1815 X16.379 Y6.905
N1816 X15.509 Y7.221
N1817 X14.59 Y7.328
N1818 X-14.59
N1819 X-15.727 Y7.163
N1820 X-16.771 Y6.681
N1821 X-17.635 Y5.923
N1822 X-18.248 Y4.95
N1823 X-18.844 Y3.614
N1824 X-23.257 Y-5.687
N1825 X-23.365 Y-6.249
N1826 X-23.19 Y-6.793
N1827 X-22.773 Y-7.185
N1828 X-22.219 Y-7.328
N1829 X0
N1830 X22.219
N1831 X22.773 Y-7.185
N1832 X23.19 Y-6.793
N1833 X23.365 Y-6.249
N1834 X23.256 Y-5.687
N1835 X18.843 Y3.614
N1836 X18.249 Y4.949
N1837 X17.782 Y5.74
N1838 X17.148 Y6.404
N1839 X16.379 Y6.905
N1840 X16.123 Y7.211
N1841 X15.359 Y9.805
N1842 X15.179 Y10.064
N1843 X14.879 Y10.164
N1844 X-17.989
N1845 X-18.817 Y10.015
N1846 X-19.54 Y9.587
N1847 X-20.07 Y8.934
N1848 X-20.338 Y8.137
N1849 X-20.497 Y7.172
N1850 X-20.78 Y6.237
N1851 X-21.406 Y4.83
N1852 X-27.741 Y-8.523
N1853 X-27.85 Y-9.085
N1854 X-27.674 Y-9.629
N1855 X-27.258 Y-10.021
N1856 X-26.704 Y-10.164
N1857 X0
N1858 X26.704
N1859 X27.258 Y-10.021
N1860 X27.674 Y-9.629
N1861 X27.85 Y-9.085
N1862 X27.741 Y-8.523
N1863 X21.406 Y4.829
N1864 X20.78 Y6.238
N1865 X20.497 Y7.173
N1866 X20.338 Y8.137
N1867 X20.07 Y8.934
N1868 X19.54 Y9.587
N1869 X18.817 Y10.015
N1870 X17.989 Y10.164
N1871 X14.879
N1872 X14.572 Y10.269
N1873 X14.395 Y10.54
N1874 X13.864 Y12.623
N1875 X13.686 Y12.895
N1876 X13.379 Y13.
N1877 X-24.425
N1878 X-24.643 Y12.865
N1879 X-24.62 Y12.609
N1880 X-23.721 Y11.419
N1881 X-23.258 Y10.217
N1882 X-23.225 Y10.075
N1883 X-23.117 Y8.732
N1884 X-23.258 Y7.783
N1885 X-23.372 Y7.389
N1886 X-23.969 Y6.045
N1887 X-31.715 Y-10.283
N1888 X-32.261 Y-11.419
N1889 X-33.132 Y-12.596
N1890 X-33.186 Y-12.853
N1891 X-32.968 Y-13.
N1892 X0
N1893 X32.968
N1894 X33.186 Y-12.853
N1895 X33.132 Y-12.596
N1896 X32.261 Y-11.419
N1897 X31.715 Y-10.282
N1898 X23.968 Y6.045
N1899 X23.372 Y7.389
N1900 X23.258 Y7.783
N1901 X23.117 Y8.732
N1902 X23.225 Y10.075
N1903 X23.258 Y10.217
N1904 X23.721 Y11.419
N1905 X24.62 Y12.609
N1906 X24.643 Y12.865
N1907 X24.425 Y13.
N1908 X13.379
N1909 X13.073 Y12.895
N1910 X-4.545 Y-.76
N1911 X-4.737 Y-1.113
N1912 X-4.606 Y-1.493
N1913 X-4.238 Y-1.655
N1914 X0 Z30.886 F600.
N1915 X11.665 Z30.603
N1916 X12.379 Y-1.405 Z30.584
N1917 X12.783 Y-.765 Z30.565
N1918 X12.701 Y-.013 Z30.546
N1919 X12.357 Y.711 Z30.527
N1920 X11.875 Y1.309 Z30.508
N1921 X11.177 Y1.625 Z30.489
N1922 X10.862 Y1.655 F1500.
N1923 X-10.863
N1924 X-11.47 Y1.539
N1925 X-11.992 Y1.21
N1926 X-12.357 Y.711
N1927 X-12.702 Y-.013
N1928 X-12.811 Y-.575
N1929 X-12.636 Y-1.12
N1930 X-12.219 Y-1.512
N1931 X-11.664 Y-1.655
N1932 X0
N1933 X11.665
N1934 X12.219 Y-1.512
N1935 X12.636 Y-1.12
N1936 X12.811 Y-.575
N1937 X12.701 Y-.013
N1938 X12.357 Y.711
N1939 X11.875 Y1.309
N1940 X11.177 Y1.625
N1941 X10.891 Y1.792
N1942 X10.772 Y2.102
N1943 X10.721 Y4.005
N1944 X10.57 Y4.35
N1945 X10.221 Y4.491
N1946 X-10.863
N1947 X-12.111 Y4.314
N1948 X-13.261 Y3.797
N1949 X-14.222 Y2.981
N1950 X-14.919 Y1.93
N1951 X-15.973 Y-.291
N1952 X-17.186 Y-2.851
N1953 X-17.294 Y-3.413
N1954 X-17.119 Y-3.957
N1955 X-16.702 Y-4.349
N1956 X-16.148 Y-4.491
N1957 X0
N1958 X16.148
N1959 X16.702 Y-4.349
N1960 X17.119 Y-3.957
N1961 X17.294 Y-3.412
N1962 X17.186 Y-2.851
N1963 X16.604 Y-1.624
N1964 X14.918 Y1.931
N1965 X14.221 Y2.982
N1966 X13.26 Y3.798
N1967 X12.111 Y4.314
N1968 X10.862 Y4.491
N1969 X10.221
N1970 X9.915 Y4.597
N1971 X9.737 Y4.868
N1972 X9.206 Y6.951
N1973 X9.028 Y7.222
N1974 X8.721 Y7.328
N1975 X-13.059
N1976 X-14.177 Y7.164
N1977 X-15.201 Y6.686
N1978 X-16.045 Y5.934
N1979 X-16.637 Y4.972
N1980 X-18.535 Y.925
N1981 X-21.67 Y-5.687
N1982 X-21.779 Y-6.249
N1983 X-21.603 Y-6.793
N1984 X-21.187 Y-7.185
N1985 X-20.633 Y-7.328
N1986 X0
N1987 X20.633
N1988 X21.187 Y-7.185
N1989 X21.603 Y-6.793
N1990 X21.779 Y-6.249
N1991 X21.67 Y-5.687
N1992 X19.167 Y-.411
N1993 X17.261 Y3.607
N1994 X16.637 Y4.972
N1995 X16.045 Y5.934
N1996 X15.201 Y6.686
N1997 X14.177 Y7.164
N1998 X13.059 Y7.328
N1999 X8.721
N2000 X8.415 Y7.433
N2001 X8.237 Y7.704
N2002 X7.706 Y9.787
N2003 X7.528 Y10.059
N2004 X7.221 Y10.164
N2005 X-16.4
N2006 X-17.21 Y10.022
N2007 X-17.924 Y9.613
N2008 X-18.456 Y8.986
N2009 X-18.743 Y8.215
N2010 X-18.999 Y6.86
N2011 X-19.27 Y6.032
N2012 X-21.097 Y2.142
N2013 X-26.155 Y-8.523
N2014 X-26.264 Y-9.085
N2015 X-26.088 Y-9.629
N2016 X-25.672 Y-10.021
N2017 X-25.118 Y-10.164
N2018 X0
N2019 X25.118
N2020 X25.672 Y-10.021
N2021 X26.088 Y-9.629
N2022 X26.264 Y-9.085
N2023 X26.155 Y-8.523
N2024 X21.731 Y.802
N2025 X19.822 Y4.826
N2026 X19.174 Y6.267
N2027 X18.743 Y8.215
N2028 X18.456 Y8.986
N2029 X17.924 Y9.613
N2030 X17.21 Y10.022
N2031 X16.4 Y10.164
N2032 X7.221
N2033 X6.915 Y10.269
N2034 X6.737 Y10.54
N2035 X6.206 Y12.623
N2036 X6.028 Y12.895
N2037 X5.721 Y13.
N2038 X-23.059
N2039 X-23.192 Y12.917
N2040 X-23.176 Y12.761
N2041 X-22.135 Y11.419
N2042 X-21.848 Y10.787
N2043 X-21.639 Y10.075
N2044 X-21.531 Y8.732
N2045 X-21.786 Y7.389
N2046 X-21.848 Y7.213
N2047 X-22.383 Y6.045
N2048 X-23.659 Y3.358
N2049 X-30.306 Y-10.655
N2050 X-30.676 Y-11.419
N2051 X-31.65 Y-12.675
N2052 X-31.672 Y-12.887
N2053 X-31.491 Y-13.
N2054 X0
N2055 X31.491
N2056 X31.672 Y-12.887
N2057 X31.65 Y-12.676
N2058 X30.676 Y-11.419
N2059 X30.306 Y-10.655
N2060 X23.659 Y3.358
N2061 X23.258 Y4.2
N2062 X23.022 Y4.702
N2063 X22.382 Y6.045
N2064 X21.848 Y7.213
N2065 X21.786 Y7.389
N2066 X21.531 Y8.732
N2067 X21.639 Y10.075
N2068 X21.848 Y10.787
N2069 X22.135 Y11.419
N2070 X23.176 Y12.761
N2071 X23.192 Y12.917
N2072 X23.059 Y13.
N2073 X5.721
N2074 X5.44 Y12.913
N2075 X5.256 Y12.683
N2076 X-.126 Y-.971
N2077 X-.142 Y-1.29
N2078 X.037 Y-1.553
N2079 X.339 Y-1.655
N2080 X10.078 Z30.223 F600.
N2081 X10.794 Y-1.405 Z30.202
N2082 X11.198 Y-.764 Z30.181
N2083 X11.116 Y-.01 Z30.159
N2084 X10.772 Y.712 Z30.137
N2085 X10.161 Y1.399 Z30.112
N2086 X9.278 Y1.655 Z30.087
N2087 X5.721 Z29.989
N2088 X-9.278 F1500.
N2089 X-9.885 Y1.54
N2090 X-10.407 Y1.21
N2091 X-10.772 Y.712
N2092 X-11.116 Y-.01
N2093 X-11.226 Y-.573
N2094 X-11.05 Y-1.118
N2095 X-10.633 Y-1.512
N2096 X-10.078 Y-1.655
N2097 X0
N2098 X10.078
N2099 X10.633 Y-1.512
N2100 X11.05 Y-1.119
N2101 X11.226 Y-.573
N2102 X11.116 Y-.01
N2103 X10.772 Y.712
N2104 X10.407 Y1.21
N2105 X9.885 Y1.539
N2106 X9.278 Y1.655
N2107 X5.721
N2108 X5.414 Y1.76
N2109 X5.237 Y2.031
N2110 X4.706 Y4.115
N2111 X4.528 Y4.387
N2112 X4.221 Y4.492
N2113 X-9.278
N2114 X-10.526 Y4.315
N2115 X-11.675 Y3.799
N2116 X-12.636 Y2.983
N2117 X-13.333 Y1.933
N2118 X-14.39 Y-.296
N2119 X-15.601 Y-2.852
N2120 X-15.71 Y-3.413
N2121 X-15.534 Y-3.958
N2122 X-15.118 Y-4.35
N2123 X-14.564 Y-4.492
N2124 X0
N2125 X14.564
N2126 X15.118 Y-4.35
N2127 X15.534 Y-3.958
N2128 X15.71 Y-3.413
N2129 X15.601 Y-2.852
N2130 X15.018 Y-1.624
N2131 X13.333 Y1.933
N2132 X12.636 Y2.983
N2133 X11.676 Y3.799
N2134 X10.526 Y4.315
N2135 X9.278 Y4.492
N2136 X4.221
N2137 X3.915 Y4.597
N2138 X3.737 Y4.869
N2139 X3.206 Y6.952
N2140 X3.028 Y7.223
N2141 X2.721 Y7.328
N2142 X-11.468
N2143 X-12.612 Y7.157
N2144 X-13.656 Y6.659
N2145 X-14.509 Y5.878
N2146 X-15.096 Y4.881
N2147 X-15.319 Y4.358
N2148 X-16.952 Y.922
N2149 X-20.086 Y-5.688
N2150 X-20.195 Y-6.249
N2151 X-20.019 Y-6.794
N2152 X-19.602 Y-7.186
N2153 X-19.049 Y-7.328
N2154 X0
N2155 X19.049
N2156 X19.603 Y-7.186
N2157 X20.019 Y-6.794
N2158 X20.195 Y-6.249
N2159 X20.086 Y-5.688
N2160 X15.096 Y4.881
N2161 X14.509 Y5.878
N2162 X13.656 Y6.659
N2163 X12.612 Y7.157
N2164 X11.468 Y7.328
N2165 X2.721
N2166 X2.415 Y7.433
N2167 X2.237 Y7.705
N2168 X1.706 Y9.788
N2169 X1.528 Y10.059
N2170 X1.221 Y10.164
N2171 X-14.815
N2172 X-15.625 Y10.023
N2173 X-16.339 Y9.614
N2174 X-16.87 Y8.987
N2175 X-17.157 Y8.216
N2176 X-17.414 Y6.861
N2177 X-17.879 Y5.579
N2178 X-19.513 Y2.141
N2179 X-24.572 Y-8.527
N2180 X-24.681 Y-9.088
N2181 X-24.505 Y-9.631
N2182 X-24.09 Y-10.022
N2183 X-23.537 Y-10.164
N2184 X0
N2185 X23.537
N2186 X24.09 Y-10.022
N2187 X24.505 Y-9.631
N2188 X24.681 Y-9.088
N2189 X24.572 Y-8.527
N2190 X19.513 Y2.14
N2191 X17.571 Y6.326
N2192 X17.157 Y8.216
N2193 X16.87 Y8.987
N2194 X16.339 Y9.614
N2195 X15.625 Y10.023
N2196 X14.815 Y10.164
N2197 X1.221
N2198 X.915 Y10.27
N2199 X.737 Y10.541
N2200 X.206 Y12.624
N2201 X.028 Y12.895
N2202 X-.279 Y13.
N2203 X-21.698
N2204 X-21.739 Y12.891
N2205 X-21.591 Y12.762
N2206 X-20.549 Y11.419
N2207 X-20.439 Y11.201
N2208 X-20.053 Y10.075
N2209 X-19.946 Y8.732
N2210 X-20.2 Y7.389
N2211 X-20.439 Y6.799
N2212 X-21.438 Y4.702
N2213 X-21.848 Y3.83
N2214 X-22.074 Y3.358
N2215 X-27.486 Y-8.055
N2216 X-27.81 Y-8.732
N2217 X-28.896 Y-11.026
N2218 X-29.09 Y-11.419
N2219 X-30.132 Y-12.762
N2220 X-30.199 Y-12.822
N2221 X-30.227 Y-12.934
N2222 X-30.131 Y-13.
N2223 X0
N2224 X30.131
N2225 X30.227 Y-12.934
N2226 X30.199 Y-12.822
N2227 X30.132 Y-12.762
N2228 X29.09 Y-11.419
N2229 X28.896 Y-11.026
N2230 X27.81 Y-8.732
N2231 X27.486 Y-8.054
N2232 X22.074 Y3.358
N2233 X21.848 Y3.829
N2234 X21.438 Y4.702
N2235 X20.439 Y6.799
N2236 X20.2 Y7.389
N2237 X19.946 Y8.732
N2238 X20.053 Y10.075
N2239 X20.439 Y11.201
N2240 X20.549 Y11.419
N2241 X21.591 Y12.762
N2242 X21.739 Y12.891
N2243 X21.698 Y13.
N2244 X-.279
N2245 X-.573 Y12.904
N2246 X-.755 Y12.653
N2247 X-5.147 Y-1.002
N2248 X-5.146 Y-1.311
N2249 X-4.964 Y-1.56
N2250 X-4.671 Y-1.655
N2251 X8.493 Z29.737 F600.
N2252 X9.208 Y-1.406 Z29.722
N2253 X9.612 Y-.766 Z29.708
N2254 X9.53 Y-.014 Z29.693
N2255 X9.185 Y.711 Z29.678
N2256 X8.575 Y1.399 Z29.66
N2257 X7.691 Y1.655 Z29.642
N2258 X0 Z29.495
N2259 X-.279 Z29.489
N2260 X-7.691 F1500.
N2261 X-8.298 Y1.54
N2262 X-8.821 Y1.21
N2263 X-9.186 Y.711
N2264 X-9.53 Y-.011
N2265 X-9.639 Y-.574
N2266 X-9.464 Y-1.119
N2267 X-9.047 Y-1.512
N2268 X-8.492 Y-1.655
N2269 X8.493
N2270 X9.047 Y-1.513
N2271 X9.464 Y-1.12
N2272 X9.639 Y-.576
N2273 X9.53 Y-.014
N2274 X9.185 Y.711
N2275 X8.82 Y1.21
N2276 X8.298 Y1.54
N2277 X7.691 Y1.655
N2278 X0
N2279 X-.279
N2280 X-.585 Y1.76
N2281 X-.763 Y2.032
N2282 X-1.294 Y4.115
N2283 X-1.472 Y4.386
N2284 X-1.779 Y4.491
N2285 X-7.691
N2286 X-8.94 Y4.314
N2287 X-10.09 Y3.798
N2288 X-11.051 Y2.981
N2289 X-11.747 Y1.93
N2290 X-12.164 Y1.055
N2291 X-14.015 Y-2.851
N2292 X-14.123 Y-3.413
N2293 X-13.948 Y-3.957
N2294 X-13.531 Y-4.349
N2295 X-12.977 Y-4.491
N2296 X12.978
N2297 X13.532 Y-4.349
N2298 X13.948 Y-3.957
N2299 X14.124 Y-3.413
N2300 X14.015 Y-2.851
N2301 X11.747 Y1.929
N2302 X11.051 Y2.981
N2303 X10.09 Y3.797
N2304 X8.939 Y4.314
N2305 X7.691 Y4.491
N2306 X0
N2307 X-1.779
N2308 X-2.085 Y4.597
N2309 X-2.263 Y4.868
N2310 X-2.794 Y6.951
N2311 X-2.972 Y7.223
N2312 X-3.279 Y7.328
N2313 X-9.874
N2314 X-11.003 Y7.162
N2315 X-12.037 Y6.68
N2316 X-12.889 Y5.922
N2317 X-13.488 Y4.951
N2318 X-13.907 Y3.991
N2319 X-14.726 Y2.271
N2320 X-18.499 Y-5.687
N2321 X-18.608 Y-6.249
N2322 X-18.432 Y-6.793
N2323 X-18.016 Y-7.185
N2324 X-17.462 Y-7.328
N2325 X17.462
N2326 X18.016 Y-7.185
N2327 X18.433 Y-6.793
N2328 X18.608 Y-6.249
N2329 X18.5 Y-5.687
N2330 X14.726 Y2.268
N2331 X13.489 Y4.951
N2332 X12.889 Y5.922
N2333 X12.037 Y6.68
N2334 X11.003 Y7.162
N2335 X9.874 Y7.328
N2336 X0
N2337 X-3.279
N2338 X-3.585 Y7.433
N2339 X-3.763 Y7.704
N2340 X-4.294 Y9.788
N2341 X-4.472 Y10.059
N2342 X-4.779 Y10.164
N2343 X-13.229
N2344 X-14.039 Y10.022
N2345 X-14.752 Y9.613
N2346 X-15.284 Y8.986
N2347 X-15.571 Y8.215
N2348 X-15.828 Y6.861
N2349 X-16.426 Y5.304
N2350 X-17.289 Y3.486
N2351 X-22.986 Y-8.527
N2352 X-23.094 Y-9.088
N2353 X-22.919 Y-9.631
N2354 X-22.504 Y-10.022
N2355 X-21.951 Y-10.164
N2356 X21.951
N2357 X22.503 Y-10.022
N2358 X22.919 Y-9.631
N2359 X23.094 Y-9.087
N2360 X22.986 Y-8.527
N2361 X17.288 Y3.485
N2362 X16.011 Y6.265
N2363 X15.571 Y8.215
N2364 X15.284 Y8.986
N2365 X14.752 Y9.613
N2366 X14.039 Y10.022
N2367 X13.229 Y10.164
N2368 X0
N2369 X-4.779
N2370 X-5.085 Y10.269
N2371 X-5.263 Y10.541
N2372 X-5.794 Y12.624
N2373 X-5.972 Y12.895
N2374 X-6.279 Y13.
N2375 X-18.969
N2376 X-19.087 Y12.986
N2377 X-19.828 Y12.805
N2378 X-19.911 Y12.73
N2379 X-19.891 Y12.619
N2380 X-19.029 Y11.537
N2381 X-18.963 Y11.419
N2382 X-18.468 Y10.075
N2383 X-18.36 Y8.732
N2384 X-18.614 Y7.389
N2385 X-19.029 Y6.429
N2386 X-19.851 Y4.702
N2387 X-25.585 Y-7.389
N2388 X-26.077 Y-8.418
N2389 X-26.859 Y-10.075
N2390 X-27.486 Y-11.386
N2391 X-27.504 Y-11.419
N2392 X-28.434 Y-12.618
N2393 X-28.452 Y-12.728
N2394 X-28.368 Y-12.802
N2395 X-27.541 Y-12.988
N2396 X-27.431 Y-13.
N2397 X27.431
N2398 X27.541 Y-12.988
N2399 X28.368 Y-12.802
N2400 X28.452 Y-12.728
N2401 X28.434 Y-12.618
N2402 X27.504 Y-11.419
N2403 X27.486 Y-11.386
N2404 X26.859 Y-10.075
N2405 X26.077 Y-8.418
N2406 X25.585 Y-7.389
N2407 X19.029 Y6.428
N2408 X18.614 Y7.389
N2409 X18.36 Y8.732
N2410 X18.468 Y10.075
N2411 X18.963 Y11.419
N2412 X19.029 Y11.537
N2413 X19.891 Y12.619
N2414 X19.911 Y12.73
N2415 X19.828 Y12.805
N2416 X19.087 Y12.986
N2417 X18.969 Y13.
N2418 X0
N2419 X-6.279
N2420 X-6.592 Y12.89
N2421 X-6.767 Y12.608
N2422 X-6.727 Y12.278
N2423 X.031 Y-1.376
N2424 X.216 Y-1.579
N2425 X.479 Y-1.655
N2426 X6.905 Z29.353 F600.
N2427 X7.619 Y-1.406 Z29.337
N2428 X8.024 Y-.766 Z29.321
N2429 X7.943 Y-.015 Z29.304
N2430 X7.599 Y.709 Z29.287
N2431 X6.989 Y1.398 Z29.268
N2432 X6.104 Y1.655 Z29.248
N2433 X0 Z29.119
N2434 X-6.106 Z28.99
N2435 X-6.726 Y1.534 Z28.989 F1500.
N2436 X-7.24 Y1.205
N2437 X-7.6 Y.711
N2438 X-7.943 Y-.011
N2439 X-8.053 Y-.573
N2440 X-7.877 Y-1.119
N2441 X-7.46 Y-1.512
N2442 X-6.905 Y-1.655
N2443 X6.905
N2444 X7.459 Y-1.512
N2445 X7.876 Y-1.12
N2446 X8.051 Y-.576
N2447 X7.943 Y-.015
N2448 X7.599 Y.709
N2449 X7.234 Y1.209
N2450 X6.712 Y1.539
N2451 X6.104 Y1.655
N2452 X0
N2453 X-6.106
N2454 X-6.45 Y1.767
N2455 X-6.625 Y2.059
N2456 X-6.973 Y3.848
N2457 X-7.217 Y4.187
N2458 X-7.634 Y4.222
N2459 X-8.667 Y3.688
N2460 X-9.529 Y2.906
N2461 X-10.16 Y1.93
N2462 X-12.428 Y-2.851
N2463 X-12.536 Y-3.412
N2464 X-12.36 Y-3.956
N2465 X-11.943 Y-4.348
N2466 X-11.39 Y-4.49
N2467 X11.39
N2468 X11.943 Y-4.348
N2469 X12.36 Y-3.956
N2470 X12.536 Y-3.412
N2471 X12.428 Y-2.851
N2472 X11.852 Y-1.634
N2473 X10.161 Y1.925
N2474 X9.465 Y2.977
N2475 X8.504 Y3.795
N2476 X7.354 Y4.313
N2477 X6.104 Y4.49
N2478 X0
N2479 X-6.106
N2480 X-6.882 Y4.423
N2481 X-7.634 Y4.222
N2482 X-7.932 Y4.209
N2483 X-8.184 Y4.367
N2484 X-8.302 Y4.641
N2485 X-8.523 Y6.798
N2486 X-8.728 Y7.152
N2487 X-9.128 Y7.236
N2488 X-10.271 Y6.79
N2489 X-11.222 Y6.014
N2490 X-11.889 Y4.984
N2491 X-16.912 Y-5.686
N2492 X-17.021 Y-6.248
N2493 X-16.845 Y-6.792
N2494 X-16.429 Y-7.184
N2495 X-15.875 Y-7.327
N2496 X15.875
N2497 X16.429 Y-7.184
N2498 X16.845 Y-6.792
N2499 X17.021 Y-6.248
N2500 X16.912 Y-5.686
N2501 X15.049 Y-1.76
N2502 X11.889 Y4.983
N2503 X11.286 Y5.941
N2504 X10.435 Y6.689
N2505 X9.406 Y7.164
N2506 X8.285 Y7.327
N2507 X0
N2508 X-8.285
N2509 X-9.128 Y7.236
N2510 X-9.509 Y7.306
N2511 X-9.725 Y7.629
N2512 X-10.137 Y9.758
N2513 X-10.309 Y10.049
N2514 X-10.628 Y10.163
N2515 X-11.641
N2516 X-12.451 Y10.021
N2517 X-13.165 Y9.612
N2518 X-13.697 Y8.985
N2519 X-13.985 Y8.214
N2520 X-14.436 Y6.237
N2521 X-15.058 Y4.839
N2522 X-16.976 Y.799
N2523 X-21.397 Y-8.519
N2524 X-21.507 Y-9.082
N2525 X-21.331 Y-9.627
N2526 X-20.914 Y-10.02
N2527 X-20.359 Y-10.163
N2528 X20.359
N2529 X20.914 Y-10.02
N2530 X21.331 Y-9.627
N2531 X21.506 Y-9.082
N2532 X21.397 Y-8.52
N2533 X17.612 Y-.544
N2534 X14.435 Y6.238
N2535 X13.985 Y8.214
N2536 X13.697 Y8.985
N2537 X13.165 Y9.612
N2538 X12.451 Y10.021
N2539 X11.641 Y10.163
N2540 X0
N2541 X-10.628
N2542 X-10.934 Y10.268
N2543 X-11.112 Y10.539
N2544 X-11.643 Y12.623
N2545 X-11.821 Y12.895
N2546 X-12.128 Y13.
N2547 X-17.547
N2548 X-17.689 Y12.979
N2549 X-18.243 Y12.815
N2550 X-18.324 Y12.734
N2551 X-18.3 Y12.622
N2552 X-17.619 Y11.822
N2553 X-17.378 Y11.419
N2554 X-16.882 Y10.075
N2555 X-16.774 Y8.732
N2556 X-17.029 Y7.389
N2557 X-17.619 Y6.058
N2558 X-19.539 Y2.015
N2559 X-24.001 Y-7.389
N2560 X-25.273 Y-10.075
N2561 X-25.918 Y-11.419
N2562 X-26.077 Y-11.693
N2563 X-26.843 Y-12.621
N2564 X-26.865 Y-12.732
N2565 X-26.783 Y-12.81
N2566 X-26.141 Y-12.983
N2567 X-26.011 Y-13.
N2568 X26.011
N2569 X26.141 Y-12.983
N2570 X26.783 Y-12.81
N2571 X26.865 Y-12.732
N2572 X26.843 Y-12.621
N2573 X26.077 Y-11.693
N2574 X25.918 Y-11.419
N2575 X25.273 Y-10.075
N2576 X24.001 Y-7.389
N2577 X19.539 Y2.015
N2578 X17.619 Y6.057
N2579 X17.029 Y7.389
N2580 X16.774 Y8.732
N2581 X16.882 Y10.075
N2582 X17.378 Y11.419
N2583 X17.619 Y11.822
N2584 X18.3 Y12.622
N2585 X18.324 Y12.734
N2586 X18.243 Y12.815
N2587 X17.689 Y12.979
N2588 X17.547 Y13.
N2589 X0
N2590 X-12.128
N2591 X-12.479 Y12.856
N2592 X-12.628 Y12.507
N2593 X-12.489 Y12.154
N2594 X.579 Y-1.499
N2595 X.941 Y-1.654
N2596 X5.319 Z28.876 F600.
N2597 X6.033 Y-1.405 Z28.856
N2598 X6.437 Y-.766 Z28.836
N2599 X6.356 Y-.014 Z28.816
N2600 X6.012 Y.709 Z28.795
N2601 X5.402 Y1.398 Z28.771
N2602 X4.519 Y1.654 Z28.746
N2603 X0 Z28.629
N2604 X-4.52 Z28.512
N2605 X-5.355 Y1.427 Z28.489
N2606 X-5.738 Y1.118 F1500.
N2607 X-6.013 Y.711
N2608 X-6.356 Y-.009
N2609 X-6.465 Y-.572
N2610 X-6.289 Y-1.118
N2611 X-5.872 Y-1.511
N2612 X-5.317 Y-1.654
N2613 X5.319
N2614 X5.873 Y-1.511
N2615 X6.289 Y-1.119
N2616 X6.465 Y-.575
N2617 X6.356 Y-.014
N2618 X6.012 Y.709
N2619 X5.648 Y1.208
N2620 X5.126 Y1.538
N2621 X4.519 Y1.654
N2622 X0
N2623 X-4.52
N2624 X-4.952 Y1.596
N2625 X-5.355 Y1.427
N2626 X-5.69 Y1.366
N2627 X-5.987 Y1.533
N2628 X-7.173 Y2.917
N2629 X-7.553 Y3.092
N2630 X-7.932 Y2.917
N2631 X-8.573 Y1.929
N2632 X-10.84 Y-2.85
N2633 X-10.948 Y-3.411
N2634 X-10.772 Y-3.955
N2635 X-10.355 Y-4.347
N2636 X-9.802 Y-4.489
N2637 X9.802
N2638 X10.355 Y-4.347
N2639 X10.772 Y-3.955
N2640 X10.948 Y-3.412
N2641 X10.84 Y-2.85
N2642 X10.265 Y-1.633
N2643 X8.574 Y1.925
N2644 X7.878 Y2.977
N2645 X6.918 Y3.794
N2646 X5.767 Y4.312
N2647 X4.519 Y4.489
N2648 X0
N2649 X-4.52
N2650 X-5.794 Y4.304
N2651 X-6.964 Y3.765
N2652 X-7.932 Y2.917
N2653 X-8.137 Y2.773
N2654 X-8.385 Y2.747
N2655 X-10.774 Y3.096
N2656 X-11.084 Y3.041
N2657 X-11.3 Y2.812
N2658 X-15.324 Y-5.685
N2659 X-15.433 Y-6.247
N2660 X-15.257 Y-6.791
N2661 X-14.84 Y-7.183
N2662 X-14.287 Y-7.325
N2663 X14.287
N2664 X14.841 Y-7.183
N2665 X15.257 Y-6.791
N2666 X15.433 Y-6.247
N2667 X15.324 Y-5.685
N2668 X13.462 Y-1.76
N2669 X10.303 Y4.982
N2670 X9.699 Y5.94
N2671 X8.848 Y6.688
N2672 X7.819 Y7.163
N2673 X6.698 Y7.325
N2674 X0
N2675 X-6.698
N2676 X-7.819 Y7.163
N2677 X-8.847 Y6.688
N2678 X-9.698 Y5.941
N2679 X-10.302 Y4.983
N2680 X-11.3 Y2.812
N2681 X-11.527 Y2.576
N2682 X-11.851 Y2.531
N2683 X-13.952 Y2.947
N2684 X-14.273 Y2.904
N2685 X-14.5 Y2.671
N2686 X-15.39 Y.798
N2687 X-16.025 Y-.545
N2688 X-19.809 Y-8.512
N2689 X-19.92 Y-9.076
N2690 X-19.745 Y-9.624
N2691 X-19.327 Y-10.018
N2692 X-18.77 Y-10.162
N2693 X18.77
N2694 X19.327 Y-10.018
N2695 X19.745 Y-9.623
N2696 X19.92 Y-9.076
N2697 X19.809 Y-8.511
N2698 X16.025 Y-.545
N2699 X12.849 Y6.237
N2700 X12.398 Y8.213
N2701 X12.11 Y8.984
N2702 X11.578 Y9.611
N2703 X10.864 Y10.02
N2704 X10.054 Y10.162
N2705 X0
N2706 X-10.054
N2707 X-10.864 Y10.02
N2708 X-11.578 Y9.611
N2709 X-12.11 Y8.984
N2710 X-12.398 Y8.213
N2711 X-12.849 Y6.236
N2712 X-13.477 Y4.825
N2713 X-14.5 Y2.671
N2714 X-14.726 Y2.44
N2715 X-15.047 Y2.395
N2716 X-17.164 Y2.804
N2717 X-17.484 Y2.76
N2718 X-17.71 Y2.528
N2719 X-17.955 Y2.015
N2720 X-21.848 Y-6.198
N2721 X-22.418 Y-7.389
N2722 X-23.687 Y-10.075
N2723 X-24.332 Y-11.419
N2724 X-24.667 Y-11.958
N2725 X-25.251 Y-12.622
N2726 X-25.278 Y-12.736
N2727 X-25.197 Y-12.822
N2728 X-24.737 Y-12.977
N2729 X-24.594 Y-13.
N2730 X24.594
N2731 X24.737 Y-12.977
N2732 X25.197 Y-12.822
N2733 X25.278 Y-12.736
N2734 X25.251 Y-12.622
N2735 X24.667 Y-11.958
N2736 X24.332 Y-11.419
N2737 X23.687 Y-10.075
N2738 X22.418 Y-7.389
N2739 X21.848 Y-6.198
N2740 X18.589 Y.672
N2741 X17.955 Y2.015
N2742 X16.039 Y6.045
N2743 X15.443 Y7.389
N2744 X15.188 Y8.732
N2745 X15.296 Y10.075
N2746 X15.792 Y11.419
N2747 X16.21 Y12.072
N2748 X16.707 Y12.621
N2749 X16.736 Y12.739
N2750 X16.656 Y12.83
N2751 X16.28 Y12.973
N2752 X16.135 Y13.
N2753 X0
N2754 X-16.135
N2755 X-16.28 Y12.973
N2756 X-16.656 Y12.83
N2757 X-16.736 Y12.739
N2758 X-16.707 Y12.621
N2759 X-16.21 Y12.072
N2760 X-15.792 Y11.419
N2761 X-15.296 Y10.075
N2762 X-15.188 Y8.732
N2763 X-15.443 Y7.389
N2764 X-16.04 Y6.045
N2765 X-16.679 Y4.702
N2766 X-17.314 Y3.358
N2767 X-17.71 Y2.528
N2768 X-17.744 Y2.193
N2769 X-17.557 Y1.912
N2770 X-17.234 Y1.814
N2771 X.275 Y2.653
N2772 X.64 Y2.52
N2773 X.799 Y2.166
N2774 X.657 Y1.805
N2775 X.299 Y1.654
N2776 X0 Z28.484 F600.
N2777 X-2.934 Z28.434
N2778 X-3.817 Y1.398 Z28.419
N2779 X-4.427 Y.711 Z28.403
N2780 X-4.771 Y-.012 Z28.389
N2781 X-4.857 Y-.262 Z28.385
N2782 X-4.8 Y-.933 Z28.373
N2783 X-4.378 Y-1.457 Z28.361
N2784 X-3.734 Y-1.654 Z28.35
N2785 X3.735 Z28.223
N2786 X4.449 Y-1.405 Z28.21
N2787 X4.852 Y-.766 Z28.197
N2788 X4.771 Y-.015 Z28.184
N2789 X4.427 Y.71 Z28.17
N2790 X3.817 Y1.398 Z28.154
N2791 X2.933 Y1.654 Z28.139
N2792 X0 Z28.089
N2793 X-2.934 Z28.039
N2794 X-3.817 Y1.398 Z28.023
N2795 X-4.427 Y.711 Z28.007
N2796 X-4.771 Y-.012 Z27.994
N2797 X-4.857 Y-.262 Z27.989
N2798 X-4.852 Y-.77 F1500.
N2799 X-4.628 Y-1.226
N2800 X-4.23 Y-1.541
N2801 X-3.734 Y-1.654
N2802 X3.735
N2803 X4.289 Y-1.511
N2804 X4.705 Y-1.12
N2805 X4.88 Y-.576
N2806 X4.771 Y-.015
N2807 X4.427 Y.71
N2808 X4.062 Y1.208
N2809 X3.54 Y1.538
N2810 X2.933 Y1.654
N2811 X0
N2812 X-2.934
N2813 X-3.541 Y1.539
N2814 X-4.063 Y1.209
N2815 X-4.427 Y.711
N2816 X-4.771 Y-.012
N2817 X-4.857 Y-.262
N2818 X-5.082 Y-.581
N2819 X-5.469 Y-.64
N2820 X-7.512 Y-.119
N2821 X-7.849 Y-.15
N2822 X-8.088 Y-.389
N2823 X-8.52 Y-1.299
N2824 X-9.255 Y-2.85
N2825 X-9.363 Y-3.412
N2826 X-9.187 Y-3.956
N2827 X-8.77 Y-4.347
N2828 X-8.217 Y-4.489
N2829 X8.217
N2830 X8.77 Y-4.347
N2831 X9.187 Y-3.956
N2832 X9.363 Y-3.412
N2833 X9.255 Y-2.85
N2834 X6.988 Y1.927
N2835 X6.292 Y2.979
N2836 X5.331 Y3.795
N2837 X4.181 Y4.312
N2838 X2.933 Y4.489
N2839 X0
N2840 X-2.934
N2841 X-4.182 Y4.313
N2842 X-5.331 Y3.796
N2843 X-6.292 Y2.98
N2844 X-6.988 Y1.929
N2845 X-8.088 Y-.389
N2846 X-8.312 Y-.62
N2847 X-8.631 Y-.666
N2848 X-10.74 Y-.271
N2849 X-11.059 Y-.318
N2850 X-11.284 Y-.55
N2851 X-13.739 Y-5.686
N2852 X-13.848 Y-6.247
N2853 X-13.672 Y-6.791
N2854 X-13.256 Y-7.183
N2855 X-12.702 Y-7.326
N2856 X12.702
N2857 X13.256 Y-7.183
N2858 X13.672 Y-6.791
N2859 X13.848 Y-6.247
N2860 X13.739 Y-5.686
N2861 X11.877 Y-1.761
N2862 X8.717 Y4.982
N2863 X8.113 Y5.941
N2864 X7.262 Y6.688
N2865 X6.233 Y7.163
N2866 X5.112 Y7.326
N2867 X0
N2868 X-5.112
N2869 X-6.233 Y7.163
N2870 X-7.261 Y6.689
N2871 X-8.113 Y5.942
N2872 X-8.716 Y4.983
N2873 X-11.284 Y-.55
N2874 X-11.511 Y-.783
N2875 X-11.834 Y-.827
N2876 X-13.957 Y-.405
N2877 X-14.279 Y-.448
N2878 X-14.506 Y-.681
N2879 X-18.224 Y-8.514
N2880 X-18.334 Y-9.078
N2881 X-18.158 Y-9.624
N2882 X-17.74 Y-10.018
N2883 X-17.184 Y-10.161
N2884 X17.184
N2885 X17.74 Y-10.018
N2886 X18.158 Y-9.624
N2887 X18.334 Y-9.078
N2888 X18.224 Y-8.514
N2889 X17.632 Y-7.274
N2890 X14.439 Y-.545
N2891 X11.263 Y6.237
N2892 X10.812 Y8.213
N2893 X10.524 Y8.984
N2894 X9.992 Y9.611
N2895 X9.278 Y10.019
N2896 X8.468 Y10.161
N2897 X0
N2898 X-8.468
N2899 X-9.278 Y10.019
N2900 X-9.992 Y9.611
N2901 X-10.524 Y8.984
N2902 X-10.812 Y8.213
N2903 X-11.263 Y6.236
N2904 X-11.891 Y4.825
N2905 X-13.645 Y1.131
N2906 X-13.805 Y.796
N2907 X-14.506 Y-.681
N2908 X-14.733 Y-.913
N2909 X-15.054 Y-.957
N2910 X-17.164 Y-.544
N2911 X-17.485 Y-.588
N2912 X-17.711 Y-.82
N2913 X-19.553 Y-4.702
N2914 X-20.832 Y-7.389
N2915 X-21.848 Y-9.542
N2916 X-22.747 Y-11.419
N2917 X-23.258 Y-12.192
N2918 X-23.656 Y-12.62
N2919 X-23.69 Y-12.742
N2920 X-23.611 Y-12.842
N2921 X-23.328 Y-12.968
N2922 X-23.181 Y-13.
N2923 X23.181
N2924 X23.328 Y-12.968
N2925 X23.611 Y-12.842
N2926 X23.69 Y-12.742
N2927 X23.656 Y-12.62
N2928 X23.258 Y-12.192
N2929 X22.747 Y-11.419
N2930 X21.848 Y-9.542
N2931 X20.833 Y-7.389
N2932 X19.553 Y-4.702
N2933 X16.369 Y2.015
N2934 X14.453 Y6.045
N2935 X13.857 Y7.389
N2936 X13.602 Y8.732
N2937 X13.71 Y10.075
N2938 X14.206 Y11.419
N2939 X14.8 Y12.293
N2940 X15.109 Y12.617
N2941 X15.149 Y12.746
N2942 X15.07 Y12.857
N2943 X14.871 Y12.962
N2944 X14.72 Y13.
N2945 X0
N2946 X-14.72
N2947 X-14.871 Y12.962
N2948 X-15.07 Y12.857
N2949 X-15.149 Y12.746
N2950 X-15.109 Y12.617
N2951 X-14.8 Y12.293
N2952 X-14.206 Y11.419
N2953 X-13.71 Y10.075
N2954 X-13.602 Y8.732
N2955 X-13.857 Y7.389
N2956 X-14.454 Y6.045
N2957 X-16.21 Y2.347
N2958 X-16.369 Y2.015
N2959 X-17.004 Y.672
N2960 X-17.711 Y-.82
N2961 X-17.742 Y-1.166
N2962 X-17.54 Y-1.449
N2963 X-17.203 Y-1.531
N2964 X1.698 Y.621
N2965 X2.002 Y.772
N2966 X2.14 Y1.082
N2967 X2.048 Y1.409
N2968 X1.768 Y1.601
N2969 X1.347 Y1.656 Z27.98 F600.
N2970 X-1.348 Z27.922
N2971 X-2.232 Y1.4 Z27.902
N2972 X-2.843 Y.712 Z27.882
N2973 X-3.19 Y-.017 Z27.865
N2974 X-3.301 Y-.532 Z27.853
N2975 X-2.957 Y-1.328 Z27.834
N2976 X-2.155 Y-1.656 Z27.815
N2977 X0 Z27.769
N2978 X2.156 Z27.723
N2979 X2.868 Y-1.407 Z27.706
N2980 X3.271 Y-.77 Z27.69
N2981 X3.19 Y-.02 Z27.673
N2982 X2.843 Y.711 Z27.656
N2983 X2.232 Y1.4 Z27.636
N2984 X1.347 Y1.656 Z27.616
N2985 X-1.348 Z27.558
N2986 X-2.232 Y1.4 Z27.538
N2987 X-2.843 Y.712 Z27.518
N2988 X-3.19 Y-.017 Z27.501
N2989 X-3.301 Y-.532 Z27.489
N2990 X-3.14 Y-1.096 F1500.
N2991 X-2.722 Y-1.506
N2992 X-2.155 Y-1.656
N2993 X0
N2994 X2.156
N2995 X2.708 Y-1.514
N2996 X3.124 Y-1.123
N2997 X3.299 Y-.58
N2998 X3.19 Y-.02
N2999 X2.843 Y.711
N3000 X2.478 Y1.21
N3001 X1.955 Y1.54
N3002 X1.347 Y1.656
N3003 X-1.348
N3004 X-1.955 Y1.54
N3005 X-2.478 Y1.21
N3006 X-2.843 Y.712
N3007 X-3.19 Y-.017
N3008 X-3.301 Y-.532
N3009 X-3.392 Y-.831
N3010 X-3.643 Y-1.017
N3011 X-3.955 Y-1.018
N3012 X-6.008 Y-.355
N3013 X-6.361 Y-.372
N3014 X-6.614 Y-.617
N3015 X-7.671 Y-2.85
N3016 X-7.779 Y-3.411
N3017 X-7.603 Y-3.956
N3018 X-7.186 Y-4.348
N3019 X-6.632 Y-4.491
N3020 X0
N3021 X6.632
N3022 X7.187 Y-4.348
N3023 X7.603 Y-3.956
N3024 X7.78 Y-3.411
N3025 X7.671 Y-2.849
N3026 X5.403 Y1.927
N3027 X4.707 Y2.979
N3028 X3.746 Y3.796
N3029 X2.596 Y4.313
N3030 X1.347 Y4.491
N3031 X-1.348
N3032 X-2.596 Y4.314
N3033 X-3.746 Y3.797
N3034 X-4.707 Y2.981
N3035 X-5.403 Y1.93
N3036 X-6.459 Y-.288
N3037 X-6.614 Y-.617
N3038 X-6.841 Y-.849
N3039 X-7.162 Y-.893
N3040 X-9.272 Y-.481
N3041 X-9.594 Y-.525
N3042 X-9.82 Y-.757
N3043 X-12.156 Y-5.688
N3044 X-12.265 Y-6.249
N3045 X-12.089 Y-6.793
N3046 X-11.673 Y-7.185
N3047 X-11.119 Y-7.327
N3048 X0
N3049 X11.119
N3050 X11.673 Y-7.185
N3051 X12.089 Y-6.793
N3052 X12.265 Y-6.249
N3053 X12.156 Y-5.688
N3054 X10.93 Y-3.103
N3055 X7.132 Y4.984
N3056 X6.529 Y5.943
N3057 X5.677 Y6.69
N3058 X4.649 Y7.165
N3059 X3.528 Y7.327
N3060 X-3.528
N3061 X-4.649 Y7.165
N3062 X-5.677 Y6.69
N3063 X-6.528 Y5.943
N3064 X-7.131 Y4.985
N3065 X-7.746 Y3.607
N3066 X-9.022 Y.928
N3067 X-9.82 Y-.757
N3068 X-10.046 Y-.99
N3069 X-10.367 Y-1.034
N3070 X-12.476 Y-.624
N3071 X-12.798 Y-.668
N3072 X-13.024 Y-.9
N3073 X-13.491 Y-1.888
N3074 X-16.642 Y-8.522
N3075 X-16.749 Y-9.084
N3076 X-16.572 Y-9.629
N3077 X-16.155 Y-10.02
N3078 X-15.6 Y-10.162
N3079 X0
N3080 X15.6
N3081 X16.154 Y-10.02
N3082 X16.572 Y-9.629
N3083 X16.749 Y-9.085
N3084 X16.643 Y-8.523
N3085 X13.492 Y-1.888
N3086 X9.678 Y6.237
N3087 X9.227 Y8.214
N3088 X8.939 Y8.985
N3089 X8.407 Y9.612
N3090 X7.693 Y10.021
N3091 X6.883 Y10.162
N3092 X-6.883
N3093 X-7.693 Y10.021
N3094 X-8.407 Y9.612
N3095 X-8.939 Y8.985
N3096 X-9.227 Y8.214
N3097 X-9.678 Y6.236
N3098 X-10.306 Y4.826
N3099 X-11.583 Y2.143
N3100 X-13.024 Y-.9
N3101 X-13.25 Y-1.133
N3102 X-13.572 Y-1.177
N3103 X-15.684 Y-.764
N3104 X-16.005 Y-.808
N3105 X-16.232 Y-1.04
N3106 X-17.967 Y-4.702
N3107 X-19.029 Y-6.929
N3108 X-20.439 Y-9.913
N3109 X-21.161 Y-11.419
N3110 X-21.848 Y-12.401
N3111 X-22.053 Y-12.61
N3112 X-22.103 Y-12.752
N3113 X-22.026 Y-12.881
N3114 X-21.92 Y-12.952
N3115 X-21.762 Y-13.
N3116 X0
N3117 X21.762
N3118 X21.92 Y-12.952
N3119 X22.026 Y-12.881
N3120 X22.103 Y-12.752
N3121 X22.053 Y-12.61
N3122 X21.848 Y-12.401
N3123 X21.161 Y-11.419
N3124 X20.439 Y-9.914
N3125 X19.029 Y-6.928
N3126 X17.967 Y-4.702
N3127 X14.147 Y3.358
N3128 X12.868 Y6.045
N3129 X12.271 Y7.389
N3130 X12.017 Y8.732
N3131 X12.124 Y10.075
N3132 X12.62 Y11.419
N3133 X13.391 Y12.492
N3134 X13.499 Y12.6
N3135 X13.562 Y12.759
N3136 X13.489 Y12.914
N3137 X13.461 Y12.938
N3138 X13.297 Y13.
N3139 X-13.297
N3140 X-13.461 Y12.938
N3141 X-13.489 Y12.914
N3142 X-13.562 Y12.759
N3143 X-13.499 Y12.6
N3144 X-13.391 Y12.492
N3145 X-12.62 Y11.419
N3146 X-12.124 Y10.075
N3147 X-12.017 Y8.732
N3148 X-12.271 Y7.389
N3149 X-12.868 Y6.045
N3150 X-14.147 Y3.358
N3151 X-16.232 Y-1.04
N3152 X-16.262 Y-1.388
N3153 X-16.057 Y-1.67
N3154 X-15.718 Y-1.75
N3155 X-2.279 Y-.071
N3156 X-1.893 Y-.186
N3157 X-1.717 Y-.55
N3158 X-1.369 Y-1.335 Z27.475 F600.
N3159 X-.572 Y-1.657 Z27.461
N3160 X.574 Z27.442
N3161 X1.285 Y-1.409 Z27.43
N3162 X1.688 Y-.772 Z27.417
N3163 X1.606 Y-.023 Z27.405
N3164 X1.36 Y.496 Z27.396
N3165 X.804 Y1.123 Z27.382
N3166 X0 Y1.356 Z27.368
N3167 X-.804 Y1.124 Z27.354
N3168 X-1.361 Y.498 Z27.341
N3169 X-1.607 Y-.018 Z27.331
N3170 X-1.717 Y-.55 Z27.323
N3171 X-1.369 Y-1.335 Z27.308
N3172 X-.572 Y-1.657 Z27.294
N3173 X.574 Z27.275
N3174 X1.285 Y-1.409 Z27.263
N3175 X1.688 Y-.772 Z27.251
N3176 X1.606 Y-.023 Z27.238
N3177 X1.36 Y.496 Z27.229
N3178 X.804 Y1.123 Z27.215
N3179 X0 Y1.356 Z27.201
N3180 X-.804 Y1.124 Z27.188
N3181 X-1.361 Y.498 Z27.174
N3182 X-1.607 Y-.018 Z27.165
N3183 X-1.717 Y-.55 Z27.156
N3184 X-1.369 Y-1.335 Z27.142
N3185 X-.572 Y-1.657 Z27.127
N3186 X.574 Z27.109
N3187 X1.285 Y-1.409 Z27.096
N3188 X1.688 Y-.772 Z27.084
N3189 X1.606 Y-.023 Z27.072
N3190 X1.36 Y.496 Z27.062
N3191 X.804 Y1.123 Z27.049
N3192 X0 Y1.356 Z27.035
N3193 X-.804 Y1.124 Z27.021
N3194 X-1.361 Y.498 Z27.007
N3195 X-1.607 Y-.018 Z26.998
N3196 X-1.717 Y-.55 Z26.989
N3197 X-1.551 Y-1.106 F1500.
N3198 X-1.134 Y-1.51
N3199 X-.572 Y-1.657
N3200 X.574
N3201 X1.126 Y-1.515
N3202 X1.54 Y-1.124
N3203 X1.715 Y-.582
N3204 X1.606 Y-.023
N3205 X1.36 Y.496
N3206 X.942 Y1.024
N3207 X.337 Y1.318
N3208 X-.336
N3209 X-.943 Y1.025
N3210 X-1.361 Y.498
N3211 X-1.607 Y-.018
N3212 X-1.717 Y-.55
N3213 X-1.806 Y-.851
N3214 X-2.057 Y-1.04
N3215 X-2.372 Y-1.042
N3216 X-4.43 Y-.373
N3217 X-4.783 Y-.39
N3218 X-5.036 Y-.634
N3219 X-6.086 Y-2.845
N3220 X-6.196 Y-3.408
N3221 X-6.021 Y-3.955
N3222 X-5.603 Y-4.349
N3223 X-5.047 Y-4.492
N3224 X5.047
N3225 X5.603 Y-4.349
N3226 X6.021 Y-3.955
N3227 X6.196 Y-3.409
N3228 X6.086 Y-2.846
N3229 X5.514 Y-1.646
N3230 X3.901 Y1.754
N3231 X3.232 Y2.765
N3232 X2.308 Y3.551
N3233 X1.202 Y4.049
N3234 X.002 Y4.22
N3235 X-1.199 Y4.05
N3236 X-2.305 Y3.554
N3237 X-3.23 Y2.769
N3238 X-3.9 Y1.759
N3239 X-5.036 Y-.634
N3240 X-5.263 Y-.866
N3241 X-5.584 Y-.911
N3242 X-7.693 Y-.498
N3243 X-8.015 Y-.542
N3244 X-8.241 Y-.774
N3245 X-10.574 Y-5.692
N3246 X-10.683 Y-6.253
N3247 X-10.507 Y-6.796
N3248 X-10.092 Y-7.187
N3249 X-9.539 Y-7.329
N3250 X9.539
N3251 X10.091 Y-7.187
N3252 X10.507 Y-6.796
N3253 X10.683 Y-6.253
N3254 X10.574 Y-5.692
N3255 X9.346 Y-3.101
N3256 X5.563 Y4.951
N3257 X4.951 Y5.924
N3258 X4.087 Y6.682
N3259 X3.043 Y7.164
N3260 X1.905 Y7.329
N3261 X-1.905
N3262 X-3.043 Y7.164
N3263 X-4.086 Y6.683
N3264 X-4.95 Y5.925
N3265 X-5.563 Y4.952
N3266 X-6.163 Y3.605
N3267 X-8.241 Y-.774
N3268 X-8.468 Y-1.006
N3269 X-8.789 Y-1.051
N3270 X-10.897 Y-.638
N3271 X-11.218 Y-.682
N3272 X-11.445 Y-.914
N3273 X-15.057 Y-8.525
N3274 X-15.163 Y-9.087
N3275 X-14.986 Y-9.63
N3276 X-14.57 Y-10.021
N3277 X-14.016 Y-10.163
N3278 X14.016
N3279 X14.57 Y-10.021
N3280 X14.987 Y-9.629
N3281 X15.163 Y-9.084
N3282 X15.055 Y-8.522
N3283 X11.906 Y-1.887
N3284 X8.093 Y6.238
N3285 X7.81 Y7.173
N3286 X7.651 Y8.136
N3287 X7.383 Y8.933
N3288 X6.853 Y9.586
N3289 X6.129 Y10.014
N3290 X5.302 Y10.163
N3291 X-5.302
N3292 X-6.129 Y10.014
N3293 X-6.853 Y9.586
N3294 X-7.383 Y8.933
N3295 X-7.651 Y8.136
N3296 X-7.81 Y7.172
N3297 X-8.093 Y6.237
N3298 X-8.722 Y4.825
N3299 X-11.445 Y-.914
N3300 X-11.671 Y-1.146
N3301 X-11.992 Y-1.191
N3302 X-14.106 Y-.782
N3303 X-14.427 Y-.827
N3304 X-14.653 Y-1.059
N3305 X-16.21 Y-4.342
N3306 X-17.026 Y-6.045
N3307 X-17.657 Y-7.389
N3308 X-18.93 Y-10.075
N3309 X-19.575 Y-11.419
N3310 X-20.445 Y-12.596
N3311 X-20.5 Y-12.853
N3312 X-20.281 Y-13.
N3313 X20.281
N3314 X20.5 Y-12.853
N3315 X20.445 Y-12.596
N3316 X20.439 Y-12.589
N3317 X19.575 Y-11.419
N3318 X18.93 Y-10.075
N3319 X17.619 Y-7.309
N3320 X17.026 Y-6.045
N3321 X16.21 Y-4.342
N3322 X13.835 Y.672
N3323 X13.195 Y2.015
N3324 X12.563 Y3.358
N3325 X11.981 Y4.573
N3326 X11.282 Y6.045
N3327 X10.685 Y7.389
N3328 X10.572 Y7.782
N3329 X10.431 Y8.732
N3330 X10.539 Y10.075
N3331 X10.572 Y10.218
N3332 X11.034 Y11.419
N3333 X11.933 Y12.609
N3334 X11.957 Y12.865
N3335 X11.739 Y13.
N3336 X-11.739
N3337 X-11.957 Y12.865
N3338 X-11.933 Y12.609
N3339 X-11.034 Y11.419
N3340 X-10.572 Y10.218
N3341 X-10.539 Y10.075
N3342 X-10.431 Y8.732
N3343 X-10.572 Y7.782
N3344 X-10.685 Y7.389
N3345 X-11.282 Y6.045
N3346 X-12.563 Y3.358
N3347 X-13.195 Y2.015
N3348 X-13.835 Y.672
N3349 X-14.469 Y-.672
N3350 X-14.653 Y-1.059
N3351 X-14.685 Y-1.401
N3352 X-14.488 Y-1.683
N3353 X-14.157 Y-1.771
N3354 X-1.545 Y-.644
N3355 X-1.162 Y-.774
N3356 X-1.001 Y-1.145
N3357 X-.71 Y-1.857 Z26.97 F600.
N3358 X0 Y-2.152 Z26.95
N3359 X.623 Y-1.934 Z26.934
N3360 X.974 Y-1.374 Z26.917
N3361 X.901 Y-.718 Z26.901
N3362 X.797 Y-.502 Z26.895
N3363 X.679 Y-.254 Z26.888
N3364 X.275 Y.123 Z26.874
N3365 X-.277 Z26.86
N3366 X-.681 Y-.254 Z26.846
N3367 X-.903 Y-.72 Z26.833
N3368 X-1.001 Y-1.145 Z26.823
N3369 X-.71 Y-1.857 Z26.803
N3370 X0 Y-2.152 Z26.784
N3371 X.623 Y-1.934 Z26.767
N3372 X.974 Y-1.374 Z26.75
N3373 X.901 Y-.718 Z26.734
N3374 X.797 Y-.502 Z26.728
N3375 X.679 Y-.254 Z26.721
N3376 X.275 Y.123 Z26.707
N3377 X-.277 Z26.693
N3378 X-.681 Y-.254 Z26.679
N3379 X-.903 Y-.72 Z26.667
N3380 X-1.001 Y-1.145 Z26.656
N3381 X-.71 Y-1.857 Z26.636
N3382 X0 Y-2.152 Z26.617
N3383 X.623 Y-1.934 Z26.6
N3384 X.974 Y-1.374 Z26.584
N3385 X.901 Y-.718 Z26.567
N3386 X.797 Y-.502 Z26.561
N3387 X.679 Y-.254 Z26.555
N3388 X.275 Y.123 Z26.541
N3389 X-.277 Z26.527
N3390 X-.681 Y-.254 Z26.513
N3391 X-.903 Y-.72 Z26.5
N3392 X-1.001 Y-1.145 Z26.489
N3393 X-.869 Y-1.648 F1500.
N3394 X-.503 Y-2.017
N3395 X0 Y-2.152
N3396 X.483 Y-2.027
N3397 X.846 Y-1.684
N3398 X.998 Y-1.208
N3399 X.901 Y-.718
N3400 X.797 Y-.502
N3401 X.679 Y-.254
N3402 X.401 Y.059
N3403 X0 Y.175
N3404 X-.403 Y.059
N3405 X-.681 Y-.254
N3406 X-.903 Y-.72
N3407 X-1.001 Y-1.145
N3408 X-1.093 Y-1.431
N3409 X-1.331 Y-1.612
N3410 X-1.63 Y-1.625
N3411 X-3.26 Y-1.189
N3412 X-3.599 Y-1.218
N3413 X-3.841 Y-1.457
N3414 X-4.5 Y-2.844
N3415 X-4.61 Y-3.408
N3416 X-4.434 Y-3.954
N3417 X-4.017 Y-4.348
N3418 X-3.461 Y-4.491
N3419 X3.461
N3420 X4.017 Y-4.348
N3421 X4.435 Y-3.954
N3422 X4.61 Y-3.407
N3423 X4.5 Y-2.844
N3424 X3.93 Y-1.651
N3425 X2.905 Y.513
N3426 X1.961 Y2.501
N3427 X1.487 Y3.165
N3428 X.8 Y3.606
N3429 X0 Y3.76
N3430 X-.801 Y3.606
N3431 X-1.487 Y3.165
N3432 X-1.961 Y2.501
N3433 X-3.841 Y-1.457
N3434 X-4.067 Y-1.689
N3435 X-4.388 Y-1.733
N3436 X-6.507 Y-1.321
N3437 X-6.829 Y-1.366
N3438 X-7.055 Y-1.598
N3439 X-8.989 Y-5.694
N3440 X-9.098 Y-6.254
N3441 X-8.923 Y-6.796
N3442 X-8.507 Y-7.187
N3443 X-7.955 Y-7.329
N3444 X7.955
N3445 X8.508 Y-7.187
N3446 X8.923 Y-6.796
N3447 X9.098 Y-6.254
N3448 X8.99 Y-5.694
N3449 X7.76 Y-3.102
N3450 X4.574 Y3.611
N3451 X3.952 Y4.973
N3452 X3.36 Y5.935
N3453 X2.516 Y6.687
N3454 X1.493 Y7.165
N3455 X.375 Y7.329
N3456 X-.375
N3457 X-1.493 Y7.165
N3458 X-2.516 Y6.687
N3459 X-3.36 Y5.935
N3460 X-3.952 Y4.973
N3461 X-7.055 Y-1.598
N3462 X-7.281 Y-1.831
N3463 X-7.603 Y-1.875
N3464 X-9.713 Y-1.464
N3465 X-10.034 Y-1.509
N3466 X-10.26 Y-1.741
N3467 X-13.469 Y-8.523
N3468 X-13.576 Y-9.085
N3469 X-13.399 Y-9.629
N3470 X-12.982 Y-10.021
N3471 X-12.428 Y-10.163
N3472 X12.428
N3473 X12.982 Y-10.021
N3474 X13.399 Y-9.629
N3475 X13.576 Y-9.085
N3476 X13.469 Y-8.523
N3477 X12.876 Y-7.259
N3478 X7.134 Y4.828
N3479 X6.488 Y6.265
N3480 X6.056 Y8.214
N3481 X5.768 Y8.985
N3482 X5.236 Y9.612
N3483 X4.523 Y10.021
N3484 X3.712 Y10.163
N3485 X-3.712
N3486 X-4.523 Y10.021
N3487 X-5.236 Y9.612
N3488 X-5.768 Y8.985
N3489 X-6.056 Y8.214
N3490 X-6.312 Y6.86
N3491 X-6.583 Y6.03
N3492 X-10.26 Y-1.741
N3493 X-10.486 Y-1.973
N3494 X-10.807 Y-2.018
N3495 X-12.915 Y-1.613
N3496 X-13.235 Y-1.658
N3497 X-13.461 Y-1.889
N3498 X-14.158 Y-3.358
N3499 X-15.44 Y-6.045
N3500 X-16.071 Y-7.389
N3501 X-17.344 Y-10.075
N3502 X-17.619 Y-10.656
N3503 X-17.989 Y-11.419
N3504 X-18.964 Y-12.676
N3505 X-18.986 Y-12.887
N3506 X-18.805 Y-13.
N3507 X18.805
N3508 X18.985 Y-12.888
N3509 X18.964 Y-12.676
N3510 X17.989 Y-11.419
N3511 X17.619 Y-10.656
N3512 X16.706 Y-8.732
N3513 X15.44 Y-6.045
N3514 X14.158 Y-3.358
N3515 X12.884 Y-.672
N3516 X12.25 Y.672
N3517 X11.608 Y2.015
N3518 X10.978 Y3.358
N3519 X10.572 Y4.202
N3520 X9.696 Y6.045
N3521 X9.162 Y7.212
N3522 X9.1 Y7.389
N3523 X8.845 Y8.732
N3524 X8.953 Y10.075
N3525 X9.162 Y10.788
N3526 X9.449 Y11.419
N3527 X10.49 Y12.761
N3528 X10.506 Y12.917
N3529 X10.373 Y13.
N3530 X-10.373
N3531 X-10.506 Y12.917
N3532 X-10.49 Y12.761
N3533 X-9.449 Y11.419
N3534 X-9.162 Y10.788
N3535 X-8.953 Y10.075
N3536 X-8.845 Y8.732
N3537 X-9.1 Y7.389
N3538 X-9.162 Y7.212
N3539 X-9.697 Y6.045
N3540 X-10.977 Y3.358
N3541 X-11.609 Y2.015
N3542 X-12.25 Y.672
N3543 X-12.884 Y-.672
N3544 X-13.461 Y-1.889
N3545 X-13.493 Y-2.23
N3546 X-13.298 Y-2.512
N3547 X-12.967 Y-2.602
N3548 X-1.542 Y-1.628
N3549 X-1.158 Y-1.761
N3550 X-1. Y-2.136
N3551 X-.714 Y-2.856 Z26.47 F600.
N3552 X0 Y-3.156 Z26.45
N3553 X.622 Y-2.939 Z26.434
N3554 X.974 Y-2.383 Z26.417
N3555 X.905 Y-1.728 Z26.401
N3556 X.68 Y-1.252 Z26.388
N3557 X.276 Y-.874 Z26.374
N3558 X-.277 Y-.875 Z26.36
N3559 X-.68 Y-1.253 Z26.346
N3560 X-.905 Y-1.729 Z26.333
N3561 X-1. Y-2.136 Z26.323
N3562 X-.714 Y-2.856 Z26.303
N3563 X0 Y-3.156 Z26.283
N3564 X.622 Y-2.939 Z26.267
N3565 X.974 Y-2.383 Z26.25
N3566 X.905 Y-1.728 Z26.234
N3567 X.68 Y-1.252 Z26.221
N3568 X.276 Y-.874 Z26.207
N3569 X-.277 Y-.875 Z26.193
N3570 X-.68 Y-1.253 Z26.179
N3571 X-.905 Y-1.729 Z26.166
N3572 X-1. Y-2.136 Z26.156
N3573 X-.714 Y-2.856 Z26.136
N3574 X0 Y-3.156 Z26.117
N3575 X.622 Y-2.939 Z26.1
N3576 X.974 Y-2.383 Z26.084
N3577 X.905 Y-1.728 Z26.067
N3578 X.68 Y-1.252 Z26.054
N3579 X.276 Y-.874 Z26.04
N3580 X-.277 Y-.875 Z26.026
N3581 X-.68 Y-1.253 Z26.013
N3582 X-.905 Y-1.729 Z26.
N3583 X-1. Y-2.136 Z25.989
N3584 X-.873 Y-2.644 F1500.
N3585 X-.506 Y-3.019
N3586 X0 Y-3.156
N3587 X.482 Y-3.032
N3588 X.845 Y-2.691
N3589 X.998 Y-2.217
N3590 X.905 Y-1.728
N3591 X.68 Y-1.252
N3592 X.402 Y-.938
N3593 X0 Y-.822
N3594 X-.403 Y-.939
N3595 X-.68 Y-1.253
N3596 X-.905 Y-1.729
N3597 X-1. Y-2.136
N3598 X-1.175 Y-2.506
N3599 X-1.568 Y-2.621
N3600 X-2.688 Y-2.467
N3601 X-2.994 Y-2.522
N3602 X-3.208 Y-2.747
N3603 X-3.402 Y-3.156
N3604 X-3.511 Y-3.719
N3605 X-3.335 Y-4.264
N3606 X-2.917 Y-4.656
N3607 X-2.363 Y-4.799
N3608 X2.364
N3609 X2.918 Y-4.656
N3610 X3.335 Y-4.264
N3611 X3.511 Y-3.719
N3612 X3.403 Y-3.157
N3613 X1.983 Y-.166
N3614 X.619 Y2.702
N3615 X.251 Y3.045
N3616 X-.252
N3617 X-.619 Y2.702
N3618 X-3.208 Y-2.747
N3619 X-3.426 Y-2.975
N3620 X-3.736 Y-3.027
N3621 X-5.608 Y-2.736
N3622 X-5.919 Y-2.789
N3623 X-6.136 Y-3.016
N3624 X-7.407 Y-5.7
N3625 X-7.515 Y-6.258
N3626 X-7.341 Y-6.798
N3627 X-6.927 Y-7.188
N3628 X-6.377 Y-7.329
N3629 X6.376
N3630 X6.926 Y-7.188
N3631 X7.34 Y-6.799
N3632 X7.515 Y-6.258
N3633 X7.407 Y-5.7
N3634 X4.268 Y.922
N3635 X2.631 Y4.365
N3636 X2.077 Y5.779
N3637 X1.635 Y6.584
N3638 X.898 Y7.134
N3639 X0 Y7.329
N3640 X-.898 Y7.134
N3641 X-1.635 Y6.584
N3642 X-2.077 Y5.779
N3643 X-2.632 Y4.361
N3644 X-5.543 Y-1.763
N3645 X-6.136 Y-3.016
N3646 X-6.363 Y-3.249
N3647 X-6.684 Y-3.293
N3648 X-8.791 Y-2.884
N3649 X-9.112 Y-2.929
N3650 X-9.338 Y-3.161
N3651 X-9.372 Y-3.232
N3652 X-11.882 Y-8.519
N3653 X-11.99 Y-9.082
N3654 X-11.813 Y-9.627
N3655 X-11.396 Y-10.02
N3656 X-10.84 Y-10.162
N3657 X10.84
N3658 X11.396 Y-10.02
N3659 X11.813 Y-9.627
N3660 X11.99 Y-9.082
N3661 X11.882 Y-8.519
N3662 X6.826 Y2.139
N3663 X4.883 Y6.325
N3664 X4.469 Y8.214
N3665 X4.182 Y8.985
N3666 X3.65 Y9.612
N3667 X2.936 Y10.02
N3668 X2.126 Y10.162
N3669 X-2.126
N3670 X-2.936 Y10.02
N3671 X-3.65 Y9.612
N3672 X-4.182 Y8.985
N3673 X-4.469 Y8.214
N3674 X-4.726 Y6.86
N3675 X-5.19 Y5.579
N3676 X-8.101 Y-.547
N3677 X-9.338 Y-3.161
N3678 X-9.565 Y-3.394
N3679 X-9.886 Y-3.438
N3680 X-11.998 Y-3.025
N3681 X-12.319 Y-3.07
N3682 X-12.546 Y-3.302
N3683 X-12.573 Y-3.358
N3684 X-13.391 Y-5.065
N3685 X-15.12 Y-8.732
N3686 X-16.21 Y-11.027
N3687 X-16.403 Y-11.419
N3688 X-17.445 Y-12.762
N3689 X-17.513 Y-12.822
N3690 X-17.54 Y-12.934
N3691 X-17.445 Y-13.
N3692 X17.445
N3693 X17.54 Y-12.934
N3694 X17.513 Y-12.822
N3695 X17.445 Y-12.762
N3696 X16.403 Y-11.419
N3697 X16.21 Y-11.027
N3698 X15.12 Y-8.732
N3699 X13.391 Y-5.066
N3700 X12.573 Y-3.358
N3701 X9.389 Y3.358
N3702 X7.753 Y6.798
N3703 X7.514 Y7.389
N3704 X7.259 Y8.732
N3705 X7.367 Y10.075
N3706 X7.753 Y11.202
N3707 X7.863 Y11.419
N3708 X8.905 Y12.762
N3709 X9.053 Y12.891
N3710 X9.012 Y13.
N3711 X-9.012
N3712 X-9.053 Y12.891
N3713 X-8.905 Y12.762
N3714 X-7.863 Y11.419
N3715 X-7.753 Y11.202
N3716 X-7.367 Y10.075
N3717 X-7.259 Y8.732
N3718 X-7.514 Y7.389
N3719 X-7.753 Y6.798
N3720 X-9.39 Y3.358
N3721 X-10.022 Y2.015
N3722 X-10.664 Y.672
N3723 X-12.546 Y-3.302
N3724 X-12.569 Y-3.672
N3725 X-12.33 Y-3.956
N3726 X-11.961 Y-3.998
N3727 X.273 Y-.635
N3728 X.568 Y-.412
N3729 X.629 Y-.047
N3730 X.423 Y.26
N3731 X-.199 Y.365 Z25.981 F600.
N3732 X-.682 Y-.04 Z25.972
N3733 X-2.306 Y-3.465 Z25.923
N3734 X-2.415 Y-3.892 Z25.917
N3735 X-2.104 Y-4.748 Z25.905
N3736 X-1.267 Y-5.109 Z25.893
N3737 X1.267 Z25.86
N3738 X1.983 Y-4.859 Z25.85
N3739 X2.388 Y-4.219 Z25.84
N3740 X2.306 Y-3.465 Z25.83
N3741 X.678 Y-.039 Z25.78
N3742 X.274 Y.339 Z25.773
N3743 X-.279 Y.338 Z25.766
N3744 X-.682 Y-.04 Z25.758
N3745 X-2.306 Y-3.465 Z25.709
N3746 X-2.415 Y-3.892 Z25.703
N3747 X-2.104 Y-4.748 Z25.691
N3748 X-1.267 Y-5.109 Z25.679
N3749 X1.267 Z25.646
N3750 X1.983 Y-4.859 Z25.636
N3751 X2.388 Y-4.219 Z25.626
N3752 X2.306 Y-3.465 Z25.616
N3753 X.678 Y-.039 Z25.566
N3754 X.274 Y.339 Z25.559
N3755 X-.279 Y.338 Z25.552
N3756 X-.682 Y-.04 Z25.544
N3757 X-2.306 Y-3.465 Z25.495
N3758 X-2.415 Y-3.892 Z25.489
N3759 X-2.285 Y-4.495 F1500.
N3760 X-1.861 Y-4.943
N3761 X-1.267 Y-5.109
N3762 X1.267
N3763 X1.822 Y-4.966
N3764 X2.239 Y-4.573
N3765 X2.415 Y-4.028
N3766 X2.306 Y-3.465
N3767 X.678 Y-.039
N3768 X.4 Y.275
N3769 X-.002 Y.391
N3770 X-.405 Y.274
N3771 X-.682 Y-.04
N3772 X-2.306 Y-3.465
N3773 X-2.415 Y-3.892
N3774 X-2.61 Y-4.259
N3775 X-3.014 Y-4.353
N3776 X-3.35 Y-4.108
N3777 X-4.022 Y-2.917
N3778 X-4.296 Y-2.689
N3779 X-4.652 Y-2.702
N3780 X-4.909 Y-2.948
N3781 X-6.377 Y-6.039
N3782 X-6.487 Y-6.6
N3783 X-6.313 Y-7.146
N3784 X-5.896 Y-7.539
N3785 X-5.342 Y-7.682
N3786 X5.344
N3787 X5.898 Y-7.539
N3788 X6.314 Y-7.147
N3789 X6.488 Y-6.602
N3790 X6.377 Y-6.041
N3791 X4.908 Y-2.947
N3792 X1.539 Y4.145
N3793 X1.045 Y5.281
N3794 X.703 Y6.398
N3795 X.456 Y6.816
N3796 X0 Y6.98
N3797 X-.456 Y6.816
N3798 X-.703 Y6.398
N3799 X-1.046 Y5.28
N3800 X-1.461 Y4.319
N3801 X-4.909 Y-2.948
N3802 X-5.186 Y-3.202
N3803 X-5.561 Y-3.192
N3804 X-5.824 Y-2.923
N3805 X-6.236 Y-1.912
N3806 X-6.499 Y-1.642
N3807 X-6.874 Y-1.632
N3808 X-7.151 Y-1.886
N3809 X-10.296 Y-8.517
N3810 X-10.405 Y-9.08
N3811 X-10.228 Y-9.626
N3812 X-9.81 Y-10.02
N3813 X-9.255 Y-10.162
N3814 X9.255
N3815 X9.81 Y-10.019
N3816 X10.228 Y-9.626
N3817 X10.404 Y-9.08
N3818 X10.295 Y-8.517
N3819 X7.15 Y-1.886
N3820 X5.876 Y.796
N3821 X3.323 Y6.264
N3822 X2.884 Y8.214
N3823 X2.596 Y8.985
N3824 X2.064 Y9.612
N3825 X1.35 Y10.02
N3826 X.54 Y10.162
N3827 X-.54
N3828 X-1.35 Y10.02
N3829 X-2.064 Y9.612
N3830 X-2.596 Y8.985
N3831 X-2.884 Y8.214
N3832 X-3.323 Y6.264
N3833 X-3.781 Y5.208
N3834 X-7.151 Y-1.886
N3835 X-7.377 Y-2.118
N3836 X-7.698 Y-2.163
N3837 X-9.81 Y-1.754
N3838 X-10.131 Y-1.799
N3839 X-10.357 Y-2.032
N3840 X-10.572 Y-2.486
N3841 X-11.633 Y-4.702
N3842 X-12.264 Y-6.045
N3843 X-13.391 Y-8.43
N3844 X-14.172 Y-10.075
N3845 X-14.8 Y-11.387
N3846 X-14.818 Y-11.419
N3847 X-15.748 Y-12.618
N3848 X-15.765 Y-12.728
N3849 X-15.682 Y-12.802
N3850 X-14.854 Y-12.988
N3851 X-14.745 Y-13.
N3852 X14.745
N3853 X14.854 Y-12.988
N3854 X15.682 Y-12.802
N3855 X15.765 Y-12.728
N3856 X15.748 Y-12.618
N3857 X14.818 Y-11.419
N3858 X14.8 Y-11.387
N3859 X14.172 Y-10.075
N3860 X13.391 Y-8.43
N3861 X12.264 Y-6.045
N3862 X11.633 Y-4.702
N3863 X10.572 Y-2.486
N3864 X9.162 Y.494
N3865 X6.343 Y6.427
N3866 X5.928 Y7.389
N3867 X5.673 Y8.732
N3868 X5.781 Y10.075
N3869 X6.277 Y11.419
N3870 X6.343 Y11.538
N3871 X7.205 Y12.619
N3872 X7.224 Y12.73
N3873 X7.141 Y12.805
N3874 X6.401 Y12.986
N3875 X6.283 Y13.
N3876 X-6.283
N3877 X-6.401 Y12.986
N3878 X-7.141 Y12.805
N3879 X-7.224 Y12.73
N3880 X-7.205 Y12.619
N3881 X-6.343 Y11.538
N3882 X-6.277 Y11.419
N3883 X-5.781 Y10.075
N3884 X-5.673 Y8.732
N3885 X-5.928 Y7.389
N3886 X-6.343 Y6.428
N3887 X-7.804 Y3.358
N3888 X-8.439 Y2.015
N3889 X-9.716 Y-.672
N3890 X-10.357 Y-2.032
N3891 X-10.395 Y-2.347
N3892 X-10.234 Y-2.621
N3893 X-9.941 Y-2.744
N3894 X-1.433 Y-3.36
N3895 X-1.071 Y-3.557
N3896 X-.98 Y-3.959
N3897 X-.775 Y-4.793 Z25.467 F600.
N3898 X0 Y-5.161 Z25.446
N3899 X.622 Y-4.944 Z25.429
N3900 X.974 Y-4.387 Z25.413
N3901 X.903 Y-3.731 Z25.396
N3902 X.675 Y-3.251 Z25.383
N3903 X.274 Y-2.877 Z25.369
N3904 X-.274 Z25.355
N3905 X-.675 Y-3.251 Z25.342
N3906 X-.903 Y-3.731 Z25.328
N3907 X-.98 Y-3.959 Z25.323
N3908 X-.775 Y-4.793 Z25.301
N3909 X0 Y-5.161 Z25.279
N3910 X.622 Y-4.944 Z25.262
N3911 X.974 Y-4.387 Z25.246
N3912 X.903 Y-3.731 Z25.229
N3913 X.675 Y-3.251 Z25.216
N3914 X.274 Y-2.877 Z25.202
N3915 X-.274 Z25.189
N3916 X-.675 Y-3.251 Z25.175
N3917 X-.903 Y-3.731 Z25.162
N3918 X-.98 Y-3.959 Z25.156
N3919 X-.775 Y-4.793 Z25.134
N3920 X0 Y-5.161 Z25.112
N3921 X.622 Y-4.944 Z25.096
N3922 X.974 Y-4.387 Z25.079
N3923 X.903 Y-3.731 Z25.063
N3924 X.675 Y-3.251 Z25.05
N3925 X.274 Y-2.877 Z25.036
N3926 X-.274 Z25.022
N3927 X-.675 Y-3.251 Z25.008
N3928 X-.903 Y-3.731 Z24.995
N3929 X-.98 Y-3.959 Z24.989
N3930 X-.926 Y-4.54 F1500.
N3931 X-.558 Y-4.991
N3932 X0 Y-5.161
N3933 X.483 Y-5.037
N3934 X.846 Y-4.695
N3935 X.998 Y-4.221
N3936 X.903 Y-3.731
N3937 X.675 Y-3.251
N3938 X.399 Y-2.94
N3939 X0 Y-2.825
N3940 X-.399 Y-2.94
N3941 X-.675 Y-3.251
N3942 X-.903 Y-3.731
N3943 X-.98 Y-3.959
N3944 X-1.196 Y-4.277
N3945 X-1.573 Y-4.348
N3946 X-3.291 Y-3.985
N3947 X-3.616 Y-4.027
N3948 X-3.846 Y-4.26
N3949 X-3.876 Y-4.324
N3950 X-4.654 Y-5.951
N3951 X-4.764 Y-6.513
N3952 X-4.589 Y-7.059
N3953 X-4.172 Y-7.452
N3954 X-3.617 Y-7.595
N3955 X3.617
N3956 X4.172 Y-7.452
N3957 X4.589 Y-7.059
N3958 X4.764 Y-6.513
N3959 X4.654 Y-5.951
N3960 X3.888 Y-4.348
N3961 X2.608 Y-1.649
N3962 X1.972 Y-.302
N3963 X.677 Y2.42
N3964 X.4 Y2.732
N3965 X0 Y2.848
N3966 X-.401 Y2.732
N3967 X-.678 Y2.42
N3968 X-3.846 Y-4.26
N3969 X-4.065 Y-4.488
N3970 X-4.377 Y-4.54
N3971 X-6.282 Y-4.235
N3972 X-6.593 Y-4.286
N3973 X-6.812 Y-4.513
N3974 X-7.481 Y-5.914
N3975 X-8.709 Y-8.518
N3976 X-8.819 Y-9.081
N3977 X-8.643 Y-9.627
N3978 X-8.225 Y-10.02
N3979 X-7.67 Y-10.163
N3980 X7.67
N3981 X8.225 Y-10.02
N3982 X8.643 Y-9.627
N3983 X8.819 Y-9.081
N3984 X8.71 Y-8.518
N3985 X7.482 Y-5.914
N3986 X6.204 Y-3.24
N3987 X5.565 Y-1.887
N3988 X1.749 Y6.238
N3989 X1.42 Y7.469
N3990 X1.25 Y8.732
N3991 X1.253 Y8.854
N3992 X1.104 Y9.504
N3993 X.643 Y9.986
N3994 X0 Y10.163
N3995 X-.643 Y9.986
N3996 X-1.104 Y9.504
N3997 X-1.253 Y8.854
N3998 X-1.408 Y7.528
N3999 X-1.749 Y6.237
N4000 X-2.371 Y4.839
N4001 X-6.198 Y-3.227
N4002 X-6.812 Y-4.513
N4003 X-7.039 Y-4.745
N4004 X-7.361 Y-4.788
N4005 X-9.47 Y-4.369
N4006 X-9.792 Y-4.412
N4007 X-10.019 Y-4.644
N4008 X-10.047 Y-4.702
N4009 X-10.676 Y-6.045
N4010 X-11.949 Y-8.732
N4011 X-12.587 Y-10.075
N4012 X-13.232 Y-11.419
N4013 X-13.391 Y-11.693
N4014 X-14.157 Y-12.621
N4015 X-14.178 Y-12.732
N4016 X-14.097 Y-12.81
N4017 X-13.455 Y-12.983
N4018 X-13.325 Y-13.
N4019 X13.325
N4020 X13.455 Y-12.983
N4021 X14.097 Y-12.81
N4022 X14.178 Y-12.732
N4023 X14.157 Y-12.621
N4024 X13.391 Y-11.693
N4025 X13.232 Y-11.419
N4026 X12.586 Y-10.075
N4027 X11.948 Y-8.732
N4028 X10.572 Y-5.823
N4029 X10.047 Y-4.702
N4030 X8.764 Y-2.015
N4031 X6.856 Y2.015
N4032 X4.933 Y6.056
N4033 X4.342 Y7.389
N4034 X4.088 Y8.732
N4035 X4.195 Y10.075
N4036 X4.691 Y11.419
N4037 X4.933 Y11.823
N4038 X5.613 Y12.622
N4039 X5.637 Y12.734
N4040 X5.556 Y12.815
N4041 X5.003 Y12.979
N4042 X4.861 Y13.
N4043 X-4.861
N4044 X-5.003 Y12.979
N4045 X-5.556 Y12.815
N4046 X-5.637 Y12.734
N4047 X-5.613 Y12.622
N4048 X-4.933 Y11.823
N4049 X-4.691 Y11.419
N4050 X-4.195 Y10.075
N4051 X-4.088 Y8.732
N4052 X-4.342 Y7.389
N4053 X-4.933 Y6.058
N4054 X-6.856 Y2.015
N4055 X-8.763 Y-2.015
N4056 X-10.019 Y-4.644
N4057 X-10.051 Y-4.987
N4058 X-9.854 Y-5.269
N4059 X-9.521 Y-5.357
N4060 X-1.761 Y-4.619
N4061 X-1.367 Y-4.757
N4062 X-1.215 Y-5.145
N4063 X-.904 Y-5.996 Z24.971 F600.
N4064 X-.072 Y-6.355 Z24.952
N4065 X.072 Z24.95
N4066 X.783 Y-6.107 Z24.934
N4067 X1.186 Y-5.47 Z24.919
N4068 X1.106 Y-4.721 Z24.904
N4069 X.676 Y-3.813 Z24.884
N4070 X.275 Y-3.437 Z24.873
N4071 X-.275 Z24.862
N4072 X-.676 Y-3.813 Z24.851
N4073 X-1.106 Y-4.721 Z24.831
N4074 X-1.215 Y-5.145 Z24.823
N4075 X-.904 Y-5.996 Z24.804
N4076 X-.072 Y-6.355 Z24.786
N4077 X.072 Z24.783
N4078 X.783 Y-6.107 Z24.768
N4079 X1.186 Y-5.47 Z24.753
N4080 X1.106 Y-4.721 Z24.738
N4081 X.676 Y-3.813 Z24.718
N4082 X.275 Y-3.437 Z24.707
N4083 X-.275 Z24.695
N4084 X-.676 Y-3.813 Z24.684
N4085 X-1.106 Y-4.721 Z24.665
N4086 X-1.215 Y-5.145 Z24.656
N4087 X-.904 Y-5.996 Z24.638
N4088 X-.072 Y-6.355 Z24.619
N4089 X.072 Z24.616
N4090 X.783 Y-6.107 Z24.601
N4091 X1.186 Y-5.47 Z24.586
N4092 X1.106 Y-4.721 Z24.571
N4093 X.676 Y-3.813 Z24.551
N4094 X.275 Y-3.437 Z24.54
N4095 X-.275 Z24.529
N4096 X-.676 Y-3.813 Z24.518
N4097 X-1.106 Y-4.721 Z24.498
N4098 X-1.215 Y-5.145 Z24.489
N4099 X-1.084 Y-5.745 F1500.
N4100 X-.663 Y-6.19
N4101 X-.072 Y-6.355
N4102 X.072
N4103 X.624 Y-6.213
N4104 X1.039 Y-5.823
N4105 X1.214 Y-5.281
N4106 X1.106 Y-4.721
N4107 X.676 Y-3.813
N4108 X.4 Y-3.501
N4109 X0 Y-3.385
N4110 X-.4 Y-3.501
N4111 X-.676 Y-3.813
N4112 X-1.106 Y-4.721
N4113 X-1.215 Y-5.145
N4114 X-1.423 Y-5.524
N4115 X-1.848 Y-5.599
N4116 X-3.67 Y-5.091
N4117 X-4.012 Y-5.118
N4118 X-4.256 Y-5.358
N4119 X-4.774 Y-6.445
N4120 X-5.169 Y-7.283
N4121 X-5.276 Y-7.845
N4122 X-5.099 Y-8.39
N4123 X-4.682 Y-8.782
N4124 X-4.127 Y-8.924
N4125 X4.128
N4126 X4.682 Y-8.782
N4127 X5.099 Y-8.39
N4128 X5.276 Y-7.845
N4129 X5.169 Y-7.283
N4130 X.679 Y2.177
N4131 X.402 Y2.49
N4132 X0 Y2.607
N4133 X-.403 Y2.49
N4134 X-.681 Y2.177
N4135 X-3.494 Y-3.759
N4136 X-4.256 Y-5.358
N4137 X-4.475 Y-5.586
N4138 X-4.788 Y-5.636
N4139 X-6.691 Y-5.325
N4140 X-7.004 Y-5.376
N4141 X-7.224 Y-5.606
N4142 X-7.732 Y-6.685
N4143 X-9.238 Y-9.865
N4144 X-9.347 Y-10.424
N4145 X-9.172 Y-10.966
N4146 X-8.757 Y-11.356
N4147 X-8.205 Y-11.498
N4148 X8.205
N4149 X8.757 Y-11.356
N4150 X9.172 Y-10.966
N4151 X9.347 Y-10.424
N4152 X9.238 Y-9.865
N4153 X7.733 Y-6.686
N4154 X3.913 Y1.371
N4155 X1.384 Y6.779
N4156 X1. Y8.732
N4157 X1.118 Y10.246
N4158 X1.014 Y10.86
N4159 X.599 Y11.326
N4160 X0 Y11.498
N4161 X-.599 Y11.326
N4162 X-1.014 Y10.86
N4163 X-1.118 Y10.246
N4164 X-1. Y8.732
N4165 X-1.384 Y6.779
N4166 X-1.998 Y5.4
N4167 X-5.821 Y-2.658
N4168 X-7.1 Y-5.344
N4169 X-7.224 Y-5.606
N4170 X-7.383 Y-5.798
N4171 X-7.615 Y-5.889
N4172 X-8.831 Y-6.037
N4173 X-9.063 Y-6.128
N4174 X-9.223 Y-6.32
N4175 X-10.363 Y-8.732
N4176 X-11.001 Y-10.075
N4177 X-11.646 Y-11.419
N4178 X-11.981 Y-11.958
N4179 X-12.565 Y-12.622
N4180 X-12.591 Y-12.736
N4181 X-12.511 Y-12.822
N4182 X-12.051 Y-12.977
N4183 X-11.908 Y-13.
N4184 X11.908
N4185 X12.051 Y-12.977
N4186 X12.511 Y-12.822
N4187 X12.591 Y-12.736
N4188 X12.565 Y-12.622
N4189 X11.981 Y-11.958
N4190 X11.646 Y-11.419
N4191 X11.001 Y-10.075
N4192 X10.363 Y-8.732
N4193 X8.458 Y-4.702
N4194 X7.177 Y-2.015
N4195 X5.269 Y2.015
N4196 X3.353 Y6.045
N4197 X2.756 Y7.389
N4198 X2.502 Y8.732
N4199 X2.61 Y10.075
N4200 X3.105 Y11.419
N4201 X3.524 Y12.072
N4202 X4.02 Y12.621
N4203 X4.05 Y12.739
N4204 X3.97 Y12.83
N4205 X3.594 Y12.973
N4206 X3.449 Y13.
N4207 X-3.449
N4208 X-3.594 Y12.973
N4209 X-3.97 Y12.83
N4210 X-4.05 Y12.739
N4211 X-4.02 Y12.621
N4212 X-3.524 Y12.072
N4213 X-3.105 Y11.419
N4214 X-2.61 Y10.075
N4215 X-2.502 Y8.732
N4216 X-2.756 Y7.389
N4217 X-3.354 Y6.045
N4218 X-5.269 Y2.015
N4219 X-7.178 Y-2.015
N4220 X-8.458 Y-4.702
N4221 X-9.223 Y-6.32
N4222 X-9.251 Y-6.67
N4223 X-9.042 Y-6.953
N4224 X-8.698 Y-7.028
N4225 X-2.59 Y-6.138
N4226 X-2.182 Y-6.263
N4227 X-2.019 Y-6.656
N4228 X-1.702 Y-7.503 Z24.478 F600.
N4229 X-.871 Y-7.859 Z24.467
N4230 X.871 Z24.446
N4231 X1.586 Y-7.61 Z24.437
N4232 X1.99 Y-6.97 Z24.428
N4233 X1.909 Y-6.218 Z24.418
N4234 X.962 Y-4.23 Z24.392
N4235 X.677 Y-3.626 Z24.384
N4236 X.275 Y-3.249 Z24.377
N4237 X-.276 Z24.37
N4238 X-.678 Y-3.625 Z24.364
N4239 X-.957 Y-4.215 Z24.356
N4240 X-1.909 Y-6.218 Z24.329
N4241 X-2.019 Y-6.656 Z24.324
N4242 X-1.702 Y-7.503 Z24.313
N4243 X-.871 Y-7.859 Z24.302
N4244 X.871 Z24.281
N4245 X1.586 Y-7.61 Z24.271
N4246 X1.99 Y-6.97 Z24.262
N4247 X1.909 Y-6.218 Z24.253
N4248 X.962 Y-4.23 Z24.227
N4249 X.677 Y-3.626 Z24.219
N4250 X.275 Y-3.249 Z24.212
N4251 X-.276 Z24.205
N4252 X-.678 Y-3.625 Z24.198
N4253 X-.957 Y-4.215 Z24.19
N4254 X-1.909 Y-6.218 Z24.164
N4255 X-2.019 Y-6.656 Z24.158
N4256 X-1.702 Y-7.503 Z24.147
N4257 X-.871 Y-7.859 Z24.136
N4258 X.871 Z24.115
N4259 X1.586 Y-7.61 Z24.106
N4260 X1.99 Y-6.97 Z24.097
N4261 X1.909 Y-6.218 Z24.087
N4262 X.962 Y-4.23 Z24.061
N4263 X.677 Y-3.626 Z24.053
N4264 X.275 Y-3.249 Z24.046
N4265 X-.276 Z24.04
N4266 X-.678 Y-3.625 Z24.033
N4267 X-.957 Y-4.215 Z24.025
N4268 X-1.909 Y-6.218 Z23.998
N4269 X-2.019 Y-6.656 Z23.993
N4270 X-1.883 Y-7.253 F1500.
N4271 X-1.461 Y-7.696
N4272 X-.871 Y-7.859
N4273 X.871
N4274 X1.425 Y-7.716
N4275 X1.842 Y-7.324
N4276 X2.018 Y-6.78
N4277 X1.909 Y-6.218
N4278 X.962 Y-4.23
N4279 X.677 Y-3.626
N4280 X.4 Y-3.313
N4281 X0 Y-3.197
N4282 X-.401 Y-3.313
N4283 X-.678 Y-3.625
N4284 X-.957 Y-4.215
N4285 X-1.909 Y-6.218
N4286 X-2.019 Y-6.656
N4287 X-2.225 Y-7.038
N4288 X-2.653 Y-7.115
N4289 X-4.477 Y-6.604
N4290 X-4.819 Y-6.631
N4291 X-5.063 Y-6.871
N4292 X-5.194 Y-7.147
N4293 X-5.971 Y-8.789
N4294 X-6.079 Y-9.351
N4295 X-5.904 Y-9.895
N4296 X-5.487 Y-10.287
N4297 X-4.933 Y-10.429
N4298 X4.933
N4299 X5.487 Y-10.287
N4300 X5.904 Y-9.895
N4301 X6.079 Y-9.351
N4302 X5.971 Y-8.789
N4303 X3.282 Y-3.123
N4304 X1.202 Y1.262
N4305 X.677 Y2.372
N4306 X.4 Y2.684
N4307 X0 Y2.8
N4308 X-.401 Y2.684
N4309 X-.678 Y2.371
N4310 X-1.2 Y1.267
N4311 X-3.28 Y-3.115
N4312 X-5.063 Y-6.871
N4313 X-5.283 Y-7.1
N4314 X-5.595 Y-7.15
N4315 X-7.496 Y-6.843
N4316 X-7.809 Y-6.895
N4317 X-8.028 Y-7.124
N4318 X-8.152 Y-7.389
N4319 X-8.789 Y-8.732
N4320 X-9.427 Y-10.075
N4321 X-10.072 Y-11.419
N4322 X-10.572 Y-12.177
N4323 X-10.982 Y-12.62
N4324 X-11.016 Y-12.742
N4325 X-10.936 Y-12.84
N4326 X-10.642 Y-12.969
N4327 X-10.495 Y-13.
N4328 X10.495
N4329 X10.642 Y-12.969
N4330 X10.936 Y-12.84
N4331 X11.016 Y-12.742
N4332 X10.982 Y-12.62
N4333 X10.572 Y-12.177
N4334 X10.072 Y-11.419
N4335 X9.427 Y-10.075
N4336 X8.789 Y-8.732
N4337 X8.152 Y-7.389
N4338 X7.753 Y-6.538
N4339 X6.243 Y-3.358
N4340 X5.602 Y-2.015
N4341 X4.933 Y-.6
N4342 X3.524 Y2.366
N4343 X1.779 Y6.045
N4344 X1.182 Y7.389
N4345 X.928 Y8.732
N4346 X1.036 Y10.075
N4347 X1.531 Y11.419
N4348 X2.114 Y12.279
N4349 X2.435 Y12.617
N4350 X2.475 Y12.746
N4351 X2.396 Y12.854
N4352 X2.185 Y12.963
N4353 X2.034 Y13.
N4354 X-2.034
N4355 X-2.185 Y12.963
N4356 X-2.396 Y12.854
N4357 X-2.475 Y12.746
N4358 X-2.435 Y12.617
N4359 X-2.114 Y12.279
N4360 X-1.531 Y11.419
N4361 X-1.036 Y10.075
N4362 X-.928 Y8.732
N4363 X-1.182 Y7.389
N4364 X-1.78 Y6.045
N4365 X-2.419 Y4.702
N4366 X-3.524 Y2.366
N4367 X-5.604 Y-2.015
N4368 X-7.517 Y-6.045
N4369 X-7.753 Y-6.538
N4370 X-8.028 Y-7.124
N4371 X-8.054 Y-7.483
N4372 X-7.832 Y-7.766
N4373 X-7.477 Y-7.827
N4374 X-1.598 Y-6.652
N4375 X-1.183 Y-6.756
N4376 X-1. Y-7.143
N4377 X-.708 Y-7.852 Z23.974 F600.
N4378 X0 Y-8.146 Z23.955
N4379 X.622 Y-7.929 Z23.939
N4380 X.974 Y-7.372 Z23.922
N4381 X.904 Y-6.717 Z23.906
N4382 X.678 Y-6.243 Z23.893
N4383 X.276 Y-5.867 Z23.88
N4384 X-.276 Z23.866
N4385 X-.678 Y-6.243 Z23.852
N4386 X-.904 Y-6.717 Z23.84
N4387 X-1. Y-7.143 Z23.829
N4388 X-.708 Y-7.852 Z23.81
N4389 X0 Y-8.146 Z23.791
N4390 X.622 Y-7.929 Z23.775
N4391 X.974 Y-7.372 Z23.759
N4392 X.904 Y-6.717 Z23.742
N4393 X.678 Y-6.243 Z23.73
N4394 X.276 Y-5.867 Z23.716
N4395 X-.276 Z23.702
N4396 X-.678 Y-6.243 Z23.689
N4397 X-.904 Y-6.717 Z23.676
N4398 X-1. Y-7.143 Z23.665
N4399 X-.708 Y-7.852 Z23.646
N4400 X0 Y-8.146 Z23.627
N4401 X.622 Y-7.929 Z23.611
N4402 X.974 Y-7.372 Z23.595
N4403 X.904 Y-6.717 Z23.579
N4404 X.678 Y-6.243 Z23.566
N4405 X.276 Y-5.867 Z23.552
N4406 X-.276 Z23.539
N4407 X-.678 Y-6.243 Z23.525
N4408 X-.904 Y-6.717 Z23.512
N4409 X-1. Y-7.143 Z23.502
N4410 X-.867 Y-7.645 F1500.
N4411 X-.501 Y-8.012
N4412 X0 Y-8.146
N4413 X.483 Y-8.022
N4414 X.845 Y-7.681
N4415 X.998 Y-7.206
N4416 X.904 Y-6.717
N4417 X.678 Y-6.243
N4418 X.401 Y-5.93
N4419 X0 Y-5.814
N4420 X-.401 Y-5.93
N4421 X-.678 Y-6.243
N4422 X-.904 Y-6.717
N4423 X-1. Y-7.143
N4424 X-1.091 Y-7.429
N4425 X-1.328 Y-7.611
N4426 X-1.627 Y-7.626
N4427 X-3.212 Y-7.21
N4428 X-3.55 Y-7.24
N4429 X-3.791 Y-7.479
N4430 X-4.017 Y-7.955
N4431 X-4.41 Y-8.788
N4432 X-4.518 Y-9.349
N4433 X-4.343 Y-9.893
N4434 X-3.926 Y-10.285
N4435 X-3.373 Y-10.428
N4436 X3.373
N4437 X3.926 Y-10.285
N4438 X4.343 Y-9.893
N4439 X4.518 Y-9.349
N4440 X4.409 Y-8.788
N4441 X.678 Y-.924
N4442 X.401 Y-.611
N4443 X0 Y-.495
N4444 X-.401 Y-.611
N4445 X-.678 Y-.924
N4446 X-3.791 Y-7.479
N4447 X-4.004 Y-7.704
N4448 X-4.309 Y-7.76
N4449 X-4.589 Y-7.625
N4450 X-5.544 Y-6.709
N4451 X-5.824 Y-6.574
N4452 X-6.13 Y-6.631
N4453 X-6.343 Y-6.857
N4454 X-6.593 Y-7.389
N4455 X-7.868 Y-10.075
N4456 X-8.513 Y-11.419
N4457 X-9.162 Y-12.357
N4458 X-9.411 Y-12.613
N4459 X-9.456 Y-12.749
N4460 X-9.378 Y-12.87
N4461 X-9.234 Y-12.957
N4462 X-9.079 Y-13.
N4463 X9.079
N4464 X9.234 Y-12.957
N4465 X9.378 Y-12.87
N4466 X9.456 Y-12.749
N4467 X9.411 Y-12.613
N4468 X9.162 Y-12.357
N4469 X8.513 Y-11.419
N4470 X7.868 Y-10.075
N4471 X6.592 Y-7.389
N4472 X6.343 Y-6.857
N4473 X.346 Y5.779
N4474 X.141 Y5.972
N4475 X-.141
N4476 X-.347 Y5.779
N4477 X-2.114 Y2.049
N4478 X-6.343 Y-6.857
N4479 Z26.002
N4480 G00 Z26.989
N4481 X-.668 Y12.461
N4482 Z26.493
N4483 G01 Z23.993 F600.
N4484 X-.59 Y12.45 Z23.99
N4485 X.59 Z23.944
N4486 X.785 Y12.531 Z23.936
N4487 X.859 Y12.605 Z23.932
N4488 X.839 Y12.897 Z23.919
N4489 X.776 Y12.945 Z23.916
N4490 X.615 Y13. Z23.909
N4491 X-.615 Z23.861
N4492 X-.776 Y12.945 Z23.854
N4493 X-.839 Y12.897 Z23.851
N4494 X-.859 Y12.605 Z23.839
N4495 X-.785 Y12.531 Z23.835
N4496 X-.668 Y12.461 Z23.829
N4497 X-.59 Y12.45 Z23.826
N4498 X.59 Z23.78
N4499 X.785 Y12.531 Z23.772
N4500 X.859 Y12.605 Z23.768
N4501 X.839 Y12.897 Z23.755
N4502 X.776 Y12.945 Z23.752
N4503 X.615 Y13. Z23.745
N4504 X-.615 Z23.697
N4505 X-.776 Y12.945 Z23.691
N4506 X-.839 Y12.897 Z23.688
N4507 X-.859 Y12.605 Z23.675
N4508 X-.785 Y12.531 Z23.671
N4509 X-.668 Y12.461 Z23.665
N4510 X-.59 Y12.45 Z23.662
N4511 X.59 Z23.616
N4512 X.785 Y12.531 Z23.608
N4513 X.859 Y12.605 Z23.604
N4514 X.839 Y12.897 Z23.591
N4515 X.776 Y12.945 Z23.588
N4516 X.615 Y13. Z23.581
N4517 X-.615 Z23.534
N4518 X-.776 Y12.945 Z23.527
N4519 X-.839 Y12.897 Z23.524
N4520 X-.859 Y12.605 Z23.511
N4521 X-.785 Y12.531 Z23.507
N4522 X-.668 Y12.461 Z23.502
N4523 X-.59 Y12.45 F1500.
N4524 X.59
N4525 X.785 Y12.531
N4526 X.859 Y12.605
N4527 X.915 Y12.755
N4528 X.839 Y12.897
N4529 X.776 Y12.945
N4530 X.615 Y13.
N4531 X-.615
N4532 X-.776 Y12.945
N4533 X-.839 Y12.897
N4534 X-.915 Y12.755
N4535 X-.859 Y12.605
N4536 X-.785 Y12.531
N4537 X-.668 Y12.461
N4538 Z26.002
N4539 G00 Z26.893
N4540 X-.965 Y-4.873
N4541 Z26.002
N4542 G01 Z23.502 F600.
N4543 X-1.404 Y-5.802 Z23.474
N4544 X-2.824 Y-8.787 Z23.384
N4545 X-2.905 Y-9.539 Z23.363
N4546 X-2.501 Y-10.178 Z23.342
N4547 X-1.787 Y-10.428 Z23.321
N4548 X1.787 Z23.224
N4549 X2.501 Y-10.178 Z23.203
N4550 X2.905 Y-9.539 Z23.182
N4551 X2.824 Y-8.787 Z23.161
N4552 X.679 Y-4.27 Z23.025
N4553 X.389 Y-3.949 Z23.013
N4554 X-.03 Y-3.841 Z23.002
N4555 X-.414 Y-3.964 F1500.
N4556 X-.679 Y-4.269
N4557 X-1.404 Y-5.802
N4558 X-2.824 Y-8.787
N4559 X-2.933 Y-9.349
N4560 X-2.757 Y-9.893
N4561 X-2.341 Y-10.285
N4562 X-1.787 Y-10.428
N4563 X1.787
N4564 X2.341 Y-10.285
N4565 X2.757 Y-9.893
N4566 X2.933 Y-9.349
N4567 X2.824 Y-8.787
N4568 X.679 Y-4.27
N4569 X.389 Y-3.949
N4570 X-.03 Y-3.841
N4571 X-.086 Y-3.84
N4572 X-2.87 Y-3.633
N4573 X-3.159 Y-3.699
N4574 X-3.359 Y-3.918
N4575 X-3.73 Y-4.702
N4576 X-6.343 Y-10.203
N4577 X-6.928 Y-11.419
N4578 X-7.753 Y-12.549
N4579 X-7.799 Y-12.594
N4580 X-7.852 Y-12.853
N4581 X-7.633 Y-13.
N4582 X7.633
N4583 X7.852 Y-12.853
N4584 X7.799 Y-12.594
N4585 X7.753 Y-12.549
N4586 X6.928 Y-11.419
N4587 X6.343 Y-10.203
N4588 X2.457 Y-2.015
N4589 X1.817 Y-.672
N4590 X.68 Y1.729
N4591 X.495 Y1.938
N4592 X.228 Y2.015
N4593 X-.228
N4594 X-.495 Y1.938
N4595 X-.68 Y1.729
N4596 X-2.114 Y-1.298
N4597 X-3.095 Y-3.358
N4598 X-3.359 Y-3.918
N4599 X-3.393 Y-4.251
N4600 X-3.208 Y-4.531
N4601 X-.5 Y-6.569
N4602 X-.301 Y-6.956
N4603 X-.48 Y-7.352
N4604 X-.675 Y-7.604 Z22.996 F600.
N4605 X-1.241 Y-8.791 Z22.972
N4606 X-1.322 Y-9.542 Z22.959
N4607 X-.918 Y-10.181 Z22.945
N4608 X-.205 Y-10.43 Z22.931
N4609 X.205 Z22.924
N4610 X.918 Y-10.181 Z22.91
N4611 X1.322 Y-9.542 Z22.896
N4612 X1.241 Y-8.791 Z22.883
N4613 X.675 Y-7.603 Z22.859
N4614 X.159 Y-7.194 Z22.847
N4615 X-.48 Y-7.352 Z22.835
N4616 X-.675 Y-7.604 Z22.829
N4617 X-1.241 Y-8.791 Z22.806
N4618 X-1.322 Y-9.542 Z22.792
N4619 X-.918 Y-10.181 Z22.778
N4620 X-.205 Y-10.43 Z22.764
N4621 X.205 Z22.757
N4622 X.918 Y-10.181 Z22.743
