190918.MPF
;This Post Processor is distributed on an "AS IS" BASIS,
;WITHOUT WARRANTIES OR CONDITIONS OF ANY KIND, either express or implied.
N1 T10 D10
N2 L6
N3 MSG("10MM CRB 2FL 22 LOC")
N4 G60
N5 G64
N6 SOFT
N7 G00 G17 G90 G54
N8 S2700 M03
N9 G00 G90 X47.014 Y-30.868
N10 Z25. M08
N11 Z.5
N12 G41 G01 X42.994 Y-27.568 Z.485 F900.
N13 X42.65 Y-27.384 Z.484
N14 X42.262 Y-27.346 Z.482
N15 X41.264 Y-27.395 Z.48 F1200.
N16 X-41.264 Z.248
N17 X-42.537 Y-27.315 Z.244
N18 X-43.791 Y-27.077 Z.241
N19 X-45.005 Y-26.684 Z.237
N20 X-46.16 Y-26.143 Z.233
N21 X-47.239 Y-25.461 Z.23
N22 X-48.225 Y-24.65 Z.226
N23 X-49.101 Y-23.723 Z.223
N24 X-49.855 Y-22.693 Z.219
N25 X-63.591 Y-1.23 Z.147
N26 X-64.16 Y-.219 Z.144
N27 X-64.611 Y.851 Z.141
N28 X-64.937 Y1.965 Z.138
N29 X-65.134 Y3.109 Z.134
N30 X-65.2 Y4.268 Z.131
N31 Y29.331 Z.061
N32 X-63.574 Y30.558 Z.055
N33 X-58.574 Y29.132 Z.04
N34 X-52.543 Y27.507 Z.023
N35 X-46.468 Y26.058 Z.005
N36 X-40.353 Y24.789 Z-.012
N37 X-34.203 Y23.698 Z-.03
N38 X-28.025 Y22.788 Z-.048
N39 X-21.822 Y22.059 Z-.065
N40 X-15.6 Y21.512 Z-.083
N41 X-9.366 Y21.146 Z-.1
N42 X-3.123 Y20.964 Z-.118
N43 X3.123 Z-.135
N44 X9.366 Y21.146 Z-.153
N45 X15.6 Y21.512 Z-.17
N46 X21.822 Y22.059 Z-.188
N47 X28.025 Y22.788 Z-.205
N48 X34.203 Y23.698 Z-.223
N49 X40.353 Y24.789 Z-.241
N50 X46.468 Y26.058 Z-.258
N51 X52.543 Y27.506 Z-.276
N52 X58.574 Y29.132 Z-.293
N53 X63.574 Y30.558 Z-.308
N54 X65.2 Y29.331 Z-.314
N55 Y4.268 Z-.384
N56 X65.134 Y3.109 Z-.387
N57 X64.937 Y1.965 Z-.391
N58 X64.611 Y.851 Z-.394
N59 X64.16 Y-.219 Z-.397
N60 X63.591 Y-1.23 Z-.4
N61 X49.855 Y-22.693 Z-.472
N62 X49.101 Y-23.723 Z-.476
N63 X48.225 Y-24.65 Z-.479
N64 X47.239 Y-25.461 Z-.483
N65 X46.16 Y-26.143 Z-.486
N66 X45.005 Y-26.684 Z-.49
N67 X43.791 Y-27.077 Z-.494
N68 X42.537 Y-27.315 Z-.497
N69 X41.264 Y-27.395 Z-.501
N70 X-41.264 Z-.619
N71 X-42.537 Y-27.315 Z-.621
N72 X-43.791 Y-27.077 Z-.623
N73 X-45.005 Y-26.684 Z-.624
N74 X-46.16 Y-26.143 Z-.626
N75 X-47.239 Y-25.461 Z-.628
N76 X-48.225 Y-24.65 Z-.63
N77 X-49.101 Y-23.723 Z-.632
N78 X-49.855 Y-22.693 Z-.634
N79 X-63.591 Y-1.23 Z-.67
N80 X-64.16 Y-.219 Z-.672
N81 X-64.611 Y.851 Z-.674
N82 X-64.937 Y1.965 Z-.675
N83 X-65.134 Y3.109 Z-.677
N84 X-65.2 Y4.268 Z-.679
N85 Y29.331 Z-.714
N86 X-63.574 Y30.558 Z-.717
N87 X-58.574 Y29.132 Z-.725
N88 X-52.543 Y27.507 Z-.734
N89 X-46.468 Y26.058 Z-.743
N90 X-40.353 Y24.789 Z-.752
N91 X-34.203 Y23.698 Z-.761
N92 X-28.025 Y22.788 Z-.77
N93 X-21.822 Y22.059 Z-.779
N94 X-15.6 Y21.512 Z-.787
N95 X-9.366 Y21.146 Z-.796
N96 X-3.123 Y20.964 Z-.805
N97 X3.123 Z-.814
N98 X9.366 Y21.146 Z-.823
N99 X15.6 Y21.512 Z-.832
N100 X21.822 Y22.059 Z-.841
N101 X28.025 Y22.788 Z-.85
N102 X34.203 Y23.698 Z-.859
N103 X40.353 Y24.789 Z-.868
N104 X46.468 Y26.058 Z-.877
N105 X52.543 Y27.506 Z-.886
N106 X58.574 Y29.132 Z-.895
N107 X63.574 Y30.558 Z-.902
N108 X65.2 Y29.331 Z-.905
N109 Y4.268 Z-.941
N110 X65.134 Y3.109 Z-.943
N111 X64.937 Y1.965 Z-.945
N112 X64.611 Y.851 Z-.946
N113 X64.16 Y-.219 Z-.948
N114 X63.591 Y-1.23 Z-.95
N115 X49.855 Y-22.693 Z-.986
N116 X49.101 Y-23.723 Z-.988
N117 X48.225 Y-24.65 Z-.99
N118 X47.239 Y-25.461 Z-.992
N119 X46.16 Y-26.143 Z-.993
N120 X45.005 Y-26.684 Z-.995
N121 X43.791 Y-27.077 Z-.997
N122 X42.537 Y-27.315 Z-.999
N123 X41.264 Y-27.395 Z-1.001
N124 X-41.264 Z-1.119
N125 X-42.537 Y-27.315 Z-1.121
N126 X-43.791 Y-27.077 Z-1.123
N127 X-45.005 Y-26.684 Z-1.124
N128 X-46.16 Y-26.143 Z-1.126
N129 X-47.239 Y-25.461 Z-1.128
N130 X-48.225 Y-24.65 Z-1.13
N131 X-49.101 Y-23.723 Z-1.132
N132 X-49.855 Y-22.693 Z-1.134
N133 X-63.591 Y-1.23 Z-1.17
N134 X-64.16 Y-.219 Z-1.172
N135 X-64.611 Y.851 Z-1.174
N136 X-64.937 Y1.965 Z-1.175
N137 X-65.134 Y3.109 Z-1.177
N138 X-65.2 Y4.268 Z-1.179
N139 Y29.331 Z-1.214
N140 X-63.574 Y30.558 Z-1.217
N141 X-58.574 Y29.132 Z-1.225
N142 X-52.543 Y27.507 Z-1.234
N143 X-46.468 Y26.058 Z-1.243
N144 X-40.353 Y24.789 Z-1.252
N145 X-34.203 Y23.698 Z-1.261
N146 X-28.025 Y22.788 Z-1.27
N147 X-21.822 Y22.059 Z-1.279
N148 X-15.6 Y21.512 Z-1.287
N149 X-9.366 Y21.146 Z-1.296
N150 X-3.123 Y20.964 Z-1.305
N151 X3.123 Z-1.314
N152 X9.366 Y21.146 Z-1.323
N153 X15.6 Y21.512 Z-1.332
N154 X21.822 Y22.059 Z-1.341
N155 X28.025 Y22.788 Z-1.35
N156 X34.203 Y23.698 Z-1.359
N157 X40.353 Y24.789 Z-1.368
N158 X46.468 Y26.058 Z-1.377
N159 X52.543 Y27.506 Z-1.386
N160 X58.574 Y29.132 Z-1.395
N161 X63.574 Y30.558 Z-1.402
N162 X65.2 Y29.331 Z-1.405
N163 Y4.268 Z-1.441
N164 X65.134 Y3.109 Z-1.443
N165 X64.937 Y1.965 Z-1.445
N166 X64.611 Y.851 Z-1.446
N167 X64.16 Y-.219 Z-1.448
N168 X63.591 Y-1.23 Z-1.45
N169 X49.855 Y-22.693 Z-1.486
N170 X49.101 Y-23.723 Z-1.488
N171 X48.225 Y-24.65 Z-1.49
N172 X47.239 Y-25.461 Z-1.492
N173 X46.16 Y-26.143 Z-1.493
N174 X45.005 Y-26.684 Z-1.495
N175 X43.791 Y-27.077 Z-1.497
N176 X42.537 Y-27.315 Z-1.499
N177 X41.264 Y-27.395 Z-1.501
N178 X-41.264 Z-1.619
N179 X-42.537 Y-27.315 Z-1.621
N180 X-43.791 Y-27.077 Z-1.623
N181 X-45.005 Y-26.684 Z-1.624
N182 X-46.16 Y-26.143 Z-1.626
N183 X-47.239 Y-25.461 Z-1.628
N184 X-48.225 Y-24.65 Z-1.63
N185 X-49.101 Y-23.723 Z-1.632
N186 X-49.855 Y-22.693 Z-1.634
N187 X-63.591 Y-1.23 Z-1.67
N188 X-64.16 Y-.219 Z-1.672
N189 X-64.611 Y.851 Z-1.674
N190 X-64.937 Y1.965 Z-1.675
N191 X-65.134 Y3.109 Z-1.677
N192 X-65.2 Y4.268 Z-1.679
N193 Y29.331 Z-1.714
N194 X-63.574 Y30.558 Z-1.717
N195 X-58.574 Y29.132 Z-1.725
N196 X-52.543 Y27.507 Z-1.734
N197 X-46.468 Y26.058 Z-1.743
N198 X-40.353 Y24.789 Z-1.752
N199 X-34.203 Y23.698 Z-1.761
N200 X-28.025 Y22.788 Z-1.77
N201 X-21.822 Y22.059 Z-1.779
N202 X-15.6 Y21.512 Z-1.787
N203 X-9.366 Y21.146 Z-1.796
N204 X-3.123 Y20.964 Z-1.805
N205 X3.123 Z-1.814
N206 X9.366 Y21.146 Z-1.823
N207 X15.6 Y21.512 Z-1.832
N208 X21.822 Y22.059 Z-1.841
N209 X28.025 Y22.788 Z-1.85
N210 X34.203 Y23.698 Z-1.859
N211 X40.353 Y24.789 Z-1.868
N212 X46.468 Y26.058 Z-1.877
N213 X52.543 Y27.506 Z-1.886
N214 X58.574 Y29.132 Z-1.895
N215 X63.574 Y30.558 Z-1.902
N216 X65.2 Y29.331 Z-1.905
N217 Y4.268 Z-1.941
N218 X65.134 Y3.109 Z-1.943
N219 X64.937 Y1.965 Z-1.945
N220 X64.611 Y.851 Z-1.946
N221 X64.16 Y-.219 Z-1.948
N222 X63.591 Y-1.23 Z-1.95
N223 X49.855 Y-22.693 Z-1.986
N224 X49.101 Y-23.723 Z-1.988
N225 X48.225 Y-24.65 Z-1.99
N226 X47.239 Y-25.461 Z-1.992
N227 X46.16 Y-26.143 Z-1.993
N228 X45.005 Y-26.684 Z-1.995
N229 X43.791 Y-27.077 Z-1.997
N230 X42.537 Y-27.315 Z-1.999
N231 X41.264 Y-27.395 Z-2.001
N232 X-41.264 Z-2.119
N233 X-42.537 Y-27.315 Z-2.121
N234 X-43.791 Y-27.077 Z-2.123
N235 X-45.005 Y-26.684 Z-2.124
N236 X-46.16 Y-26.143 Z-2.126
N237 X-47.239 Y-25.461 Z-2.128
N238 X-48.225 Y-24.65 Z-2.13
N239 X-49.101 Y-23.723 Z-2.132
N240 X-49.855 Y-22.693 Z-2.134
N241 X-63.591 Y-1.23 Z-2.17
N242 X-64.16 Y-.219 Z-2.172
N243 X-64.611 Y.851 Z-2.174
N244 X-64.937 Y1.965 Z-2.175
N245 X-65.134 Y3.109 Z-2.177
N246 X-65.2 Y4.268 Z-2.179
N247 Y29.331 Z-2.214
N248 X-63.574 Y30.558 Z-2.217
N249 X-58.574 Y29.132 Z-2.225
N250 X-52.543 Y27.507 Z-2.234
N251 X-46.468 Y26.058 Z-2.243
N252 X-40.353 Y24.789 Z-2.252
N253 X-34.203 Y23.698 Z-2.261
N254 X-28.025 Y22.788 Z-2.27
N255 X-21.822 Y22.059 Z-2.279
N256 X-15.6 Y21.512 Z-2.287
N257 X-9.366 Y21.146 Z-2.296
N258 X-3.123 Y20.964 Z-2.305
N259 X3.123 Z-2.314
N260 X9.366 Y21.146 Z-2.323
N261 X15.6 Y21.512 Z-2.332
N262 X21.822 Y22.059 Z-2.341
N263 X28.025 Y22.788 Z-2.35
N264 X34.203 Y23.698 Z-2.359
N265 X40.353 Y24.789 Z-2.368
N266 X46.468 Y26.058 Z-2.377
N267 X52.543 Y27.506 Z-2.386
N268 X58.574 Y29.132 Z-2.395
N269 X63.574 Y30.558 Z-2.402
N270 X65.2 Y29.331 Z-2.405
N271 Y4.268 Z-2.441
N272 X65.134 Y3.109 Z-2.443
N273 X64.937 Y1.965 Z-2.445
N274 X64.611 Y.851 Z-2.446
N275 X64.16 Y-.219 Z-2.448
N276 X63.591 Y-1.23 Z-2.45
N277 X49.855 Y-22.693 Z-2.486
N278 X49.101 Y-23.723 Z-2.488
N279 X48.225 Y-24.65 Z-2.49
N280 X47.239 Y-25.461 Z-2.492
N281 X46.16 Y-26.143 Z-2.493
N282 X45.005 Y-26.684 Z-2.495
N283 X43.791 Y-27.077 Z-2.497
N284 X42.537 Y-27.315 Z-2.499
N285 X41.264 Y-27.395 Z-2.501
N286 X-41.264 Z-2.619
N287 X-42.537 Y-27.315 Z-2.621
N288 X-43.791 Y-27.077 Z-2.623
N289 X-45.005 Y-26.684 Z-2.624
N290 X-46.16 Y-26.143 Z-2.626
N291 X-47.239 Y-25.461 Z-2.628
N292 X-48.225 Y-24.65 Z-2.63
N293 X-49.101 Y-23.723 Z-2.632
N294 X-49.855 Y-22.693 Z-2.634
N295 X-63.591 Y-1.23 Z-2.67
N296 X-64.16 Y-.219 Z-2.672
N297 X-64.611 Y.851 Z-2.674
N298 X-64.937 Y1.965 Z-2.675
N299 X-65.134 Y3.109 Z-2.677
N300 X-65.2 Y4.268 Z-2.679
N301 Y29.331 Z-2.714
N302 X-63.574 Y30.558 Z-2.717
N303 X-58.574 Y29.132 Z-2.725
N304 X-52.543 Y27.507 Z-2.734
N305 X-46.468 Y26.058 Z-2.743
N306 X-40.353 Y24.789 Z-2.752
N307 X-34.203 Y23.698 Z-2.761
N308 X-28.025 Y22.788 Z-2.77
N309 X-21.822 Y22.059 Z-2.779
N310 X-15.6 Y21.512 Z-2.787
N311 X-9.366 Y21.146 Z-2.796
N312 X-3.123 Y20.964 Z-2.805
N313 X3.123 Z-2.814
N314 X9.366 Y21.146 Z-2.823
N315 X15.6 Y21.512 Z-2.832
N316 X21.822 Y22.059 Z-2.841
N317 X28.025 Y22.788 Z-2.85
N318 X34.203 Y23.698 Z-2.859
N319 X40.353 Y24.789 Z-2.868
N320 X46.468 Y26.058 Z-2.877
N321 X52.543 Y27.506 Z-2.886
N322 X58.574 Y29.132 Z-2.895
N323 X63.574 Y30.558 Z-2.902
N324 X65.2 Y29.331 Z-2.905
N325 Y4.268 Z-2.941
N326 X65.134 Y3.109 Z-2.943
N327 X64.937 Y1.965 Z-2.945
N328 X64.611 Y.851 Z-2.946
N329 X64.16 Y-.219 Z-2.948
N330 X63.591 Y-1.23 Z-2.95
N331 X49.855 Y-22.693 Z-2.986
N332 X49.101 Y-23.723 Z-2.988
N333 X48.225 Y-24.65 Z-2.99
N334 X47.239 Y-25.461 Z-2.992
N335 X46.16 Y-26.143 Z-2.993
N336 X45.005 Y-26.684 Z-2.995
N337 X43.791 Y-27.077 Z-2.997
N338 X42.537 Y-27.315 Z-2.999
N339 X41.264 Y-27.395 Z-3.001
N340 X-41.264 Z-3.119
N341 X-42.537 Y-27.315 Z-3.121
N342 X-43.791 Y-27.077 Z-3.123
N343 X-45.005 Y-26.684 Z-3.124
N344 X-46.16 Y-26.143 Z-3.126
N345 X-47.239 Y-25.461 Z-3.128
N346 X-48.225 Y-24.65 Z-3.13
N347 X-49.101 Y-23.723 Z-3.132
N348 X-49.855 Y-22.693 Z-3.134
N349 X-63.591 Y-1.23 Z-3.17
N350 X-64.16 Y-.219 Z-3.172
N351 X-64.611 Y.851 Z-3.174
N352 X-64.937 Y1.965 Z-3.175
N353 X-65.134 Y3.109 Z-3.177
N354 X-65.2 Y4.268 Z-3.179
N355 Y29.331 Z-3.214
N356 X-63.574 Y30.558 Z-3.217
N357 X-58.574 Y29.132 Z-3.225
N358 X-52.543 Y27.507 Z-3.234
N359 X-46.468 Y26.058 Z-3.243
N360 X-40.353 Y24.789 Z-3.252
N361 X-34.203 Y23.698 Z-3.261
N362 X-28.025 Y22.788 Z-3.27
N363 X-21.822 Y22.059 Z-3.279
N364 X-15.6 Y21.512 Z-3.287
N365 X-9.366 Y21.146 Z-3.296
N366 X-3.123 Y20.964 Z-3.305
N367 X3.123 Z-3.314
N368 X9.366 Y21.146 Z-3.323
N369 X15.6 Y21.512 Z-3.332
N370 X21.822 Y22.059 Z-3.341
N371 X28.025 Y22.788 Z-3.35
N372 X34.203 Y23.698 Z-3.359
N373 X40.353 Y24.789 Z-3.368
N374 X46.468 Y26.058 Z-3.377
N375 X52.543 Y27.506 Z-3.386
N376 X58.574 Y29.132 Z-3.395
N377 X63.574 Y30.558 Z-3.402
N378 X65.2 Y29.331 Z-3.405
N379 Y4.268 Z-3.441
N380 X65.134 Y3.109 Z-3.443
N381 X64.937 Y1.965 Z-3.445
N382 X64.611 Y.851 Z-3.446
N383 X64.16 Y-.219 Z-3.448
N384 X63.591 Y-1.23 Z-3.45
N385 X49.855 Y-22.693 Z-3.486
N386 X49.101 Y-23.723 Z-3.488
N387 X48.225 Y-24.65 Z-3.49
N388 X47.239 Y-25.461 Z-3.492
N389 X46.16 Y-26.143 Z-3.493
N390 X45.005 Y-26.684 Z-3.495
N391 X43.791 Y-27.077 Z-3.497
N392 X42.537 Y-27.315 Z-3.499
N393 X41.264 Y-27.395 Z-3.501
N394 X-41.264 Z-3.619
N395 X-42.537 Y-27.315 Z-3.621
N396 X-43.791 Y-27.077 Z-3.623
N397 X-45.005 Y-26.684 Z-3.624
N398 X-46.16 Y-26.143 Z-3.626
N399 X-47.239 Y-25.461 Z-3.628
N400 X-48.225 Y-24.65 Z-3.63
N401 X-49.101 Y-23.723 Z-3.632
N402 X-49.855 Y-22.693 Z-3.634
N403 X-63.591 Y-1.23 Z-3.67
N404 X-64.16 Y-.219 Z-3.672
N405 X-64.611 Y.851 Z-3.674
N406 X-64.937 Y1.965 Z-3.675
N407 X-65.134 Y3.109 Z-3.677
N408 X-65.2 Y4.268 Z-3.679
N409 Y29.331 Z-3.714
N410 X-63.574 Y30.558 Z-3.717
N411 X-58.574 Y29.132 Z-3.725
N412 X-52.543 Y27.507 Z-3.734
N413 X-46.468 Y26.058 Z-3.743
N414 X-40.353 Y24.789 Z-3.752
N415 X-34.203 Y23.698 Z-3.761
N416 X-28.025 Y22.788 Z-3.77
N417 X-21.822 Y22.059 Z-3.779
N418 X-15.6 Y21.512 Z-3.787
N419 X-9.366 Y21.146 Z-3.796
N420 X-3.123 Y20.964 Z-3.805
N421 X3.123 Z-3.814
N422 X9.366 Y21.146 Z-3.823
N423 X15.6 Y21.512 Z-3.832
N424 X21.822 Y22.059 Z-3.841
N425 X28.025 Y22.788 Z-3.85
N426 X34.203 Y23.698 Z-3.859
N427 X40.353 Y24.789 Z-3.868
N428 X46.468 Y26.058 Z-3.877
N429 X52.543 Y27.506 Z-3.886
N430 X58.574 Y29.132 Z-3.895
N431 X63.574 Y30.558 Z-3.902
N432 X65.2 Y29.331 Z-3.905
N433 Y4.268 Z-3.941
N434 X65.134 Y3.109 Z-3.943
N435 X64.937 Y1.965 Z-3.945
N436 X64.611 Y.851 Z-3.946
N437 X64.16 Y-.219 Z-3.948
N438 X63.591 Y-1.23 Z-3.95
N439 X49.855 Y-22.693 Z-3.986
N440 X49.101 Y-23.723 Z-3.988
N441 X48.225 Y-24.65 Z-3.99
N442 X47.239 Y-25.461 Z-3.992
N443 X46.16 Y-26.143 Z-3.993
N444 X45.005 Y-26.684 Z-3.995
N445 X43.791 Y-27.077 Z-3.997
N446 X42.537 Y-27.315 Z-3.999
N447 X41.264 Y-27.395 Z-4.001
N448 X-41.264 Z-4.119
N449 X-42.537 Y-27.315 Z-4.121
N450 X-43.791 Y-27.077 Z-4.123
N451 X-45.005 Y-26.684 Z-4.124
N452 X-46.16 Y-26.143 Z-4.126
N453 X-47.239 Y-25.461 Z-4.128
N454 X-48.225 Y-24.65 Z-4.13
N455 X-49.101 Y-23.723 Z-4.132
N456 X-49.855 Y-22.693 Z-4.134
N457 X-63.591 Y-1.23 Z-4.17
N458 X-64.16 Y-.219 Z-4.172
N459 X-64.611 Y.851 Z-4.174
N460 X-64.937 Y1.965 Z-4.175
N461 X-65.134 Y3.109 Z-4.177
N462 X-65.2 Y4.268 Z-4.179
N463 Y29.331 Z-4.214
N464 X-63.574 Y30.558 Z-4.217
N465 X-58.574 Y29.132 Z-4.225
N466 X-52.543 Y27.507 Z-4.234
N467 X-46.468 Y26.058 Z-4.243
N468 X-40.353 Y24.789 Z-4.252
N469 X-34.203 Y23.698 Z-4.261
N470 X-28.025 Y22.788 Z-4.27
N471 X-21.822 Y22.059 Z-4.279
N472 X-15.6 Y21.512 Z-4.287
N473 X-9.366 Y21.146 Z-4.296
N474 X-3.123 Y20.964 Z-4.305
N475 X3.123 Z-4.314
N476 X9.366 Y21.146 Z-4.323
N477 X15.6 Y21.512 Z-4.332
N478 X21.822 Y22.059 Z-4.341
N479 X28.025 Y22.788 Z-4.35
N480 X34.203 Y23.698 Z-4.359
N481 X40.353 Y24.789 Z-4.368
N482 X46.468 Y26.058 Z-4.377
N483 X52.543 Y27.506 Z-4.386
N484 X58.574 Y29.132 Z-4.395
N485 X63.574 Y30.558 Z-4.402
N486 X65.2 Y29.331 Z-4.405
N487 Y4.268 Z-4.441
N488 X65.134 Y3.109 Z-4.443
N489 X64.937 Y1.965 Z-4.445
N490 X64.611 Y.851 Z-4.446
N491 X64.16 Y-.219 Z-4.448
N492 X63.591 Y-1.23 Z-4.45
N493 X49.855 Y-22.693 Z-4.486
N494 X49.101 Y-23.723 Z-4.488
N495 X48.225 Y-24.65 Z-4.49
N496 X47.239 Y-25.461 Z-4.492
N497 X46.16 Y-26.143 Z-4.493
N498 X45.005 Y-26.684 Z-4.495
N499 X43.791 Y-27.077 Z-4.497
N500 X42.537 Y-27.315 Z-4.499
N501 X41.264 Y-27.395 Z-4.501
N502 X-41.264 Z-4.619
N503 X-42.537 Y-27.315 Z-4.621
N504 X-43.791 Y-27.077 Z-4.623
N505 X-45.005 Y-26.684 Z-4.624
N506 X-46.16 Y-26.143 Z-4.626
N507 X-47.239 Y-25.461 Z-4.628
N508 X-48.225 Y-24.65 Z-4.63
N509 X-49.101 Y-23.723 Z-4.632
N510 X-49.855 Y-22.693 Z-4.634
N511 X-63.591 Y-1.23 Z-4.67
N512 X-64.16 Y-.219 Z-4.672
N513 X-64.611 Y.851 Z-4.674
N514 X-64.937 Y1.965 Z-4.675
N515 X-65.134 Y3.109 Z-4.677
N516 X-65.2 Y4.268 Z-4.679
N517 Y29.331 Z-4.714
N518 X-63.574 Y30.558 Z-4.717
N519 X-58.574 Y29.132 Z-4.725
N520 X-52.543 Y27.507 Z-4.734
N521 X-46.468 Y26.058 Z-4.743
N522 X-40.353 Y24.789 Z-4.752
N523 X-34.203 Y23.698 Z-4.761
N524 X-28.025 Y22.788 Z-4.77
N525 X-21.822 Y22.059 Z-4.779
N526 X-15.6 Y21.512 Z-4.787
N527 X-9.366 Y21.146 Z-4.796
N528 X-3.123 Y20.964 Z-4.805
N529 X3.123 Z-4.814
N530 X9.366 Y21.146 Z-4.823
N531 X15.6 Y21.512 Z-4.832
N532 X21.822 Y22.059 Z-4.841
N533 X28.025 Y22.788 Z-4.85
N534 X34.203 Y23.698 Z-4.859
N535 X40.353 Y24.789 Z-4.868
N536 X46.468 Y26.058 Z-4.877
N537 X52.543 Y27.506 Z-4.886
N538 X58.574 Y29.132 Z-4.895
N539 X63.574 Y30.558 Z-4.902
N540 X65.2 Y29.331 Z-4.905
N541 Y4.268 Z-4.941
N542 X65.134 Y3.109 Z-4.943
N543 X64.937 Y1.965 Z-4.945
N544 X64.611 Y.851 Z-4.946
N545 X64.16 Y-.219 Z-4.948
N546 X63.591 Y-1.23 Z-4.95
N547 X49.855 Y-22.693 Z-4.986
N548 X49.101 Y-23.723 Z-4.988
N549 X48.225 Y-24.65 Z-4.99
N550 X47.239 Y-25.461 Z-4.992
N551 X46.16 Y-26.143 Z-4.993
N552 X45.005 Y-26.684 Z-4.995
N553 X43.791 Y-27.077 Z-4.997
N554 X42.537 Y-27.315 Z-4.999
N555 X41.264 Y-27.395 Z-5.001
N556 X-41.264 Z-5.119
N557 X-42.537 Y-27.315 Z-5.121
N558 X-43.791 Y-27.077 Z-5.123
N559 X-45.005 Y-26.684 Z-5.124
N560 X-46.16 Y-26.143 Z-5.126
N561 X-47.239 Y-25.461 Z-5.128
N562 X-48.225 Y-24.65 Z-5.13
N563 X-49.101 Y-23.723 Z-5.132
N564 X-49.855 Y-22.693 Z-5.134
N565 X-63.591 Y-1.23 Z-5.17
N566 X-64.16 Y-.219 Z-5.172
N567 X-64.611 Y.851 Z-5.174
N568 X-64.937 Y1.965 Z-5.175
N569 X-65.134 Y3.109 Z-5.177
N570 X-65.2 Y4.268 Z-5.179
N571 Y29.331 Z-5.214
N572 X-63.574 Y30.558 Z-5.217
N573 X-58.574 Y29.132 Z-5.225
N574 X-52.543 Y27.507 Z-5.234
N575 X-46.468 Y26.058 Z-5.243
N576 X-40.353 Y24.789 Z-5.252
N577 X-34.203 Y23.698 Z-5.261
N578 X-28.025 Y22.788 Z-5.27
N579 X-21.822 Y22.059 Z-5.279
N580 X-15.6 Y21.512 Z-5.287
N581 X-9.366 Y21.146 Z-5.296
N582 X-3.123 Y20.964 Z-5.305
N583 X3.123 Z-5.314
N584 X9.366 Y21.146 Z-5.323
N585 X15.6 Y21.512 Z-5.332
N586 X21.822 Y22.059 Z-5.341
N587 X28.025 Y22.788 Z-5.35
N588 X34.203 Y23.698 Z-5.359
N589 X40.353 Y24.789 Z-5.368
N590 X46.468 Y26.058 Z-5.377
N591 X52.543 Y27.506 Z-5.386
N592 X58.574 Y29.132 Z-5.395
N593 X63.574 Y30.558 Z-5.402
N594 X65.2 Y29.331 Z-5.405
N595 Y4.268 Z-5.441
N596 X65.134 Y3.109 Z-5.443
N597 X64.937 Y1.965 Z-5.445
N598 X64.611 Y.851 Z-5.446
N599 X64.16 Y-.219 Z-5.448
N600 X63.591 Y-1.23 Z-5.45
N601 X49.855 Y-22.693 Z-5.486
N602 X49.101 Y-23.723 Z-5.488
N603 X48.225 Y-24.65 Z-5.49
N604 X47.239 Y-25.461 Z-5.492
N605 X46.16 Y-26.143 Z-5.493
N606 X45.005 Y-26.684 Z-5.495
N607 X43.791 Y-27.077 Z-5.497
N608 X42.537 Y-27.315 Z-5.499
N609 X41.264 Y-27.395 Z-5.501
N610 X-41.264 Z-5.619
N611 X-42.537 Y-27.315 Z-5.621
N612 X-43.791 Y-27.077 Z-5.623
N613 X-45.005 Y-26.684 Z-5.624
N614 X-46.16 Y-26.143 Z-5.626
N615 X-47.239 Y-25.461 Z-5.628
N616 X-48.225 Y-24.65 Z-5.63
N617 X-49.101 Y-23.723 Z-5.632
N618 X-49.855 Y-22.693 Z-5.634
N619 X-63.591 Y-1.23 Z-5.67
N620 X-64.16 Y-.219 Z-5.672
N621 X-64.611 Y.851 Z-5.674
N622 X-64.937 Y1.965 Z-5.675
N623 X-65.134 Y3.109 Z-5.677
N624 X-65.2 Y4.268 Z-5.679
N625 Y29.331 Z-5.714
N626 X-63.574 Y30.558 Z-5.717
N627 X-58.574 Y29.132 Z-5.725
N628 X-52.543 Y27.507 Z-5.734
N629 X-46.468 Y26.058 Z-5.743
N630 X-40.353 Y24.789 Z-5.752
N631 X-34.203 Y23.698 Z-5.761
N632 X-28.025 Y22.788 Z-5.77
N633 X-21.822 Y22.059 Z-5.779
N634 X-15.6 Y21.512 Z-5.787
N635 X-9.366 Y21.146 Z-5.796
N636 X-3.123 Y20.964 Z-5.805
N637 X3.123 Z-5.814
N638 X9.366 Y21.146 Z-5.823
N639 X15.6 Y21.512 Z-5.832
N640 X21.822 Y22.059 Z-5.841
N641 X28.025 Y22.788 Z-5.85
N642 X34.203 Y23.698 Z-5.859
N643 X40.353 Y24.789 Z-5.868
N644 X46.468 Y26.058 Z-5.877
N645 X52.543 Y27.506 Z-5.886
N646 X58.574 Y29.132 Z-5.895
N647 X63.574 Y30.558 Z-5.902
N648 X65.2 Y29.331 Z-5.905
N649 Y4.268 Z-5.941
N650 X65.134 Y3.109 Z-5.943
N651 X64.937 Y1.965 Z-5.945
N652 X64.611 Y.851 Z-5.946
N653 X64.16 Y-.219 Z-5.948
N654 X63.591 Y-1.23 Z-5.95
N655 X49.855 Y-22.693 Z-5.986
N656 X49.101 Y-23.723 Z-5.988
N657 X48.225 Y-24.65 Z-5.99
N658 X47.239 Y-25.461 Z-5.992
N659 X46.16 Y-26.143 Z-5.993
N660 X45.005 Y-26.684 Z-5.995
N661 X43.791 Y-27.077 Z-5.997
N662 X42.537 Y-27.315 Z-5.999
N663 X41.264 Y-27.395 Z-6.001
N664 X-41.264 Z-6.119
N665 X-42.537 Y-27.315 Z-6.121
N666 X-43.791 Y-27.077 Z-6.123
N667 X-45.005 Y-26.684 Z-6.124
N668 X-46.16 Y-26.143 Z-6.126
N669 X-47.239 Y-25.461 Z-6.128
N670 X-48.225 Y-24.65 Z-6.13
N671 X-49.101 Y-23.723 Z-6.132
N672 X-49.855 Y-22.693 Z-6.134
N673 X-63.591 Y-1.23 Z-6.17
N674 X-64.16 Y-.219 Z-6.172
N675 X-64.611 Y.851 Z-6.174
N676 X-64.937 Y1.965 Z-6.175
N677 X-65.134 Y3.109 Z-6.177
N678 X-65.2 Y4.268 Z-6.179
N679 Y29.331 Z-6.214
N680 X-63.574 Y30.558 Z-6.217
N681 X-58.574 Y29.132 Z-6.225
N682 X-52.543 Y27.507 Z-6.234
N683 X-46.468 Y26.058 Z-6.243
N684 X-40.353 Y24.789 Z-6.252
N685 X-34.203 Y23.698 Z-6.261
N686 X-28.025 Y22.788 Z-6.27
N687 X-21.822 Y22.059 Z-6.279
N688 X-15.6 Y21.512 Z-6.287
N689 X-9.366 Y21.146 Z-6.296
N690 X-3.123 Y20.964 Z-6.305
N691 X3.123 Z-6.314
N692 X9.366 Y21.146 Z-6.323
N693 X15.6 Y21.512 Z-6.332
N694 X21.822 Y22.059 Z-6.341
N695 X28.025 Y22.788 Z-6.35
N696 X34.203 Y23.698 Z-6.359
N697 X40.353 Y24.789 Z-6.368
N698 X46.468 Y26.058 Z-6.377
N699 X52.543 Y27.506 Z-6.386
N700 X58.574 Y29.132 Z-6.395
N701 X63.574 Y30.558 Z-6.402
N702 X65.2 Y29.331 Z-6.405
N703 Y4.268 Z-6.441
N704 X65.134 Y3.109 Z-6.443
N705 X64.937 Y1.965 Z-6.445
N706 X64.611 Y.851 Z-6.446
N707 X64.16 Y-.219 Z-6.448
N708 X63.591 Y-1.23 Z-6.45
N709 X49.855 Y-22.693 Z-6.486
N710 X49.101 Y-23.723 Z-6.488
N711 X48.225 Y-24.65 Z-6.49
N712 X47.239 Y-25.461 Z-6.492
N713 X46.16 Y-26.143 Z-6.493
N714 X45.005 Y-26.684 Z-6.495
N715 X43.791 Y-27.077 Z-6.497
N716 X42.537 Y-27.315 Z-6.499
N717 X41.264 Y-27.395 Z-6.501
N718 X-41.264 Z-6.619
N719 X-42.537 Y-27.315 Z-6.621
N720 X-43.791 Y-27.077 Z-6.623
N721 X-45.005 Y-26.684 Z-6.624
N722 X-46.16 Y-26.143 Z-6.626
N723 X-47.239 Y-25.461 Z-6.628
N724 X-48.225 Y-24.65 Z-6.63
N725 X-49.101 Y-23.723 Z-6.632
N726 X-49.855 Y-22.693 Z-6.634
N727 X-63.591 Y-1.23 Z-6.67
N728 X-64.16 Y-.219 Z-6.672
N729 X-64.611 Y.851 Z-6.674
N730 X-64.937 Y1.965 Z-6.675
N731 X-65.134 Y3.109 Z-6.677
N732 X-65.2 Y4.268 Z-6.679
N733 Y29.331 Z-6.714
N734 X-63.574 Y30.558 Z-6.717
N735 X-58.574 Y29.132 Z-6.725
N736 X-52.543 Y27.507 Z-6.734
N737 X-46.468 Y26.058 Z-6.743
N738 X-40.353 Y24.789 Z-6.752
N739 X-34.203 Y23.698 Z-6.761
N740 X-28.025 Y22.788 Z-6.77
N741 X-21.822 Y22.059 Z-6.779
N742 X-15.6 Y21.512 Z-6.787
N743 X-9.366 Y21.146 Z-6.796
N744 X-3.123 Y20.964 Z-6.805
N745 X3.123 Z-6.814
N746 X9.366 Y21.146 Z-6.823
N747 X15.6 Y21.512 Z-6.832
N748 X21.822 Y22.059 Z-6.841
N749 X28.025 Y22.788 Z-6.85
N750 X34.203 Y23.698 Z-6.859
N751 X40.353 Y24.789 Z-6.868
N752 X46.468 Y26.058 Z-6.877
N753 X52.543 Y27.506 Z-6.886
N754 X58.574 Y29.132 Z-6.895
N755 X63.574 Y30.558 Z-6.902
N756 X65.2 Y29.331 Z-6.905
N757 Y4.268 Z-6.941
N758 X65.134 Y3.109 Z-6.943
N759 X64.937 Y1.965 Z-6.945
N760 X64.611 Y.851 Z-6.946
N761 X64.16 Y-.219 Z-6.948
N762 X63.591 Y-1.23 Z-6.95
N763 X49.855 Y-22.693 Z-6.986
N764 X49.101 Y-23.723 Z-6.988
N765 X48.225 Y-24.65 Z-6.99
N766 X47.239 Y-25.461 Z-6.992
N767 X46.16 Y-26.143 Z-6.993
N768 X45.005 Y-26.684 Z-6.995
N769 X43.791 Y-27.077 Z-6.997
N770 X42.537 Y-27.315 Z-6.999
N771 X41.264 Y-27.395 Z-7.001
N772 X-41.264 Z-7.119
N773 X-42.537 Y-27.315 Z-7.121
N774 X-43.791 Y-27.077 Z-7.123
N775 X-45.005 Y-26.684 Z-7.124
N776 X-46.16 Y-26.143 Z-7.126
N777 X-47.239 Y-25.461 Z-7.128
N778 X-48.225 Y-24.65 Z-7.13
N779 X-49.101 Y-23.723 Z-7.132
N780 X-49.855 Y-22.693 Z-7.134
N781 X-63.591 Y-1.23 Z-7.17
N782 X-64.16 Y-.219 Z-7.172
N783 X-64.611 Y.851 Z-7.174
N784 X-64.937 Y1.965 Z-7.175
N785 X-65.134 Y3.109 Z-7.177
N786 X-65.2 Y4.268 Z-7.179
N787 Y29.331 Z-7.214
N788 X-63.574 Y30.558 Z-7.217
N789 X-58.574 Y29.132 Z-7.225
N790 X-52.543 Y27.507 Z-7.234
N791 X-46.468 Y26.058 Z-7.243
N792 X-40.353 Y24.789 Z-7.252
N793 X-34.203 Y23.698 Z-7.261
N794 X-28.025 Y22.788 Z-7.27
N795 X-21.822 Y22.059 Z-7.279
N796 X-15.6 Y21.512 Z-7.287
N797 X-9.366 Y21.146 Z-7.296
N798 X-3.123 Y20.964 Z-7.305
N799 X3.123 Z-7.314
N800 X9.366 Y21.146 Z-7.323
N801 X15.6 Y21.512 Z-7.332
N802 X21.822 Y22.059 Z-7.341
N803 X28.025 Y22.788 Z-7.35
N804 X34.203 Y23.698 Z-7.359
N805 X40.353 Y24.789 Z-7.368
N806 X46.468 Y26.058 Z-7.377
N807 X52.543 Y27.506 Z-7.386
N808 X58.574 Y29.132 Z-7.395
N809 X63.574 Y30.558 Z-7.402
N810 X65.2 Y29.331 Z-7.405
N811 Y4.268 Z-7.441
N812 X65.134 Y3.109 Z-7.443
N813 X64.937 Y1.965 Z-7.445
N814 X64.611 Y.851 Z-7.446
N815 X64.16 Y-.219 Z-7.448
N816 X63.591 Y-1.23 Z-7.45
N817 X49.855 Y-22.693 Z-7.486
N818 X49.101 Y-23.723 Z-7.488
N819 X48.225 Y-24.65 Z-7.49
N820 X47.239 Y-25.461 Z-7.492
N821 X46.16 Y-26.143 Z-7.493
N822 X45.005 Y-26.684 Z-7.495
N823 X43.791 Y-27.077 Z-7.497
N824 X42.537 Y-27.315 Z-7.499
N825 X41.264 Y-27.395 Z-7.501
N826 X-41.264 Z-7.619
N827 X-42.537 Y-27.315 Z-7.621
N828 X-43.791 Y-27.077 Z-7.623
N829 X-45.005 Y-26.684 Z-7.624
N830 X-46.16 Y-26.143 Z-7.626
N831 X-47.239 Y-25.461 Z-7.628
N832 X-48.225 Y-24.65 Z-7.63
N833 X-49.101 Y-23.723 Z-7.632
N834 X-49.855 Y-22.693 Z-7.634
N835 X-63.591 Y-1.23 Z-7.67
N836 X-64.16 Y-.219 Z-7.672
N837 X-64.611 Y.851 Z-7.674
N838 X-64.937 Y1.965 Z-7.675
N839 X-65.134 Y3.109 Z-7.677
N840 X-65.2 Y4.268 Z-7.679
N841 Y29.331 Z-7.714
N842 X-63.574 Y30.558 Z-7.717
N843 X-58.574 Y29.132 Z-7.725
N844 X-52.543 Y27.507 Z-7.734
N845 X-46.468 Y26.058 Z-7.743
N846 X-40.353 Y24.789 Z-7.752
N847 X-34.203 Y23.698 Z-7.761
N848 X-28.025 Y22.788 Z-7.77
N849 X-21.822 Y22.059 Z-7.779
N850 X-15.6 Y21.512 Z-7.787
N851 X-9.366 Y21.146 Z-7.796
N852 X-3.123 Y20.964 Z-7.805
N853 X3.123 Z-7.814
N854 X9.366 Y21.146 Z-7.823
N855 X15.6 Y21.512 Z-7.832
N856 X21.822 Y22.059 Z-7.841
N857 X28.025 Y22.788 Z-7.85
N858 X34.203 Y23.698 Z-7.859
N859 X40.353 Y24.789 Z-7.868
N860 X46.468 Y26.058 Z-7.877
N861 X52.543 Y27.506 Z-7.886
N862 X58.574 Y29.132 Z-7.895
N863 X63.574 Y30.558 Z-7.902
N864 X65.2 Y29.331 Z-7.905
N865 Y4.268 Z-7.941
N866 X65.134 Y3.109 Z-7.943
N867 X64.937 Y1.965 Z-7.945
N868 X64.611 Y.851 Z-7.946
N869 X64.16 Y-.219 Z-7.948
N870 X63.591 Y-1.23 Z-7.95
N871 X49.855 Y-22.693 Z-7.986
N872 X49.101 Y-23.723 Z-7.988
N873 X48.225 Y-24.65 Z-7.99
N874 X47.239 Y-25.461 Z-7.992
N875 X46.16 Y-26.143 Z-7.993
N876 X45.005 Y-26.684 Z-7.995
N877 X43.791 Y-27.077 Z-7.997
N878 X42.537 Y-27.315 Z-7.999
N879 X41.264 Y-27.395 Z-8.001
N880 X-41.264 Z-8.119
N881 X-42.537 Y-27.315 Z-8.121
N882 X-43.791 Y-27.077 Z-8.123
N883 X-45.005 Y-26.684 Z-8.124
N884 X-46.16 Y-26.143 Z-8.126
N885 X-47.239 Y-25.461 Z-8.128
N886 X-48.225 Y-24.65 Z-8.13
N887 X-49.101 Y-23.723 Z-8.132
N888 X-49.855 Y-22.693 Z-8.134
N889 X-63.591 Y-1.23 Z-8.17
N890 X-64.16 Y-.219 Z-8.172
N891 X-64.611 Y.851 Z-8.174
N892 X-64.937 Y1.965 Z-8.175
N893 X-65.134 Y3.109 Z-8.177
N894 X-65.2 Y4.268 Z-8.179
N895 Y29.331 Z-8.214
N896 X-63.574 Y30.558 Z-8.217
N897 X-58.574 Y29.132 Z-8.225
N898 X-52.543 Y27.507 Z-8.234
N899 X-46.468 Y26.058 Z-8.243
N900 X-40.353 Y24.789 Z-8.252
N901 X-34.203 Y23.698 Z-8.261
N902 X-28.025 Y22.788 Z-8.27
N903 X-21.822 Y22.059 Z-8.279
N904 X-15.6 Y21.512 Z-8.287
N905 X-9.366 Y21.146 Z-8.296
N906 X-3.123 Y20.964 Z-8.305
N907 X3.123 Z-8.314
N908 X9.366 Y21.146 Z-8.323
N909 X15.6 Y21.512 Z-8.332
N910 X21.822 Y22.059 Z-8.341
N911 X28.025 Y22.788 Z-8.35
N912 X34.203 Y23.698 Z-8.359
N913 X40.353 Y24.789 Z-8.368
N914 X46.468 Y26.058 Z-8.377
N915 X52.543 Y27.506 Z-8.386
N916 X58.574 Y29.132 Z-8.395
N917 X63.574 Y30.558 Z-8.402
N918 X65.2 Y29.331 Z-8.405
N919 Y4.268 Z-8.441
N920 X65.134 Y3.109 Z-8.443
N921 X64.937 Y1.965 Z-8.445
N922 X64.611 Y.851 Z-8.446
N923 X64.16 Y-.219 Z-8.448
N924 X63.591 Y-1.23 Z-8.45
N925 X49.855 Y-22.693 Z-8.486
N926 X49.101 Y-23.723 Z-8.488
N927 X48.225 Y-24.65 Z-8.49
N928 X47.239 Y-25.461 Z-8.492
N929 X46.16 Y-26.143 Z-8.493
N930 X45.005 Y-26.684 Z-8.495
N931 X43.791 Y-27.077 Z-8.497
N932 X42.537 Y-27.315 Z-8.499
N933 X41.264 Y-27.395 Z-8.501
N934 X-41.264 Z-8.619
N935 X-42.537 Y-27.315 Z-8.621
N936 X-43.791 Y-27.077 Z-8.623
N937 X-45.005 Y-26.684 Z-8.624
N938 X-46.16 Y-26.143 Z-8.626
N939 X-47.239 Y-25.461 Z-8.628
N940 X-48.225 Y-24.65 Z-8.63
N941 X-49.101 Y-23.723 Z-8.632
N942 X-49.855 Y-22.693 Z-8.634
N943 X-63.591 Y-1.23 Z-8.67
N944 X-64.16 Y-.219 Z-8.672
N945 X-64.611 Y.851 Z-8.674
N946 X-64.937 Y1.965 Z-8.675
N947 X-65.134 Y3.109 Z-8.677
N948 X-65.2 Y4.268 Z-8.679
N949 Y29.331 Z-8.714
N950 X-63.574 Y30.558 Z-8.717
N951 X-58.574 Y29.132 Z-8.725
N952 X-52.543 Y27.507 Z-8.734
N953 X-46.468 Y26.058 Z-8.743
N954 X-40.353 Y24.789 Z-8.752
N955 X-34.203 Y23.698 Z-8.761
N956 X-28.025 Y22.788 Z-8.77
N957 X-21.822 Y22.059 Z-8.779
N958 X-15.6 Y21.512 Z-8.787
N959 X-9.366 Y21.146 Z-8.796
N960 X-3.123 Y20.964 Z-8.805
N961 X3.123 Z-8.814
N962 X9.366 Y21.146 Z-8.823
N963 X15.6 Y21.512 Z-8.832
N964 X21.822 Y22.059 Z-8.841
N965 X28.025 Y22.788 Z-8.85
N966 X34.203 Y23.698 Z-8.859
N967 X40.353 Y24.789 Z-8.868
N968 X46.468 Y26.058 Z-8.877
N969 X52.543 Y27.506 Z-8.886
N970 X58.574 Y29.132 Z-8.895
N971 X63.574 Y30.558 Z-8.902
N972 X65.2 Y29.331 Z-8.905
N973 Y4.268 Z-8.941
N974 X65.134 Y3.109 Z-8.943
N975 X64.937 Y1.965 Z-8.945
N976 X64.611 Y.851 Z-8.946
N977 X64.16 Y-.219 Z-8.948
N978 X63.591 Y-1.23 Z-8.95
N979 X49.855 Y-22.693 Z-8.986
N980 X49.101 Y-23.723 Z-8.988
N981 X48.225 Y-24.65 Z-8.99
N982 X47.239 Y-25.461 Z-8.992
N983 X46.16 Y-26.143 Z-8.993
N984 X45.005 Y-26.684 Z-8.995
N985 X43.791 Y-27.077 Z-8.997
N986 X42.537 Y-27.315 Z-8.999
N987 X41.264 Y-27.395 Z-9.001
N988 X-41.264 Z-9.119
N989 X-42.537 Y-27.315 Z-9.121
N990 X-43.791 Y-27.077 Z-9.123
N991 X-45.005 Y-26.684 Z-9.124
N992 X-46.16 Y-26.143 Z-9.126
N993 X-47.239 Y-25.461 Z-9.128
N994 X-48.225 Y-24.65 Z-9.13
N995 X-49.101 Y-23.723 Z-9.132
N996 X-49.855 Y-22.693 Z-9.134
N997 X-63.591 Y-1.23 Z-9.17
N998 X-64.16 Y-.219 Z-9.172
N999 X-64.611 Y.851 Z-9.174
N1000 X-64.937 Y1.965 Z-9.175
N1001 X-65.134 Y3.109 Z-9.177
N1002 X-65.2 Y4.268 Z-9.179
N1003 Y29.331 Z-9.214
N1004 X-63.574 Y30.558 Z-9.217
N1005 X-58.574 Y29.132 Z-9.225
N1006 X-52.543 Y27.507 Z-9.234
N1007 X-46.468 Y26.058 Z-9.243
N1008 X-40.353 Y24.789 Z-9.252
N1009 X-34.203 Y23.698 Z-9.261
N1010 X-28.025 Y22.788 Z-9.27
N1011 X-21.822 Y22.059 Z-9.279
N1012 X-15.6 Y21.512 Z-9.287
N1013 X-9.366 Y21.146 Z-9.296
N1014 X-3.123 Y20.964 Z-9.305
N1015 X3.123 Z-9.314
N1016 X9.366 Y21.146 Z-9.323
N1017 X15.6 Y21.512 Z-9.332
N1018 X21.822 Y22.059 Z-9.341
N1019 X28.025 Y22.788 Z-9.35
N1020 X34.203 Y23.698 Z-9.359
N1021 X40.353 Y24.789 Z-9.368
N1022 X46.468 Y26.058 Z-9.377
N1023 X52.543 Y27.506 Z-9.386
N1024 X58.574 Y29.132 Z-9.395
N1025 X63.574 Y30.558 Z-9.402
N1026 X65.2 Y29.331 Z-9.405
N1027 Y4.268 Z-9.441
N1028 X65.134 Y3.109 Z-9.443
N1029 X64.937 Y1.965 Z-9.445
N1030 X64.611 Y.851 Z-9.446
N1031 X64.16 Y-.219 Z-9.448
N1032 X63.591 Y-1.23 Z-9.45
N1033 X49.855 Y-22.693 Z-9.486
N1034 X49.101 Y-23.723 Z-9.488
N1035 X48.225 Y-24.65 Z-9.49
N1036 X47.239 Y-25.461 Z-9.492
N1037 X46.16 Y-26.143 Z-9.493
N1038 X45.005 Y-26.684 Z-9.495
N1039 X43.791 Y-27.077 Z-9.497
N1040 X42.537 Y-27.315 Z-9.499
N1041 X41.264 Y-27.395 Z-9.501
N1042 X-41.264 Z-9.619
N1043 X-42.537 Y-27.315 Z-9.621
N1044 X-43.791 Y-27.077 Z-9.623
N1045 X-45.005 Y-26.684 Z-9.624
N1046 X-46.16 Y-26.143 Z-9.626
N1047 X-47.239 Y-25.461 Z-9.628
N1048 X-48.225 Y-24.65 Z-9.63
N1049 X-49.101 Y-23.723 Z-9.632
N1050 X-49.855 Y-22.693 Z-9.634
N1051 X-63.591 Y-1.23 Z-9.67
N1052 X-64.16 Y-.219 Z-9.672
N1053 X-64.611 Y.851 Z-9.674
N1054 X-64.937 Y1.965 Z-9.675
N1055 X-65.134 Y3.109 Z-9.677
N1056 X-65.2 Y4.268 Z-9.679
N1057 Y29.331 Z-9.714
N1058 X-63.574 Y30.558 Z-9.717
N1059 X-58.574 Y29.132 Z-9.725
N1060 X-52.543 Y27.507 Z-9.734
N1061 X-46.468 Y26.058 Z-9.743
N1062 X-40.353 Y24.789 Z-9.752
N1063 X-34.203 Y23.698 Z-9.761
N1064 X-28.025 Y22.788 Z-9.77
N1065 X-21.822 Y22.059 Z-9.779
N1066 X-15.6 Y21.512 Z-9.787
N1067 X-9.366 Y21.146 Z-9.796
N1068 X-3.123 Y20.964 Z-9.805
N1069 X3.123 Z-9.814
N1070 X9.366 Y21.146 Z-9.823
N1071 X15.6 Y21.512 Z-9.832
N1072 X21.822 Y22.059 Z-9.841
N1073 X28.025 Y22.788 Z-9.85
N1074 X34.203 Y23.698 Z-9.859
N1075 X40.353 Y24.789 Z-9.868
N1076 X46.468 Y26.058 Z-9.877
N1077 X52.543 Y27.506 Z-9.886
N1078 X58.574 Y29.132 Z-9.895
N1079 X63.574 Y30.558 Z-9.902
N1080 X65.2 Y29.331 Z-9.905
N1081 Y4.268 Z-9.941
N1082 X65.134 Y3.109 Z-9.943
N1083 X64.937 Y1.965 Z-9.945
N1084 X64.611 Y.851 Z-9.946
N1085 X64.16 Y-.219 Z-9.948
N1086 X63.591 Y-1.23 Z-9.95
N1087 X49.855 Y-22.693 Z-9.986
N1088 X49.101 Y-23.723 Z-9.988
N1089 X48.225 Y-24.65 Z-9.99
N1090 X47.239 Y-25.461 Z-9.992
N1091 X46.16 Y-26.143 Z-9.993
N1092 X45.005 Y-26.684 Z-9.995
N1093 X43.791 Y-27.077 Z-9.997
N1094 X42.537 Y-27.315 Z-9.999
N1095 X41.264 Y-27.395 Z-10.001
N1096 X-41.264 Z-10.119
N1097 X-42.537 Y-27.315 Z-10.121
N1098 X-43.791 Y-27.077 Z-10.123
N1099 X-45.005 Y-26.684 Z-10.124
N1100 X-46.16 Y-26.143 Z-10.126
N1101 X-47.239 Y-25.461 Z-10.128
N1102 X-48.225 Y-24.65 Z-10.13
N1103 X-49.101 Y-23.723 Z-10.132
N1104 X-49.855 Y-22.693 Z-10.134
N1105 X-63.591 Y-1.23 Z-10.17
N1106 X-64.16 Y-.219 Z-10.172
N1107 X-64.611 Y.851 Z-10.174
N1108 X-64.937 Y1.965 Z-10.175
N1109 X-65.134 Y3.109 Z-10.177
N1110 X-65.2 Y4.268 Z-10.179
N1111 Y29.331 Z-10.214
N1112 X-63.574 Y30.558 Z-10.217
N1113 X-58.574 Y29.132 Z-10.225
N1114 X-52.543 Y27.507 Z-10.234
N1115 X-46.468 Y26.058 Z-10.243
N1116 X-40.353 Y24.789 Z-10.252
N1117 X-34.203 Y23.698 Z-10.261
N1118 X-28.025 Y22.788 Z-10.27
N1119 X-21.822 Y22.059 Z-10.279
N1120 X-15.6 Y21.512 Z-10.287
N1121 X-9.366 Y21.146 Z-10.296
N1122 X-3.123 Y20.964 Z-10.305
N1123 X3.123 Z-10.314
N1124 X9.366 Y21.146 Z-10.323
N1125 X15.6 Y21.512 Z-10.332
N1126 X21.822 Y22.059 Z-10.341
N1127 X28.025 Y22.788 Z-10.35
N1128 X34.203 Y23.698 Z-10.359
N1129 X40.353 Y24.789 Z-10.368
N1130 X46.468 Y26.058 Z-10.377
N1131 X52.543 Y27.506 Z-10.386
N1132 X58.574 Y29.132 Z-10.395
N1133 X63.574 Y30.558 Z-10.402
N1134 X65.2 Y29.331 Z-10.405
N1135 Y4.268 Z-10.441
N1136 X65.134 Y3.109 Z-10.443
N1137 X64.937 Y1.965 Z-10.445
N1138 X64.611 Y.851 Z-10.446
N1139 X64.16 Y-.219 Z-10.448
N1140 X63.591 Y-1.23 Z-10.45
N1141 X49.855 Y-22.693 Z-10.486
N1142 X49.101 Y-23.723 Z-10.488
N1143 X48.225 Y-24.65 Z-10.49
N1144 X47.239 Y-25.461 Z-10.492
N1145 X46.16 Y-26.143 Z-10.493
N1146 X45.005 Y-26.684 Z-10.495
N1147 X43.791 Y-27.077 Z-10.497
N1148 X42.537 Y-27.315 Z-10.499
N1149 X41.264 Y-27.395 Z-10.501
N1150 X-41.264 Z-10.619
N1151 X-42.537 Y-27.315 Z-10.621
N1152 X-43.791 Y-27.077 Z-10.623
N1153 X-45.005 Y-26.684 Z-10.624
N1154 X-46.16 Y-26.143 Z-10.626
N1155 X-47.239 Y-25.461 Z-10.628
N1156 X-48.225 Y-24.65 Z-10.63
N1157 X-49.101 Y-23.723 Z-10.632
N1158 X-49.855 Y-22.693 Z-10.634
N1159 X-63.591 Y-1.23 Z-10.67
N1160 X-64.16 Y-.219 Z-10.672
N1161 X-64.611 Y.851 Z-10.674
N1162 X-64.937 Y1.965 Z-10.675
N1163 X-65.134 Y3.109 Z-10.677
N1164 X-65.2 Y4.268 Z-10.679
N1165 Y29.331 Z-10.714
N1166 X-63.574 Y30.558 Z-10.717
N1167 X-58.574 Y29.132 Z-10.725
N1168 X-52.543 Y27.507 Z-10.734
N1169 X-46.468 Y26.058 Z-10.743
N1170 X-40.353 Y24.789 Z-10.752
N1171 X-34.203 Y23.698 Z-10.761
N1172 X-28.025 Y22.788 Z-10.77
N1173 X-21.822 Y22.059 Z-10.779
N1174 X-15.6 Y21.512 Z-10.787
N1175 X-9.366 Y21.146 Z-10.796
N1176 X-3.123 Y20.964 Z-10.805
N1177 X3.123 Z-10.814
N1178 X9.366 Y21.146 Z-10.823
N1179 X15.6 Y21.512 Z-10.832
N1180 X21.822 Y22.059 Z-10.841
N1181 X28.025 Y22.788 Z-10.85
N1182 X34.203 Y23.698 Z-10.859
N1183 X40.353 Y24.789 Z-10.868
N1184 X46.468 Y26.058 Z-10.877
N1185 X52.543 Y27.506 Z-10.886
N1186 X58.574 Y29.132 Z-10.895
N1187 X63.574 Y30.558 Z-10.902
N1188 X65.2 Y29.331 Z-10.905
N1189 Y4.268 Z-10.941
N1190 X65.134 Y3.109 Z-10.943
N1191 X64.937 Y1.965 Z-10.945
N1192 X64.611 Y.851 Z-10.946
N1193 X64.16 Y-.219 Z-10.948
N1194 X63.591 Y-1.23 Z-10.95
N1195 X49.855 Y-22.693 Z-10.986
N1196 X49.101 Y-23.723 Z-10.988
N1197 X48.225 Y-24.65 Z-10.99
N1198 X47.239 Y-25.461 Z-10.992
N1199 X46.16 Y-26.143 Z-10.993
N1200 X45.005 Y-26.684 Z-10.995
N1201 X43.791 Y-27.077 Z-10.997
N1202 X42.537 Y-27.315 Z-10.999
N1203 X41.264 Y-27.395 Z-11.001
N1204 X-41.264 Z-11.119
N1205 X-42.537 Y-27.315 Z-11.121
N1206 X-43.791 Y-27.077 Z-11.123
N1207 X-45.005 Y-26.684 Z-11.124
N1208 X-46.16 Y-26.143 Z-11.126
N1209 X-47.239 Y-25.461 Z-11.128
N1210 X-48.225 Y-24.65 Z-11.13
N1211 X-49.101 Y-23.723 Z-11.132
N1212 X-49.855 Y-22.693 Z-11.134
N1213 X-63.591 Y-1.23 Z-11.17
N1214 X-64.16 Y-.219 Z-11.172
N1215 X-64.611 Y.851 Z-11.174
N1216 X-64.937 Y1.965 Z-11.175
N1217 X-65.134 Y3.109 Z-11.177
N1218 X-65.2 Y4.268 Z-11.179
N1219 Y29.331 Z-11.214
N1220 X-63.574 Y30.558 Z-11.217
N1221 X-58.574 Y29.132 Z-11.225
N1222 X-52.543 Y27.507 Z-11.234
N1223 X-46.468 Y26.058 Z-11.243
N1224 X-40.353 Y24.789 Z-11.252
N1225 X-34.203 Y23.698 Z-11.261
N1226 X-28.025 Y22.788 Z-11.27
N1227 X-21.822 Y22.059 Z-11.279
N1228 X-15.6 Y21.512 Z-11.287
N1229 X-9.366 Y21.146 Z-11.296
N1230 X-3.123 Y20.964 Z-11.305
N1231 X3.123 Z-11.314
N1232 X9.366 Y21.146 Z-11.323
N1233 X15.6 Y21.512 Z-11.332
N1234 X21.822 Y22.059 Z-11.341
N1235 X28.025 Y22.788 Z-11.35
N1236 X34.203 Y23.698 Z-11.359
N1237 X40.353 Y24.789 Z-11.368
N1238 X46.468 Y26.058 Z-11.377
N1239 X52.543 Y27.506 Z-11.386
N1240 X58.574 Y29.132 Z-11.395
N1241 X63.574 Y30.558 Z-11.402
N1242 X65.2 Y29.331 Z-11.405
N1243 Y4.268 Z-11.441
N1244 X65.134 Y3.109 Z-11.443
N1245 X64.937 Y1.965 Z-11.445
N1246 X64.611 Y.851 Z-11.446
N1247 X64.16 Y-.219 Z-11.448
N1248 X63.591 Y-1.23 Z-11.45
N1249 X49.855 Y-22.693 Z-11.486
N1250 X49.101 Y-23.723 Z-11.488
N1251 X48.225 Y-24.65 Z-11.49
N1252 X47.239 Y-25.461 Z-11.492
N1253 X46.16 Y-26.143 Z-11.493
N1254 X45.005 Y-26.684 Z-11.495
N1255 X43.791 Y-27.077 Z-11.497
N1256 X42.537 Y-27.315 Z-11.499
N1257 X41.264 Y-27.395 Z-11.501
N1258 X-41.264 Z-11.619
N1259 X-42.537 Y-27.315 Z-11.621
N1260 X-43.791 Y-27.077 Z-11.623
N1261 X-45.005 Y-26.684 Z-11.624
N1262 X-46.16 Y-26.143 Z-11.626
N1263 X-47.239 Y-25.461 Z-11.628
N1264 X-48.225 Y-24.65 Z-11.63
N1265 X-49.101 Y-23.723 Z-11.632
N1266 X-49.855 Y-22.693 Z-11.634
N1267 X-63.591 Y-1.23 Z-11.67
N1268 X-64.16 Y-.219 Z-11.672
N1269 X-64.611 Y.851 Z-11.674
N1270 X-64.937 Y1.965 Z-11.675
N1271 X-65.134 Y3.109 Z-11.677
N1272 X-65.2 Y4.268 Z-11.679
N1273 Y29.331 Z-11.714
N1274 X-63.574 Y30.558 Z-11.717
N1275 X-58.574 Y29.132 Z-11.725
N1276 X-52.543 Y27.507 Z-11.734
N1277 X-46.468 Y26.058 Z-11.743
N1278 X-40.353 Y24.789 Z-11.752
N1279 X-34.203 Y23.698 Z-11.761
N1280 X-28.025 Y22.788 Z-11.77
N1281 X-21.822 Y22.059 Z-11.779
N1282 X-15.6 Y21.512 Z-11.787
N1283 X-9.366 Y21.146 Z-11.796
N1284 X-3.123 Y20.964 Z-11.805
N1285 X3.123 Z-11.814
N1286 X9.366 Y21.146 Z-11.823
N1287 X15.6 Y21.512 Z-11.832
N1288 X21.822 Y22.059 Z-11.841
N1289 X28.025 Y22.788 Z-11.85
N1290 X34.203 Y23.698 Z-11.859
N1291 X40.353 Y24.789 Z-11.868
N1292 X46.468 Y26.058 Z-11.877
N1293 X52.543 Y27.506 Z-11.886
N1294 X58.574 Y29.132 Z-11.895
N1295 X63.574 Y30.558 Z-11.902
N1296 X65.2 Y29.331 Z-11.905
N1297 Y4.268 Z-11.941
N1298 X65.134 Y3.109 Z-11.943
N1299 X64.937 Y1.965 Z-11.945
N1300 X64.611 Y.851 Z-11.946
N1301 X64.16 Y-.219 Z-11.948
N1302 X63.591 Y-1.23 Z-11.95
N1303 X49.855 Y-22.693 Z-11.986
N1304 X49.101 Y-23.723 Z-11.988
N1305 X48.225 Y-24.65 Z-11.99
N1306 X47.239 Y-25.461 Z-11.992
N1307 X46.16 Y-26.143 Z-11.993
N1308 X45.005 Y-26.684 Z-11.995
N1309 X43.791 Y-27.077 Z-11.997
N1310 X42.537 Y-27.315 Z-11.999
N1311 X41.264 Y-27.395 Z-12.001
N1312 X-41.264 Z-12.119
N1313 X-42.537 Y-27.315 Z-12.121
N1314 X-43.791 Y-27.077 Z-12.123
N1315 X-45.005 Y-26.684 Z-12.124
N1316 X-46.16 Y-26.143 Z-12.126
N1317 X-47.239 Y-25.461 Z-12.128
N1318 X-48.225 Y-24.65 Z-12.13
N1319 X-49.101 Y-23.723 Z-12.132
N1320 X-49.855 Y-22.693 Z-12.134
N1321 X-63.591 Y-1.23 Z-12.17
N1322 X-64.16 Y-.219 Z-12.172
N1323 X-64.611 Y.851 Z-12.174
N1324 X-64.937 Y1.965 Z-12.175
N1325 X-65.134 Y3.109 Z-12.177
N1326 X-65.2 Y4.268 Z-12.179
N1327 Y29.331 Z-12.214
N1328 X-63.574 Y30.558 Z-12.217
N1329 X-58.574 Y29.132 Z-12.225
N1330 X-52.543 Y27.507 Z-12.234
N1331 X-46.468 Y26.058 Z-12.243
N1332 X-40.353 Y24.789 Z-12.252
N1333 X-34.203 Y23.698 Z-12.261
N1334 X-28.025 Y22.788 Z-12.27
N1335 X-21.822 Y22.059 Z-12.279
N1336 X-15.6 Y21.512 Z-12.287
N1337 X-9.366 Y21.146 Z-12.296
N1338 X-3.123 Y20.964 Z-12.305
N1339 X3.123 Z-12.314
N1340 X9.366 Y21.146 Z-12.323
N1341 X15.6 Y21.512 Z-12.332
N1342 X21.822 Y22.059 Z-12.341
N1343 X28.025 Y22.788 Z-12.35
N1344 X34.203 Y23.698 Z-12.359
N1345 X40.353 Y24.789 Z-12.368
N1346 X46.468 Y26.058 Z-12.377
N1347 X52.543 Y27.506 Z-12.386
N1348 X58.574 Y29.132 Z-12.395
N1349 X63.574 Y30.558 Z-12.402
N1350 X65.2 Y29.331 Z-12.405
N1351 Y4.268 Z-12.441
N1352 X65.134 Y3.109 Z-12.443
N1353 X64.937 Y1.965 Z-12.445
N1354 X64.611 Y.851 Z-12.446
N1355 X64.16 Y-.219 Z-12.448
N1356 X63.591 Y-1.23 Z-12.45
N1357 X49.855 Y-22.693 Z-12.486
N1358 X49.101 Y-23.723 Z-12.488
N1359 X48.225 Y-24.65 Z-12.49
N1360 X47.239 Y-25.461 Z-12.492
N1361 X46.16 Y-26.143 Z-12.493
N1362 X45.005 Y-26.684 Z-12.495
N1363 X43.791 Y-27.077 Z-12.497
N1364 X42.537 Y-27.315 Z-12.499
N1365 X41.264 Y-27.395 Z-12.501
N1366 X-41.264 Z-12.619
N1367 X-42.537 Y-27.315 Z-12.621
N1368 X-43.791 Y-27.077 Z-12.623
N1369 X-45.005 Y-26.684 Z-12.624
N1370 X-46.16 Y-26.143 Z-12.626
N1371 X-47.239 Y-25.461 Z-12.628
N1372 X-48.225 Y-24.65 Z-12.63
N1373 X-49.101 Y-23.723 Z-12.632
N1374 X-49.855 Y-22.693 Z-12.634
N1375 X-63.591 Y-1.23 Z-12.67
N1376 X-64.16 Y-.219 Z-12.672
N1377 X-64.611 Y.851 Z-12.674
N1378 X-64.937 Y1.965 Z-12.675
N1379 X-65.134 Y3.109 Z-12.677
N1380 X-65.2 Y4.268 Z-12.679
N1381 Y29.331 Z-12.714
N1382 X-63.574 Y30.558 Z-12.717
N1383 X-58.574 Y29.132 Z-12.725
N1384 X-52.543 Y27.507 Z-12.734
N1385 X-46.468 Y26.058 Z-12.743
N1386 X-40.353 Y24.789 Z-12.752
N1387 X-34.203 Y23.698 Z-12.761
N1388 X-28.025 Y22.788 Z-12.77
N1389 X-21.822 Y22.059 Z-12.779
N1390 X-15.6 Y21.512 Z-12.787
N1391 X-9.366 Y21.146 Z-12.796
N1392 X-3.123 Y20.964 Z-12.805
N1393 X3.123 Z-12.814
N1394 X9.366 Y21.146 Z-12.823
N1395 X15.6 Y21.512 Z-12.832
N1396 X21.822 Y22.059 Z-12.841
N1397 X28.025 Y22.788 Z-12.85
N1398 X34.203 Y23.698 Z-12.859
N1399 X40.353 Y24.789 Z-12.868
N1400 X46.468 Y26.058 Z-12.877
N1401 X52.543 Y27.506 Z-12.886
N1402 X58.574 Y29.132 Z-12.895
N1403 X63.574 Y30.558 Z-12.902
N1404 X65.2 Y29.331 Z-12.905
N1405 Y4.268 Z-12.941
N1406 X65.134 Y3.109 Z-12.943
N1407 X64.937 Y1.965 Z-12.945
N1408 X64.611 Y.851 Z-12.946
N1409 X64.16 Y-.219 Z-12.948
N1410 X63.591 Y-1.23 Z-12.95
N1411 X49.855 Y-22.693 Z-12.986
N1412 X49.101 Y-23.723 Z-12.988
N1413 X48.225 Y-24.65 Z-12.99
N1414 X47.239 Y-25.461 Z-12.992
N1415 X46.16 Y-26.143 Z-12.993
N1416 X45.005 Y-26.684 Z-12.995
N1417 X43.791 Y-27.077 Z-12.997
N1418 X42.537 Y-27.315 Z-12.999
N1419 X41.264 Y-27.395 Z-13.001
N1420 X-41.264 Z-13.119
N1421 X-42.537 Y-27.315 Z-13.121
N1422 X-43.791 Y-27.077 Z-13.123
N1423 X-45.005 Y-26.684 Z-13.124
N1424 X-46.16 Y-26.143 Z-13.126
N1425 X-47.239 Y-25.461 Z-13.128
N1426 X-48.225 Y-24.65 Z-13.13
N1427 X-49.101 Y-23.723 Z-13.132
N1428 X-49.855 Y-22.693 Z-13.134
N1429 X-63.591 Y-1.23 Z-13.17
N1430 X-64.16 Y-.219 Z-13.172
N1431 X-64.611 Y.851 Z-13.174
N1432 X-64.937 Y1.965 Z-13.175
N1433 X-65.134 Y3.109 Z-13.177
N1434 X-65.2 Y4.268 Z-13.179
N1435 Y29.331 Z-13.214
N1436 X-63.574 Y30.558 Z-13.217
N1437 X-58.574 Y29.132 Z-13.225
N1438 X-52.543 Y27.507 Z-13.234
N1439 X-46.468 Y26.058 Z-13.243
N1440 X-40.353 Y24.789 Z-13.252
N1441 X-34.203 Y23.698 Z-13.261
N1442 X-28.025 Y22.788 Z-13.27
N1443 X-21.822 Y22.059 Z-13.279
N1444 X-15.6 Y21.512 Z-13.287
N1445 X-9.366 Y21.146 Z-13.296
N1446 X-3.123 Y20.964 Z-13.305
N1447 X3.123 Z-13.314
N1448 X9.366 Y21.146 Z-13.323
N1449 X15.6 Y21.512 Z-13.332
N1450 X21.822 Y22.059 Z-13.341
N1451 X28.025 Y22.788 Z-13.35
N1452 X34.203 Y23.698 Z-13.359
N1453 X40.353 Y24.789 Z-13.368
N1454 X46.468 Y26.058 Z-13.377
N1455 X52.543 Y27.506 Z-13.386
N1456 X58.574 Y29.132 Z-13.395
N1457 X63.574 Y30.558 Z-13.402
N1458 X65.2 Y29.331 Z-13.405
N1459 Y4.268 Z-13.441
N1460 X65.134 Y3.109 Z-13.443
N1461 X64.937 Y1.965 Z-13.445
N1462 X64.611 Y.851 Z-13.446
N1463 X64.16 Y-.219 Z-13.448
N1464 X63.591 Y-1.23 Z-13.45
N1465 X49.855 Y-22.693 Z-13.486
N1466 X49.101 Y-23.723 Z-13.488
N1467 X48.225 Y-24.65 Z-13.49
N1468 X47.239 Y-25.461 Z-13.492
N1469 X46.16 Y-26.143 Z-13.493
N1470 X45.005 Y-26.684 Z-13.495
N1471 X43.791 Y-27.077 Z-13.497
N1472 X42.537 Y-27.315 Z-13.499
N1473 X41.264 Y-27.395 Z-13.501
N1474 X-41.264 Z-13.619
N1475 X-42.537 Y-27.315 Z-13.621
N1476 X-43.791 Y-27.077 Z-13.623
N1477 X-45.005 Y-26.684 Z-13.624
N1478 X-46.16 Y-26.143 Z-13.626
N1479 X-47.239 Y-25.461 Z-13.628
N1480 X-48.225 Y-24.65 Z-13.63
N1481 X-49.101 Y-23.723 Z-13.632
N1482 X-49.855 Y-22.693 Z-13.634
N1483 X-63.591 Y-1.23 Z-13.67
N1484 X-64.16 Y-.219 Z-13.672
N1485 X-64.611 Y.851 Z-13.674
N1486 X-64.937 Y1.965 Z-13.675
N1487 X-65.134 Y3.109 Z-13.677
N1488 X-65.2 Y4.268 Z-13.679
N1489 Y29.331 Z-13.714
N1490 X-63.574 Y30.558 Z-13.717
N1491 X-58.574 Y29.132 Z-13.725
N1492 X-52.543 Y27.507 Z-13.734
N1493 X-46.468 Y26.058 Z-13.743
N1494 X-40.353 Y24.789 Z-13.752
N1495 X-34.203 Y23.698 Z-13.761
N1496 X-28.025 Y22.788 Z-13.77
N1497 X-21.822 Y22.059 Z-13.779
N1498 X-15.6 Y21.512 Z-13.787
N1499 X-9.366 Y21.146 Z-13.796
N1500 X-3.123 Y20.964 Z-13.805
N1501 X3.123 Z-13.814
N1502 X9.366 Y21.146 Z-13.823
N1503 X15.6 Y21.512 Z-13.832
N1504 X21.822 Y22.059 Z-13.841
N1505 X28.025 Y22.788 Z-13.85
N1506 X34.203 Y23.698 Z-13.859
N1507 X40.353 Y24.789 Z-13.868
N1508 X46.468 Y26.058 Z-13.877
N1509 X52.543 Y27.506 Z-13.886
N1510 X58.574 Y29.132 Z-13.895
N1511 X63.574 Y30.558 Z-13.902
N1512 X65.2 Y29.331 Z-13.905
N1513 Y4.268 Z-13.941
N1514 X65.134 Y3.109 Z-13.943
N1515 X64.937 Y1.965 Z-13.945
N1516 X64.611 Y.851 Z-13.946
N1517 X64.16 Y-.219 Z-13.948
N1518 X63.591 Y-1.23 Z-13.95
N1519 X49.855 Y-22.693 Z-13.986
N1520 X49.101 Y-23.723 Z-13.988
N1521 X48.225 Y-24.65 Z-13.99
N1522 X47.239 Y-25.461 Z-13.992
N1523 X46.16 Y-26.143 Z-13.993
N1524 X45.005 Y-26.684 Z-13.995
N1525 X43.791 Y-27.077 Z-13.997
N1526 X42.537 Y-27.315 Z-13.999
N1527 X41.264 Y-27.395 Z-14.001
N1528 X-41.264 Z-14.119
N1529 X-42.537 Y-27.315 Z-14.121
N1530 X-43.791 Y-27.077 Z-14.123
N1531 X-45.005 Y-26.684 Z-14.124
N1532 X-46.16 Y-26.143 Z-14.126
N1533 X-47.239 Y-25.461 Z-14.128
N1534 X-48.225 Y-24.65 Z-14.13
N1535 X-49.101 Y-23.723 Z-14.132
N1536 X-49.855 Y-22.693 Z-14.134
N1537 X-63.591 Y-1.23 Z-14.17
N1538 X-64.16 Y-.219 Z-14.172
N1539 X-64.611 Y.851 Z-14.174
N1540 X-64.937 Y1.965 Z-14.175
N1541 X-65.134 Y3.109 Z-14.177
N1542 X-65.2 Y4.268 Z-14.179
N1543 Y29.331 Z-14.214
N1544 X-63.574 Y30.558 Z-14.217
N1545 X-58.574 Y29.132 Z-14.225
N1546 X-52.543 Y27.507 Z-14.234
N1547 X-46.468 Y26.058 Z-14.243
N1548 X-40.353 Y24.789 Z-14.252
N1549 X-34.203 Y23.698 Z-14.261
N1550 X-28.025 Y22.788 Z-14.27
N1551 X-21.822 Y22.059 Z-14.279
N1552 X-15.6 Y21.512 Z-14.287
N1553 X-9.366 Y21.146 Z-14.296
N1554 X-3.123 Y20.964 Z-14.305
N1555 X3.123 Z-14.314
N1556 X9.366 Y21.146 Z-14.323
N1557 X15.6 Y21.512 Z-14.332
N1558 X21.822 Y22.059 Z-14.341
N1559 X28.025 Y22.788 Z-14.35
N1560 X34.203 Y23.698 Z-14.359
N1561 X40.353 Y24.789 Z-14.368
N1562 X46.468 Y26.058 Z-14.377
N1563 X52.543 Y27.506 Z-14.386
N1564 X58.574 Y29.132 Z-14.395
N1565 X63.574 Y30.558 Z-14.402
N1566 X65.2 Y29.331 Z-14.405
N1567 Y4.268 Z-14.441
N1568 X65.134 Y3.109 Z-14.443
N1569 X64.937 Y1.965 Z-14.445
N1570 X64.611 Y.851 Z-14.446
N1571 X64.16 Y-.219 Z-14.448
N1572 X63.591 Y-1.23 Z-14.45
N1573 X49.855 Y-22.693 Z-14.486
N1574 X49.101 Y-23.723 Z-14.488
N1575 X48.225 Y-24.65 Z-14.49
N1576 X47.239 Y-25.461 Z-14.492
N1577 X46.16 Y-26.143 Z-14.493
N1578 X45.005 Y-26.684 Z-14.495
N1579 X43.791 Y-27.077 Z-14.497
N1580 X42.537 Y-27.315 Z-14.499
N1581 X41.264 Y-27.395 Z-14.501
N1582 X-41.264 Z-14.619
N1583 X-42.537 Y-27.315 Z-14.621
N1584 X-43.791 Y-27.077 Z-14.623
N1585 X-45.005 Y-26.684 Z-14.624
N1586 X-46.16 Y-26.143 Z-14.626
N1587 X-47.239 Y-25.461 Z-14.628
N1588 X-48.225 Y-24.65 Z-14.63
N1589 X-49.101 Y-23.723 Z-14.632
N1590 X-49.855 Y-22.693 Z-14.634
N1591 X-63.591 Y-1.23 Z-14.67
N1592 X-64.16 Y-.219 Z-14.672
N1593 X-64.611 Y.851 Z-14.674
N1594 X-64.937 Y1.965 Z-14.675
N1595 X-65.134 Y3.109 Z-14.677
N1596 X-65.2 Y4.268 Z-14.679
N1597 Y29.331 Z-14.714
N1598 X-63.574 Y30.558 Z-14.717
N1599 X-58.574 Y29.132 Z-14.725
N1600 X-52.543 Y27.507 Z-14.734
N1601 X-46.468 Y26.058 Z-14.743
N1602 X-40.353 Y24.789 Z-14.752
N1603 X-34.203 Y23.698 Z-14.761
N1604 X-28.025 Y22.788 Z-14.77
N1605 X-21.822 Y22.059 Z-14.779
N1606 X-15.6 Y21.512 Z-14.787
N1607 X-9.366 Y21.146 Z-14.796
N1608 X-3.123 Y20.964 Z-14.805
N1609 X3.123 Z-14.814
N1610 X9.366 Y21.146 Z-14.823
N1611 X15.6 Y21.512 Z-14.832
N1612 X21.822 Y22.059 Z-14.841
N1613 X28.025 Y22.788 Z-14.85
N1614 X34.203 Y23.698 Z-14.859
N1615 X40.353 Y24.789 Z-14.868
N1616 X46.468 Y26.058 Z-14.877
N1617 X52.543 Y27.506 Z-14.886
N1618 X58.574 Y29.132 Z-14.895
N1619 X63.574 Y30.558 Z-14.902
N1620 X65.2 Y29.331 Z-14.905
N1621 Y4.268 Z-14.941
N1622 X65.134 Y3.109 Z-14.943
N1623 X64.937 Y1.965 Z-14.945
N1624 X64.611 Y.851 Z-14.946
N1625 X64.16 Y-.219 Z-14.948
N1626 X63.591 Y-1.23 Z-14.95
N1627 X49.855 Y-22.693 Z-14.986
N1628 X49.101 Y-23.723 Z-14.988
N1629 X48.225 Y-24.65 Z-14.99
N1630 X47.239 Y-25.461 Z-14.992
N1631 X46.16 Y-26.143 Z-14.993
N1632 X45.005 Y-26.684 Z-14.995
N1633 X43.791 Y-27.077 Z-14.997
N1634 X42.537 Y-27.315 Z-14.999
N1635 X41.264 Y-27.395 Z-15.001
N1636 X-41.264 Z-15.119
N1637 X-42.537 Y-27.315 Z-15.121
N1638 X-43.791 Y-27.077 Z-15.123
N1639 X-45.005 Y-26.684 Z-15.124
N1640 X-46.16 Y-26.143 Z-15.126
N1641 X-47.239 Y-25.461 Z-15.128
N1642 X-48.225 Y-24.65 Z-15.13
N1643 X-49.101 Y-23.723 Z-15.132
N1644 X-49.855 Y-22.693 Z-15.134
N1645 X-63.591 Y-1.23 Z-15.17
N1646 X-64.16 Y-.219 Z-15.172
N1647 X-64.611 Y.851 Z-15.174
N1648 X-64.937 Y1.965 Z-15.175
N1649 X-65.134 Y3.109 Z-15.177
N1650 X-65.2 Y4.268 Z-15.179
N1651 Y29.331 Z-15.214
N1652 X-63.574 Y30.558 Z-15.217
N1653 X-58.574 Y29.132 Z-15.225
N1654 X-52.543 Y27.507 Z-15.234
N1655 X-46.468 Y26.058 Z-15.243
N1656 X-40.353 Y24.789 Z-15.252
N1657 X-34.203 Y23.698 Z-15.261
N1658 X-28.025 Y22.788 Z-15.27
N1659 X-21.822 Y22.059 Z-15.279
N1660 X-15.6 Y21.512 Z-15.287
N1661 X-9.366 Y21.146 Z-15.296
N1662 X-3.123 Y20.964 Z-15.305
N1663 X3.123 Z-15.314
N1664 X9.366 Y21.146 Z-15.323
N1665 X15.6 Y21.512 Z-15.332
N1666 X21.822 Y22.059 Z-15.341
N1667 X28.025 Y22.788 Z-15.35
N1668 X34.203 Y23.698 Z-15.359
N1669 X40.353 Y24.789 Z-15.368
N1670 X46.468 Y26.058 Z-15.377
N1671 X52.543 Y27.506 Z-15.386
N1672 X58.574 Y29.132 Z-15.395
N1673 X63.574 Y30.558 Z-15.402
N1674 X65.2 Y29.331 Z-15.405
N1675 Y4.268 Z-15.441
N1676 X65.134 Y3.109 Z-15.443
N1677 X64.937 Y1.965 Z-15.445
N1678 X64.611 Y.851 Z-15.446
N1679 X64.16 Y-.219 Z-15.448
N1680 X63.591 Y-1.23 Z-15.45
N1681 X49.855 Y-22.693 Z-15.486
N1682 X49.101 Y-23.723 Z-15.488
N1683 X48.225 Y-24.65 Z-15.49
N1684 X47.239 Y-25.461 Z-15.492
N1685 X46.16 Y-26.143 Z-15.493
N1686 X45.005 Y-26.684 Z-15.495
N1687 X43.791 Y-27.077 Z-15.497
N1688 X42.537 Y-27.315 Z-15.499
N1689 X41.264 Y-27.395 Z-15.501
N1690 X-41.264 Z-15.619
N1691 X-42.537 Y-27.315 Z-15.621
N1692 X-43.791 Y-27.077 Z-15.623
N1693 X-45.005 Y-26.684 Z-15.624
N1694 X-46.16 Y-26.143 Z-15.626
N1695 X-47.239 Y-25.461 Z-15.628
N1696 X-48.225 Y-24.65 Z-15.63
N1697 X-49.101 Y-23.723 Z-15.632
N1698 X-49.855 Y-22.693 Z-15.634
N1699 X-63.591 Y-1.23 Z-15.67
N1700 X-64.16 Y-.219 Z-15.672
N1701 X-64.611 Y.851 Z-15.674
N1702 X-64.937 Y1.965 Z-15.675
N1703 X-65.134 Y3.109 Z-15.677
N1704 X-65.2 Y4.268 Z-15.679
N1705 Y29.331 Z-15.714
N1706 X-63.574 Y30.558 Z-15.717
N1707 X-58.574 Y29.132 Z-15.725
N1708 X-52.543 Y27.507 Z-15.734
N1709 X-46.468 Y26.058 Z-15.743
N1710 X-40.353 Y24.789 Z-15.752
N1711 X-34.203 Y23.698 Z-15.761
N1712 X-28.025 Y22.788 Z-15.77
N1713 X-21.822 Y22.059 Z-15.779
N1714 X-15.6 Y21.512 Z-15.787
N1715 X-9.366 Y21.146 Z-15.796
N1716 X-3.123 Y20.964 Z-15.805
N1717 X3.123 Z-15.814
N1718 X9.366 Y21.146 Z-15.823
N1719 X15.6 Y21.512 Z-15.832
N1720 X21.822 Y22.059 Z-15.841
N1721 X28.025 Y22.788 Z-15.85
N1722 X34.203 Y23.698 Z-15.859
N1723 X40.353 Y24.789 Z-15.868
N1724 X46.468 Y26.058 Z-15.877
N1725 X52.543 Y27.506 Z-15.886
N1726 X58.574 Y29.132 Z-15.895
N1727 X63.574 Y30.558 Z-15.902
N1728 X65.2 Y29.331 Z-15.905
N1729 Y4.268 Z-15.941
N1730 X65.134 Y3.109 Z-15.943
N1731 X64.937 Y1.965 Z-15.945
N1732 X64.611 Y.851 Z-15.946
N1733 X64.16 Y-.219 Z-15.948
N1734 X63.591 Y-1.23 Z-15.95
N1735 X49.855 Y-22.693 Z-15.986
N1736 X49.101 Y-23.723 Z-15.988
N1737 X48.225 Y-24.65 Z-15.99
N1738 X47.239 Y-25.461 Z-15.992
N1739 X46.16 Y-26.143 Z-15.993
N1740 X45.005 Y-26.684 Z-15.995
N1741 X43.791 Y-27.077 Z-15.997
N1742 X42.537 Y-27.315 Z-15.999
N1743 X41.264 Y-27.395 Z-16.001
N1744 X-41.264 Z-16.119
N1745 X-42.537 Y-27.315 Z-16.121
N1746 X-43.791 Y-27.077 Z-16.123
N1747 X-45.005 Y-26.684 Z-16.124
N1748 X-46.16 Y-26.143 Z-16.126
N1749 X-47.239 Y-25.461 Z-16.128
N1750 X-48.225 Y-24.65 Z-16.13
N1751 X-49.101 Y-23.723 Z-16.132
N1752 X-49.855 Y-22.693 Z-16.134
N1753 X-63.591 Y-1.23 Z-16.17
N1754 X-64.16 Y-.219 Z-16.172
N1755 X-64.611 Y.851 Z-16.174
N1756 X-64.937 Y1.965 Z-16.175
N1757 X-65.134 Y3.109 Z-16.177
N1758 X-65.2 Y4.268 Z-16.179
N1759 Y29.331 Z-16.214
N1760 X-63.574 Y30.558 Z-16.217
N1761 X-58.574 Y29.132 Z-16.225
N1762 X-52.543 Y27.507 Z-16.234
N1763 X-46.468 Y26.058 Z-16.243
N1764 X-40.353 Y24.789 Z-16.252
N1765 X-34.203 Y23.698 Z-16.261
N1766 X-28.025 Y22.788 Z-16.27
N1767 X-21.822 Y22.059 Z-16.279
N1768 X-15.6 Y21.512 Z-16.287
N1769 X-9.366 Y21.146 Z-16.296
N1770 X-3.123 Y20.964 Z-16.305
N1771 X3.123 Z-16.314
N1772 X9.366 Y21.146 Z-16.323
N1773 X15.6 Y21.512 Z-16.332
N1774 X21.822 Y22.059 Z-16.341
N1775 X28.025 Y22.788 Z-16.35
N1776 X34.203 Y23.698 Z-16.359
N1777 X40.353 Y24.789 Z-16.368
N1778 X46.468 Y26.058 Z-16.377
N1779 X52.543 Y27.506 Z-16.386
N1780 X58.574 Y29.132 Z-16.395
N1781 X63.574 Y30.558 Z-16.402
N1782 X65.2 Y29.331 Z-16.405
N1783 Y4.268 Z-16.441
N1784 X65.134 Y3.109 Z-16.443
N1785 X64.937 Y1.965 Z-16.445
N1786 X64.611 Y.851 Z-16.446
N1787 X64.16 Y-.219 Z-16.448
N1788 X63.591 Y-1.23 Z-16.45
N1789 X49.855 Y-22.693 Z-16.486
N1790 X49.101 Y-23.723 Z-16.488
N1791 X48.225 Y-24.65 Z-16.49
N1792 X47.239 Y-25.461 Z-16.492
N1793 X46.16 Y-26.143 Z-16.493
N1794 X45.005 Y-26.684 Z-16.495
N1795 X43.791 Y-27.077 Z-16.497
N1796 X42.537 Y-27.315 Z-16.499
N1797 X41.264 Y-27.395 Z-16.501
N1798 X-41.264 Z-16.619
N1799 X-42.537 Y-27.315 Z-16.621
N1800 X-43.791 Y-27.077 Z-16.623
N1801 X-45.005 Y-26.684 Z-16.624
N1802 X-46.16 Y-26.143 Z-16.626
N1803 X-47.239 Y-25.461 Z-16.628
N1804 X-48.225 Y-24.65 Z-16.63
N1805 X-49.101 Y-23.723 Z-16.632
N1806 X-49.855 Y-22.693 Z-16.634
N1807 X-63.591 Y-1.23 Z-16.67
N1808 X-64.16 Y-.219 Z-16.672
N1809 X-64.611 Y.851 Z-16.674
N1810 X-64.937 Y1.965 Z-16.675
N1811 X-65.134 Y3.109 Z-16.677
N1812 X-65.2 Y4.268 Z-16.679
N1813 Y29.331 Z-16.714
N1814 X-63.574 Y30.558 Z-16.717
N1815 X-58.574 Y29.132 Z-16.725
N1816 X-52.543 Y27.507 Z-16.734
N1817 X-46.468 Y26.058 Z-16.743
N1818 X-40.353 Y24.789 Z-16.752
N1819 X-34.203 Y23.698 Z-16.761
N1820 X-28.025 Y22.788 Z-16.77
N1821 X-21.822 Y22.059 Z-16.779
N1822 X-15.6 Y21.512 Z-16.787
N1823 X-9.366 Y21.146 Z-16.796
N1824 X-3.123 Y20.964 Z-16.805
N1825 X3.123 Z-16.814
N1826 X9.366 Y21.146 Z-16.823
N1827 X15.6 Y21.512 Z-16.832
N1828 X21.822 Y22.059 Z-16.841
N1829 X28.025 Y22.788 Z-16.85
N1830 X34.203 Y23.698 Z-16.859
N1831 X40.353 Y24.789 Z-16.868
N1832 X46.468 Y26.058 Z-16.877
N1833 X52.543 Y27.506 Z-16.886
N1834 X58.574 Y29.132 Z-16.895
N1835 X63.574 Y30.558 Z-16.902
N1836 X65.2 Y29.331 Z-16.905
N1837 Y4.268 Z-16.941
N1838 X65.134 Y3.109 Z-16.943
N1839 X64.937 Y1.965 Z-16.945
N1840 X64.611 Y.851 Z-16.946
N1841 X64.16 Y-.219 Z-16.948
N1842 X63.591 Y-1.23 Z-16.95
N1843 X49.855 Y-22.693 Z-16.986
N1844 X49.101 Y-23.723 Z-16.988
N1845 X48.225 Y-24.65 Z-16.99
N1846 X47.239 Y-25.461 Z-16.992
N1847 X46.16 Y-26.143 Z-16.993
N1848 X45.005 Y-26.684 Z-16.995
N1849 X43.791 Y-27.077 Z-16.997
N1850 X42.537 Y-27.315 Z-16.999
N1851 X41.264 Y-27.395 Z-17.001
N1852 X-41.264 Z-17.119
N1853 X-42.537 Y-27.315 Z-17.121
N1854 X-43.791 Y-27.077 Z-17.123
N1855 X-45.005 Y-26.684 Z-17.124
N1856 X-46.16 Y-26.143 Z-17.126
N1857 X-47.239 Y-25.461 Z-17.128
N1858 X-48.225 Y-24.65 Z-17.13
N1859 X-49.101 Y-23.723 Z-17.132
N1860 X-49.855 Y-22.693 Z-17.134
N1861 X-63.591 Y-1.23 Z-17.17
N1862 X-64.16 Y-.219 Z-17.172
N1863 X-64.611 Y.851 Z-17.174
N1864 X-64.937 Y1.965 Z-17.175
N1865 X-65.134 Y3.109 Z-17.177
N1866 X-65.2 Y4.268 Z-17.179
N1867 Y29.331 Z-17.214
N1868 X-63.574 Y30.558 Z-17.217
N1869 X-58.574 Y29.132 Z-17.225
N1870 X-52.543 Y27.507 Z-17.234
N1871 X-46.468 Y26.058 Z-17.243
N1872 X-40.353 Y24.789 Z-17.252
N1873 X-34.203 Y23.698 Z-17.261
N1874 X-28.025 Y22.788 Z-17.27
N1875 X-21.822 Y22.059 Z-17.279
N1876 X-15.6 Y21.512 Z-17.287
N1877 X-9.366 Y21.146 Z-17.296
N1878 X-3.123 Y20.964 Z-17.305
N1879 X3.123 Z-17.314
N1880 X9.366 Y21.146 Z-17.323
N1881 X15.6 Y21.512 Z-17.332
N1882 X21.822 Y22.059 Z-17.341
N1883 X28.025 Y22.788 Z-17.35
N1884 X34.203 Y23.698 Z-17.359
N1885 X40.353 Y24.789 Z-17.368
N1886 X46.468 Y26.058 Z-17.377
N1887 X52.543 Y27.506 Z-17.386
N1888 X58.574 Y29.132 Z-17.395
N1889 X63.574 Y30.558 Z-17.402
N1890 X65.2 Y29.331 Z-17.405
N1891 Y4.268 Z-17.441
N1892 X65.134 Y3.109 Z-17.443
N1893 X64.937 Y1.965 Z-17.445
N1894 X64.611 Y.851 Z-17.446
N1895 X64.16 Y-.219 Z-17.448
N1896 X63.591 Y-1.23 Z-17.45
N1897 X49.855 Y-22.693 Z-17.486
N1898 X49.101 Y-23.723 Z-17.488
N1899 X48.225 Y-24.65 Z-17.49
N1900 X47.239 Y-25.461 Z-17.492
N1901 X46.16 Y-26.143 Z-17.493
N1902 X45.005 Y-26.684 Z-17.495
N1903 X43.791 Y-27.077 Z-17.497
N1904 X42.537 Y-27.315 Z-17.499
N1905 X41.264 Y-27.395 Z-17.501
N1906 X-41.264 Z-17.619
N1907 X-42.537 Y-27.315 Z-17.621
N1908 X-43.791 Y-27.077 Z-17.623
N1909 X-45.005 Y-26.684 Z-17.624
N1910 X-46.16 Y-26.143 Z-17.626
N1911 X-47.239 Y-25.461 Z-17.628
N1912 X-48.225 Y-24.65 Z-17.63
N1913 X-49.101 Y-23.723 Z-17.632
N1914 X-49.855 Y-22.693 Z-17.634
N1915 X-63.591 Y-1.23 Z-17.67
N1916 X-64.16 Y-.219 Z-17.672
N1917 X-64.611 Y.851 Z-17.674
N1918 X-64.937 Y1.965 Z-17.675
N1919 X-65.134 Y3.109 Z-17.677
N1920 X-65.2 Y4.268 Z-17.679
N1921 Y29.331 Z-17.714
N1922 X-63.574 Y30.558 Z-17.717
N1923 X-58.574 Y29.132 Z-17.725
N1924 X-52.543 Y27.507 Z-17.734
N1925 X-46.468 Y26.058 Z-17.743
N1926 X-40.353 Y24.789 Z-17.752
N1927 X-34.203 Y23.698 Z-17.761
N1928 X-28.025 Y22.788 Z-17.77
N1929 X-21.822 Y22.059 Z-17.779
N1930 X-15.6 Y21.512 Z-17.787
N1931 X-9.366 Y21.146 Z-17.796
N1932 X-3.123 Y20.964 Z-17.805
N1933 X3.123 Z-17.814
N1934 X9.366 Y21.146 Z-17.823
N1935 X15.6 Y21.512 Z-17.832
N1936 X21.822 Y22.059 Z-17.841
N1937 X28.025 Y22.788 Z-17.85
N1938 X34.203 Y23.698 Z-17.859
N1939 X40.353 Y24.789 Z-17.868
N1940 X46.468 Y26.058 Z-17.877
N1941 X52.543 Y27.506 Z-17.886
N1942 X58.574 Y29.132 Z-17.895
N1943 X63.574 Y30.558 Z-17.902
N1944 X65.2 Y29.331 Z-17.905
N1945 Y4.268 Z-17.941
N1946 X65.134 Y3.109 Z-17.943
N1947 X64.937 Y1.965 Z-17.945
N1948 X64.611 Y.851 Z-17.946
N1949 X64.16 Y-.219 Z-17.948
N1950 X63.591 Y-1.23 Z-17.95
N1951 X49.855 Y-22.693 Z-17.986
N1952 X49.101 Y-23.723 Z-17.988
N1953 X48.225 Y-24.65 Z-17.99
N1954 X47.239 Y-25.461 Z-17.992
N1955 X46.16 Y-26.143 Z-17.993
N1956 X45.005 Y-26.684 Z-17.995
N1957 X43.791 Y-27.077 Z-17.997
N1958 X42.537 Y-27.315 Z-17.999
N1959 X41.264 Y-27.395 Z-18.001
N1960 X-41.264 Z-18.119
N1961 X-42.537 Y-27.315 Z-18.121
N1962 X-43.791 Y-27.077 Z-18.123
N1963 X-45.005 Y-26.684 Z-18.124
N1964 X-46.16 Y-26.143 Z-18.126
N1965 X-47.239 Y-25.461 Z-18.128
N1966 X-48.225 Y-24.65 Z-18.13
N1967 X-49.101 Y-23.723 Z-18.132
N1968 X-49.855 Y-22.693 Z-18.134
N1969 X-63.591 Y-1.23 Z-18.17
N1970 X-64.16 Y-.219 Z-18.172
N1971 X-64.611 Y.851 Z-18.174
N1972 X-64.937 Y1.965 Z-18.175
N1973 X-65.134 Y3.109 Z-18.177
N1974 X-65.2 Y4.268 Z-18.179
N1975 Y29.331 Z-18.214
N1976 X-63.574 Y30.558 Z-18.217
N1977 X-58.574 Y29.132 Z-18.225
N1978 X-52.543 Y27.507 Z-18.234
N1979 X-46.468 Y26.058 Z-18.243
N1980 X-40.353 Y24.789 Z-18.252
N1981 X-34.203 Y23.698 Z-18.261
N1982 X-28.025 Y22.788 Z-18.27
N1983 X-21.822 Y22.059 Z-18.279
N1984 X-15.6 Y21.512 Z-18.287
N1985 X-9.366 Y21.146 Z-18.296
N1986 X-3.123 Y20.964 Z-18.305
N1987 X3.123 Z-18.314
N1988 X9.366 Y21.146 Z-18.323
N1989 X15.6 Y21.512 Z-18.332
N1990 X21.822 Y22.059 Z-18.341
N1991 X28.025 Y22.788 Z-18.35
N1992 X34.203 Y23.698 Z-18.359
N1993 X40.353 Y24.789 Z-18.368
N1994 X46.468 Y26.058 Z-18.377
N1995 X52.543 Y27.506 Z-18.386
N1996 X58.574 Y29.132 Z-18.395
N1997 X63.574 Y30.558 Z-18.402
N1998 X65.2 Y29.331 Z-18.405
N1999 Y4.268 Z-18.441
N2000 X65.134 Y3.109 Z-18.443
N2001 X64.937 Y1.965 Z-18.445
N2002 X64.611 Y.851 Z-18.446
N2003 X64.16 Y-.219 Z-18.448
N2004 X63.591 Y-1.23 Z-18.45
N2005 X49.855 Y-22.693 Z-18.486
N2006 X49.101 Y-23.723 Z-18.488
N2007 X48.225 Y-24.65 Z-18.49
N2008 X47.239 Y-25.461 Z-18.492
N2009 X46.16 Y-26.143 Z-18.493
N2010 X45.005 Y-26.684 Z-18.495
N2011 X43.791 Y-27.077 Z-18.497
N2012 X42.537 Y-27.315 Z-18.499
N2013 X41.264 Y-27.395 Z-18.501
N2014 X-41.264 Z-18.619
N2015 X-42.537 Y-27.315 Z-18.621
N2016 X-43.791 Y-27.077 Z-18.623
N2017 X-45.005 Y-26.684 Z-18.624
N2018 X-46.16 Y-26.143 Z-18.626
N2019 X-47.239 Y-25.461 Z-18.628
N2020 X-48.225 Y-24.65 Z-18.63
N2021 X-49.101 Y-23.723 Z-18.632
N2022 X-49.855 Y-22.693 Z-18.634
N2023 X-63.591 Y-1.23 Z-18.67
N2024 X-64.16 Y-.219 Z-18.672
N2025 X-64.611 Y.851 Z-18.674
N2026 X-64.937 Y1.965 Z-18.675
N2027 X-65.134 Y3.109 Z-18.677
N2028 X-65.2 Y4.268 Z-18.679
N2029 Y29.331 Z-18.714
N2030 X-63.574 Y30.558 Z-18.717
N2031 X-58.574 Y29.132 Z-18.725
N2032 X-52.543 Y27.507 Z-18.734
N2033 X-46.468 Y26.058 Z-18.743
N2034 X-40.353 Y24.789 Z-18.752
N2035 X-34.203 Y23.698 Z-18.761
N2036 X-28.025 Y22.788 Z-18.77
N2037 X-21.822 Y22.059 Z-18.779
N2038 X-15.6 Y21.512 Z-18.787
N2039 X-9.366 Y21.146 Z-18.796
N2040 X-3.123 Y20.964 Z-18.805
N2041 X3.123 Z-18.814
N2042 X9.366 Y21.146 Z-18.823
N2043 X15.6 Y21.512 Z-18.832
N2044 X21.822 Y22.059 Z-18.841
N2045 X28.025 Y22.788 Z-18.85
N2046 X34.203 Y23.698 Z-18.859
N2047 X40.353 Y24.789 Z-18.868
N2048 X46.468 Y26.058 Z-18.877
N2049 X52.543 Y27.506 Z-18.886
N2050 X58.574 Y29.132 Z-18.895
N2051 X63.574 Y30.558 Z-18.902
N2052 X65.2 Y29.331 Z-18.905
N2053 Y4.268 Z-18.941
N2054 X65.134 Y3.109 Z-18.943
N2055 X64.937 Y1.965 Z-18.945
N2056 X64.611 Y.851 Z-18.946
N2057 X64.16 Y-.219 Z-18.948
N2058 X63.591 Y-1.23 Z-18.95
N2059 X49.855 Y-22.693 Z-18.986
N2060 X49.101 Y-23.723 Z-18.988
N2061 X48.225 Y-24.65 Z-18.99
N2062 X47.239 Y-25.461 Z-18.992
N2063 X46.16 Y-26.143 Z-18.993
N2064 X45.005 Y-26.684 Z-18.995
N2065 X43.791 Y-27.077 Z-18.997
N2066 X42.537 Y-27.315 Z-18.999
N2067 X41.264 Y-27.395 Z-19.001
N2068 X-41.264
N2069 G02 X-49.855 Y-22.693 CR=10.2
N2070 G01 X-63.591 Y-1.23
N2071 G02 X-65.2 Y4.268 CR=10.2
N2072 G01 Y29.331
N2073 X-63.574 Y30.558
N2074 X-58.574 Y29.132
N2075 G03 X58.574 CR=213.532
N2076 G01 X63.574 Y30.558
N2077 X65.2 Y29.331
N2078 Y4.268
N2079 G02 X63.591 Y-1.23 CR=10.2
N2080 G01 X49.855 Y-22.693
N2081 G02 X41.264 Y-27.395 CR=10.2
N2082 G01 X40.264
N2083 G03 X39.557 Y-27.688 CR=1.
N2084 G40 G01 X35.88 Y-31.365
N2085 G00 Z.5
N2086 Z25.
N2087 M05
N2088 M09

N2089 M01
N2090 T12 D12
N2091 L6
N2092 MSG("12MM CRB 2FL 25 LOC")
N2093 S2000 M03
N2094 G00 G90 X48.21 Y-32.292
N2095 Z25. M08
N2096 Z2.999
N2097 G01 Z-19.001 F300.
N2098 G41 X43.343 Y-28.387 F225.
N2099 G03 X42.461 Y-28.13 CR=1.2
N2100 G02 X41.264 Y-28.195 CR=11. F300.
N2101 G01 X-41.264
N2102 G02 X-50.529 Y-23.125 CR=11.
N2103 G01 X-64.265 Y-1.662
N2104 G02 X-66. Y4.268 CR=11.
N2105 G01 Y30.131
N2106 X-64.124 Y31.547
N2107 X-58.354 Y29.901
N2108 G03 X58.354 CR=212.732
N2109 G01 X64.124 Y31.547
N2110 X66. Y30.131
N2111 Y4.268
N2112 G02 X64.265 Y-1.662 CR=11.
N2113 G01 X50.529 Y-23.125
N2114 G02 X41.264 Y-28.195 CR=11.
N2115 G01 X40.064
N2116 G03 X39.215 Y-28.546 CR=1.2
N2117 G40 G01 X34.803 Y-32.959
N2118 G00 Z2.999
N2119 Z25.
N2120 M05
N2121 M09
N2122 M30
