190918-2S.MPF
;This Post Processor is distributed on an "AS IS" BASIS,
;WITHOUT WARRANTIES OR CONDITIONS OF ANY KIND, either express or implied.
N1 T10 D10
N2 L6
N3 MSG("10MM CRB 2FL 22 LOC")
N4 G60
N5 G64
N6 SOFT
N7 G00 G17 G90 G54
N8 S2500 M03
N9 G00 G90 X7.715 Y-1.
N10 Z71.326 M08
N11 Z49.902
N12 G01 Z47.402 F600.
N13 X51. Z45.929
N14 X51.707 Y-.707 Z45.902
N15 X51.924 Y-.383 F1500.
N16 X52. Y0
N17 X51.866 Y.5
N18 X51.5 Y.866
N19 X51. Y1.
N20 X-51.
N21 X-51.5 Y.866
N22 X-51.866 Y.5
N23 X-52. Y0
N24 X-51.866 Y-.5
N25 X-51.5 Y-.866
N26 X-51. Y-1.
N27 X0
N28 X51.
N29 X51.383 Y-.924
N30 X51.707 Y-.707
N31 X52.014 Y-.563
N32 X52.342 Y-.647
N33 X52.925 Y-1.044
N34 X53.242 Y-1.13
N35 X53.543 Y-1.
N36 X53.7 Y-.712
N37 X53.732 Y-.318
N38 Y.318
N39 X53.549 Y1.242
N40 X53.025 Y2.025
N41 X52.242 Y2.549
N42 X51.318 Y2.732
N43 X-51.318
N44 X-52.242 Y2.549
N45 X-53.025 Y2.025
N46 X-53.549 Y1.242
N47 X-53.732 Y.318
N48 Y-.318
N49 X-53.549 Y-1.242
N50 X-53.025 Y-2.025
N51 X-52.242 Y-2.549
N52 X-51.318 Y-2.732
N53 X0
N54 X51.318
N55 X52.15 Y-2.585
N56 X52.88 Y-2.159
N57 X53.418 Y-1.509
N58 X53.7 Y-.712
N59 X53.827 Y-.453
N60 X54.077 Y-.308
N61 X56.617 Y.301
N62 X56.893 Y.478
N63 X57. Y.788
N64 Y3.586
N65 X56.816 Y4.51
N66 X56.293 Y5.293
N67 X55.51 Y5.816
N68 X54.586 Y6.
N69 X-54.586
N70 X-55.51 Y5.816
N71 X-56.293 Y5.293
N72 X-56.816 Y4.51
N73 X-57. Y3.586
N74 Y-3.586
N75 X-56.816 Y-4.51
N76 X-56.293 Y-5.293
N77 X-55.51 Y-5.816
N78 X-54.586 Y-6.
N79 X0
N80 X54.586
N81 X55.51 Y-5.816
N82 X56.293 Y-5.293
N83 X56.816 Y-4.51
N84 X57. Y-3.586
N85 Y.788
N86 X57.112 Y1.103
N87 X57.397 Y1.277
N88 X59.871 Y1.798
N89 X60.156 Y1.973
N90 X60.268 Y2.288
N91 Y6.414
N92 X60.128 Y7.296
N93 X59.723 Y8.092
N94 X59.092 Y8.723
N95 X58.296 Y9.128
N96 X57.415 Y9.268
N97 X-57.415
N98 X-58.296 Y9.128
N99 X-59.092 Y8.723
N100 X-59.723 Y8.092
N101 X-60.128 Y7.296
N102 X-60.268 Y6.415
N103 Y-6.415
N104 X-60.128 Y-7.296
N105 X-59.723 Y-8.092
N106 X-59.092 Y-8.723
N107 X-58.296 Y-9.128
N108 X-57.415 Y-9.268
N109 X0
N110 X57.415
N111 X58.296 Y-9.128
N112 X59.092 Y-8.723
N113 X59.723 Y-8.092
N114 X60.128 Y-7.296
N115 X60.268 Y-6.414
N116 Y2.288
N117 X60.385 Y2.609
N118 X60.681 Y2.78
N119 X63.587 Y3.295
N120 X63.883 Y3.466
N121 X64. Y3.788
N122 Y8.732
N123 X63.842 Y10.02
N124 X63.816 Y10.128
N125 X63.609 Y10.705
N126 X63.562 Y10.802
N127 X63.211 Y11.36
N128 X63.124 Y11.465
N129 X62.215 Y12.288
N130 X62.097 Y12.367
N131 X61.323 Y12.743
N132 X61.241 Y12.774
N133 X60.785 Y12.903
N134 X60.678 Y12.921
N135 X59.304 Y13.
N136 X-59.304
N137 X-60.678 Y12.921
N138 X-60.785 Y12.903
N139 X-61.241 Y12.774
N140 X-61.323 Y12.743
N141 X-62.097 Y12.367
N142 X-62.215 Y12.288
N143 X-63.124 Y11.465
N144 X-63.211 Y11.36
N145 X-63.562 Y10.802
N146 X-63.609 Y10.705
N147 X-63.816 Y10.128
N148 X-63.842 Y10.02
N149 X-64. Y8.732
N150 Y-8.732
N151 X-63.842 Y-10.02
N152 X-63.816 Y-10.128
N153 X-63.609 Y-10.705
N154 X-63.562 Y-10.802
N155 X-63.211 Y-11.36
N156 X-63.124 Y-11.465
N157 X-62.215 Y-12.288
N158 X-62.097 Y-12.367
N159 X-61.323 Y-12.743
N160 X-61.241 Y-12.774
N161 X-60.785 Y-12.903
N162 X-60.678 Y-12.921
N163 X-59.304 Y-13.
N164 X0
N165 X59.304
N166 X60.678 Y-12.921
N167 X60.785 Y-12.903
N168 X61.241 Y-12.774
N169 X61.323 Y-12.743
N170 X62.097 Y-12.367
N171 X62.215 Y-12.288
N172 X63.124 Y-11.465
N173 X63.211 Y-11.36
N174 X63.562 Y-10.802
N175 X63.609 Y-10.705
N176 X63.816 Y-10.128
N177 X63.842 Y-10.02
N178 X64. Y-8.732
N179 Y3.788
N180 X63.826 Y4.167
N181 X63.424 Y4.282
N182 X35.535 Y-.006
N183 X35.22 Y-.189
N184 X35.113 Y-.538
N185 X35.272 Y-.867
N186 X35.611 Y-1.
N187 X51. Z45.456 F600.
N188 X51.707 Y-.707 Z45.433
N189 X52. Y0 Z45.411
N190 X51.96 Y.28 Z45.402
N191 X51.757 Y.654 F1500.
N192 X51.416 Y.91
N193 X51. Y1.
N194 X-51.
N195 X-51.5 Y.866
N196 X-51.866 Y.5
N197 X-52. Y0
N198 X-51.866 Y-.5
N199 X-51.5 Y-.866
N200 X-51. Y-1.
N201 X0
N202 X51.
N203 X51.5 Y-.866
N204 X51.866 Y-.5
N205 X52. Y0
N206 X51.96 Y.28
N207 X51.97 Y.588
N208 X52.158 Y.832
N209 X52.454 Y.919
N210 X52.878 Y.908
N211 X53.217 Y1.027
N212 X53.388 Y1.343
N213 X53.303 Y1.692
N214 X52.767 Y2.249
N215 X52.082 Y2.608
N216 X51.318 Y2.732
N217 X-51.318
N218 X-52.242 Y2.549
N219 X-53.025 Y2.025
N220 X-53.549 Y1.242
N221 X-53.732 Y.318
N222 Y-.318
N223 X-53.549 Y-1.242
N224 X-53.025 Y-2.025
N225 X-52.242 Y-2.549
N226 X-51.318 Y-2.732
N227 X0
N228 X51.318
N229 X52.242 Y-2.549
N230 X53.025 Y-2.025
N231 X53.549 Y-1.242
N232 X53.732 Y-.318
N233 Y.318
N234 X53.623 Y1.038
N235 X53.303 Y1.692
N236 X53.217 Y2.024
N237 X53.364 Y2.333
N238 X53.676 Y2.475
N239 X56.538 Y2.694
N240 X56.867 Y2.852
N241 X57. Y3.192
N242 Y3.586
N243 X56.816 Y4.51
N244 X56.293 Y5.293
N245 X55.51 Y5.816
N246 X54.586 Y6.
N247 X-54.586
N248 X-55.51 Y5.816
N249 X-56.293 Y5.293
N250 X-56.816 Y4.51
N251 X-57. Y3.586
N252 Y-3.586
N253 X-56.816 Y-4.51
N254 X-56.293 Y-5.293
N255 X-55.51 Y-5.816
N256 X-54.586 Y-6.
N257 X0
N258 X54.586
N259 X55.51 Y-5.816
N260 X56.293 Y-5.293
N261 X56.816 Y-4.51
N262 X57. Y-3.586
N263 Y3.192
N264 X57.112 Y3.507
N265 X57.397 Y3.681
N266 X59.871 Y4.203
N267 X60.156 Y4.377
N268 X60.268 Y4.692
N269 Y6.414
N270 X60.128 Y7.296
N271 X59.723 Y8.092
N272 X59.092 Y8.723
N273 X58.296 Y9.128
N274 X57.415 Y9.268
N275 X-57.415
N276 X-58.296 Y9.128
N277 X-59.092 Y8.723
N278 X-59.723 Y8.092
N279 X-60.128 Y7.296
N280 X-60.268 Y6.415
N281 Y-6.415
N282 X-60.128 Y-7.296
N283 X-59.723 Y-8.092
N284 X-59.092 Y-8.723
N285 X-58.296 Y-9.128
N286 X-57.415 Y-9.268
N287 X0
N288 X57.415
N289 X58.296 Y-9.128
N290 X59.092 Y-8.723
N291 X59.723 Y-8.092
N292 X60.128 Y-7.296
N293 X60.268 Y-6.414
N294 Y4.692
N295 X60.385 Y5.013
N296 X60.681 Y5.184
N297 X63.587 Y5.7
N298 X63.883 Y5.871
N299 X64. Y6.192
N300 Y8.732
N301 X63.842 Y10.02
N302 X63.816 Y10.128
N303 X63.609 Y10.705
N304 X63.562 Y10.802
N305 X63.211 Y11.36
N306 X63.124 Y11.465
N307 X62.215 Y12.288
N308 X62.097 Y12.367
N309 X61.323 Y12.743
N310 X61.241 Y12.774
N311 X60.785 Y12.903
N312 X60.678 Y12.921
N313 X59.304 Y13.
N314 X-59.304
N315 X-60.678 Y12.921
N316 X-60.785 Y12.903
N317 X-61.241 Y12.774
N318 X-61.323 Y12.743
N319 X-62.097 Y12.367
N320 X-62.215 Y12.288
N321 X-63.124 Y11.465
N322 X-63.211 Y11.36
N323 X-63.562 Y10.802
N324 X-63.609 Y10.705
N325 X-63.816 Y10.128
N326 X-63.842 Y10.02
N327 X-64. Y8.732
N328 Y-8.732
N329 X-63.842 Y-10.02
N330 X-63.816 Y-10.128
N331 X-63.609 Y-10.705
N332 X-63.562 Y-10.802
N333 X-63.211 Y-11.36
N334 X-63.124 Y-11.465
N335 X-62.215 Y-12.288
N336 X-62.097 Y-12.367
N337 X-61.323 Y-12.743
N338 X-61.241 Y-12.774
N339 X-60.785 Y-12.903
N340 X-60.678 Y-12.921
N341 X-59.304 Y-13.
N342 X0
N343 X59.304
N344 X60.678 Y-12.921
N345 X60.785 Y-12.903
N346 X61.241 Y-12.774
N347 X61.323 Y-12.743
N348 X62.097 Y-12.367
N349 X62.215 Y-12.288
N350 X63.124 Y-11.465
N351 X63.211 Y-11.36
N352 X63.562 Y-10.802
N353 X63.609 Y-10.705
N354 X63.816 Y-10.128
N355 X63.842 Y-10.02
N356 X64. Y-8.732
N357 Y6.192
N358 X63.912 Y6.475
N359 X63.679 Y6.659
N360 X63.383 Y6.678
N361 X35.476 Y-.014
N362 X35.182 Y-.214
N363 X35.096 Y-.559
N364 X35.26 Y-.874
N365 X35.592 Y-1.
N366 X51. Z44.96 F600.
N367 X51.707 Y-.707 Z44.938
N368 X52. Y0 Z44.915
N369 X51.903 Y.43 Z44.902
N370 X51.534 Y.846 F1500.
N371 X51. Y1.
N372 X-51.
N373 X-51.5 Y.866
N374 X-51.866 Y.5
N375 X-52. Y0
N376 X-51.866 Y-.5
N377 X-51.5 Y-.866
N378 X-51. Y-1.
N379 X0
N380 X51.
N381 X51.5 Y-.866
N382 X51.866 Y-.5
N383 X52. Y0
N384 X51.903 Y.43
N385 X51.862 Y.731
N386 X52.003 Y1.
N387 X52.273 Y1.138
N388 X52.719 Y1.212
N389 X53.03 Y1.396
N390 X53.136 Y1.741
N391 X52.982 Y2.068
N392 X52.214 Y2.56
N393 X51.318 Y2.732
N394 X-51.318
N395 X-52.242 Y2.549
N396 X-53.025 Y2.025
N397 X-53.549 Y1.242
N398 X-53.732 Y.318
N399 Y-.318
N400 X-53.549 Y-1.242
N401 X-53.025 Y-2.025
N402 X-52.242 Y-2.549
N403 X-51.318 Y-2.732
N404 X0
N405 X51.318
N406 X52.242 Y-2.549
N407 X53.025 Y-2.025
N408 X53.549 Y-1.242
N409 X53.732 Y-.318
N410 Y.318
N411 X53.537 Y1.27
N412 X52.982 Y2.068
N413 X52.843 Y2.302
N414 X51.965 Y5.628
N415 X51.787 Y5.896
N416 X51.482 Y6.
N417 X-54.586
N418 X-55.51 Y5.816
N419 X-56.293 Y5.293
N420 X-56.816 Y4.51
N421 X-57. Y3.586
N422 Y-3.586
N423 X-56.816 Y-4.51
N424 X-56.293 Y-5.293
N425 X-55.51 Y-5.816
N426 X-54.586 Y-6.
N427 X0
N428 X54.586
N429 X55.51 Y-5.816
N430 X56.293 Y-5.293
N431 X56.816 Y-4.51
N432 X57. Y-3.586
N433 Y3.586
N434 X56.816 Y4.51
N435 X56.293 Y5.293
N436 X55.51 Y5.816
N437 X54.586 Y6.
N438 X51.482
N439 X51.167 Y6.112
N440 X50.992 Y6.397
N441 X50.471 Y8.871
N442 X50.297 Y9.156
N443 X49.982 Y9.268
N444 X-57.415
N445 X-58.296 Y9.128
N446 X-59.092 Y8.723
N447 X-59.723 Y8.092
N448 X-60.128 Y7.296
N449 X-60.268 Y6.415
N450 Y-6.415
N451 X-60.128 Y-7.296
N452 X-59.723 Y-8.092
N453 X-59.092 Y-8.723
N454 X-58.296 Y-9.128
N455 X-57.415 Y-9.268
N456 X0
N457 X57.415
N458 X58.296 Y-9.128
N459 X59.092 Y-8.723
N460 X59.723 Y-8.092
N461 X60.128 Y-7.296
N462 X60.268 Y-6.414
N463 Y6.414
N464 X60.128 Y7.296
N465 X59.723 Y8.092
N466 X59.092 Y8.723
N467 X58.296 Y9.128
N468 X57.415 Y9.268
N469 X49.982
N470 X49.66 Y9.385
N471 X49.489 Y9.681
N472 X48.974 Y12.587
N473 X48.803 Y12.883
N474 X48.482 Y13.
N475 X-59.304
N476 X-60.678 Y12.921
N477 X-60.785 Y12.903
N478 X-61.241 Y12.774
N479 X-61.323 Y12.743
N480 X-62.097 Y12.367
N481 X-62.215 Y12.288
N482 X-63.124 Y11.465
N483 X-63.211 Y11.36
N484 X-63.562 Y10.802
N485 X-63.609 Y10.705
N486 X-63.816 Y10.128
N487 X-63.842 Y10.02
N488 X-64. Y8.732
N489 Y-8.732
N490 X-63.842 Y-10.02
N491 X-63.816 Y-10.128
N492 X-63.609 Y-10.705
N493 X-63.562 Y-10.802
N494 X-63.211 Y-11.36
N495 X-63.124 Y-11.465
N496 X-62.215 Y-12.288
N497 X-62.097 Y-12.367
N498 X-61.323 Y-12.743
N499 X-61.241 Y-12.774
N500 X-60.785 Y-12.903
N501 X-60.678 Y-12.921
N502 X-59.304 Y-13.
N503 X0
N504 X59.304
N505 X60.678 Y-12.921
N506 X60.785 Y-12.903
N507 X61.241 Y-12.774
N508 X61.323 Y-12.743
N509 X62.097 Y-12.367
N510 X62.215 Y-12.288
N511 X63.124 Y-11.465
N512 X63.211 Y-11.36
N513 X63.562 Y-10.802
N514 X63.609 Y-10.705
N515 X63.816 Y-10.128
N516 X63.842 Y-10.02
N517 X64. Y-8.732
N518 Y8.732
N519 X63.842 Y10.02
N520 X63.816 Y10.128
N521 X63.609 Y10.705
N522 X63.562 Y10.802
N523 X63.211 Y11.36
N524 X63.124 Y11.465
N525 X62.215 Y12.288
N526 X62.097 Y12.367
N527 X61.323 Y12.743
N528 X61.241 Y12.774
N529 X60.785 Y12.903
N530 X60.678 Y12.921
N531 X59.304 Y13.
N532 X48.482
N533 X48.209 Y12.919
N534 X26.14 Y-1.459
N535 X25.917 Y-1.809
N536 X26.035 Y-2.206
N537 X26.413 Y-2.378
N538 X42.367 Z44.531 F600.
N539 X42.891 Y-2.179 Z44.518
N540 X43.151 Y-1.683 Z44.505
N541 X43.017 Y-1.139 Z44.491
N542 X41.51 Y1.181 Z44.427
N543 X40.804 Y1.952 Z44.402
N544 X40.158 Y2.269 F1500.
N545 X39.447 Y2.378
N546 X-39.486
N547 X-40.329 Y2.223
N548 X-41.062 Y1.78
N549 X-41.591 Y1.106
N550 X-43.015 Y-1.149
N551 X-43.145 Y-1.55
N552 X-43.051 Y-1.961
N553 X-42.76 Y-2.266
N554 X-42.354 Y-2.378
N555 X-.019
N556 X42.367
N557 X42.776 Y-2.264
N558 X43.067 Y-1.955
N559 X43.156 Y-1.54
N560 X43.017 Y-1.139
N561 X41.51 Y1.181
N562 X41.2 Y1.606
N563 X40.804 Y1.952
N564 X40.609 Y2.222
N565 X40.627 Y2.554
N566 X41.26 Y4.082
N567 X41.252 Y4.485
N568 X40.949 Y4.75
N569 X40.207 Y4.924
N570 X39.447 Y4.982
N571 X-39.486
N572 X-40.823 Y4.799
N573 X-42.063 Y4.264
N574 X-43.113 Y3.416
N575 X-43.897 Y2.317
N576 X-45.188 Y.287
N577 X-46.112 Y-.862
N578 X-47.183 Y-1.876
N579 X-49.198 Y-3.415
N580 X-51.501 Y-4.546
N581 X-51.631 Y-4.698
N582 X-51.59 Y-4.894
N583 X-51.41 Y-4.982
N584 X-.019
N585 X51.408
N586 X51.588 Y-4.894
N587 X51.629 Y-4.698
N588 X51.499 Y-4.545
N589 X49.205 Y-3.421
N590 X47.666 Y-2.276
N591 X46.237 Y-.995
N592 X44.914 Y.676
N593 X43.771 Y2.475
N594 X43.03 Y3.461
N595 X42.07 Y4.236
N596 X40.949 Y4.75
N597 X40.638 Y5.036
N598 X39.911 Y6.791
N599 X39.727 Y7.016
N600 X39.449 Y7.1
N601 X-41.41
N602 X-42.574 Y6.929
N603 X-43.64 Y6.431
N604 X-44.518 Y5.648
N605 X-45.134 Y4.646
N606 X-45.308 Y4.239
N607 X-46.344 Y2.354
N608 X-47.619 Y.621
N609 X-48.685 Y-.369
N610 X-49.828 Y-1.268
N611 X-50.259 Y-1.579
N612 X-51.43 Y-2.206
N613 X-52.648 Y-2.736
N614 X-53.475 Y-3.027
N615 X-54.335 Y-3.193
N616 X-56.171 Y-3.392
N617 X-56.864 Y-3.562
N618 X-57.442 Y-3.98
N619 X-57.819 Y-4.585
N620 X-57.94 Y-5.288
N621 X-57.786 Y-5.985
N622 X-57.382 Y-6.572
N623 X-56.785 Y-6.963
N624 X-56.085 Y-7.1
N625 X-.019
N626 X56.085
N627 X56.785 Y-6.963
N628 X57.381 Y-6.572
N629 X57.786 Y-5.985
N630 X57.94 Y-5.289
N631 X57.819 Y-4.586
N632 X57.442 Y-3.98
N633 X56.864 Y-3.562
N634 X56.172 Y-3.393
N635 X54.335 Y-3.193
N636 X53.475 Y-3.028
N637 X52.649 Y-2.737
N638 X51.22 Y-2.111
N639 X49.826 Y-1.268
N640 X48.498 Y-.216
N641 X47.801 Y.433
N642 X47.535 Y.725
N643 X45.849 Y3.109
N644 X45.297 Y4.157
N645 X45.095 Y4.634
N646 X44.482 Y5.641
N647 X43.605 Y6.428
N648 X42.539 Y6.928
N649 X41.373 Y7.1
N650 X39.449
N651 X39.136 Y7.21
N652 X38.961 Y7.492
N653 X38.437 Y9.85
N654 X38.262 Y10.132
N655 X37.949 Y10.242
N656 X-45.094
N657 X-45.9 Y10.098
N658 X-46.607 Y9.686
N659 X-47.129 Y9.055
N660 X-47.401 Y8.283
N661 X-47.842 Y6.301
N662 X-48.271 Y5.317
N663 X-48.881 Y4.224
N664 X-49.578 Y3.183
N665 X-50.447 Y2.248
N666 X-51.777 Y1.195
N667 X-52.48 Y.768
N668 X-53.909 Y.141
N669 X-54.698 Y-.072
N670 X-56.127 Y-.239
N671 X-56.834 Y-.23
N672 X-58.264 Y-.026
N673 X-59.726 Y.436
N674 X-60.261 Y.491
N675 X-60.761 Y.294
N676 X-61.114 Y-.111
N677 X-61.242 Y-.633
N678 Y-6.462
N679 X-61.057 Y-7.63
N680 X-60.52 Y-8.683
N681 X-59.683 Y-9.52
N682 X-58.63 Y-10.057
N683 X-57.462 Y-10.242
N684 X-.019
N685 X57.462
N686 X58.63 Y-10.057
N687 X59.683 Y-9.52
N688 X60.52 Y-8.683
N689 X61.057 Y-7.63
N690 X61.242 Y-6.462
N691 Y-.651
N692 X61.114 Y-.126
N693 X60.76 Y.282
N694 X60.258 Y.481
N695 X59.72 Y.428
N696 X58.263 Y-.027
N697 X56.834 Y-.23
N698 X56.127 Y-.239
N699 X54.698 Y-.073
N700 X53.91 Y.14
N701 X51.98 Y1.049
N702 X50.121 Y2.55
N703 X49.622 Y3.136
N704 X48.695 Y4.479
N705 X48.199 Y5.374
N706 X47.795 Y6.313
N707 X47.362 Y8.283
N708 X47.089 Y9.055
N709 X46.567 Y9.686
N710 X45.859 Y10.098
N711 X45.053 Y10.242
N712 X37.949
N713 X37.644 Y10.345
N714 X37.466 Y10.614
N715 X36.932 Y12.628
N716 X36.754 Y12.896
N717 X36.449 Y13.
N718 X-50.673
N719 X-50.785 Y12.987
N720 X-51.584 Y12.803
N721 X-51.668 Y12.729
N722 X-51.65 Y12.618
N723 X-50.725 Y11.419
N724 X-50.23 Y10.075
N725 X-50.123 Y8.732
N726 X-50.377 Y7.389
N727 X-50.73 Y6.566
N728 X-50.995 Y6.045
N729 X-51.881 Y4.702
N730 X-52.159 Y4.411
N731 X-53.489 Y3.358
N732 X-53.588 Y3.294
N733 X-55.017 Y2.667
N734 X-56.446 Y2.501
N735 X-57.875 Y2.705
N736 X-59.304 Y3.214
N737 X-59.556 Y3.358
N738 X-60.733 Y4.315
N739 X-61.079 Y4.702
N740 X-62.014 Y6.045
N741 X-62.162 Y6.338
N742 X-62.632 Y7.389
N743 X-62.886 Y8.732
N744 X-62.778 Y10.075
N745 X-62.283 Y11.419
N746 X-62.162 Y11.632
N747 X-61.329 Y12.659
N748 X-61.375 Y12.718
N749 X-62.099 Y12.367
N750 X-62.214 Y12.289
N751 X-63.131 Y11.458
N752 X-63.206 Y11.369
N753 X-63.562 Y10.802
N754 X-63.609 Y10.705
N755 X-63.816 Y10.128
N756 X-63.842 Y10.02
N757 X-64. Y8.732
N758 Y-8.732
N759 X-63.842 Y-10.02
N760 X-63.816 Y-10.128
N761 X-63.609 Y-10.705
N762 X-63.562 Y-10.802
N763 X-63.211 Y-11.36
N764 X-63.124 Y-11.465
N765 X-62.215 Y-12.288
N766 X-62.097 Y-12.367
N767 X-61.323 Y-12.743
N768 X-61.241 Y-12.774
N769 X-60.785 Y-12.903
N770 X-60.678 Y-12.921
N771 X-59.304 Y-13.
N772 X59.304
N773 X60.678 Y-12.921
N774 X60.785 Y-12.903
N775 X61.241 Y-12.774
N776 X61.323 Y-12.743
N777 X62.097 Y-12.367
N778 X62.215 Y-12.288
N779 X63.124 Y-11.465
N780 X63.211 Y-11.36
N781 X63.562 Y-10.802
N782 X63.609 Y-10.705
N783 X63.816 Y-10.128
N784 X63.842 Y-10.02
N785 X64. Y-8.732
N786 Y8.732
N787 X63.842 Y10.02
N788 X63.816 Y10.128
N789 X63.609 Y10.705
N790 X63.562 Y10.802
N791 X63.206 Y11.369
N792 X63.131 Y11.458
N793 X62.732 Y11.82
N794 X62.215 Y12.288
N795 X62.097 Y12.367
N796 X61.38 Y12.715
N797 X61.336 Y12.66
N798 X62.162 Y11.633
N799 X62.283 Y11.419
N800 X62.775 Y10.075
N801 X62.882 Y8.732
N802 X62.629 Y7.389
N803 X62.162 Y6.259
N804 X62.052 Y6.045
N805 X61.04 Y4.702
N806 X60.733 Y4.33
N807 X59.573 Y3.358
N808 X59.304 Y3.205
N809 X57.875 Y2.704
N810 X56.446 Y2.501
N811 X55.017 Y2.667
N812 X53.588 Y3.293
N813 X53.488 Y3.358
N814 X52.159 Y4.41
N815 X51.892 Y4.702
N816 X50.966 Y6.045
N817 X50.73 Y6.457
N818 X50.335 Y7.389
N819 X50.083 Y8.732
N820 X50.19 Y10.075
N821 X50.68 Y11.419
N822 X50.73 Y11.51
N823 X51.592 Y12.617
N824 X51.61 Y12.729
N825 X51.526 Y12.806
N826 X50.788 Y12.986
N827 X50.67 Y13.
N828 X36.449
N829 X36.172 Y12.917
N830 X35.988 Y12.694
N831 X29.932 Y-1.69
N832 X29.909 Y-2.012
N833 X30.087 Y-2.28
N834 X30.392 Y-2.384
N835 X40.356 Z44.138 F600.
N836 X40.99 Y-2.16 Z44.12
N837 X41.341 Y-1.588 Z44.101
N838 X41.256 Y-.922 Z44.083
N839 X40.474 Y.862 Z44.031
N840 X39.963 Y1.66 Z44.006
N841 X39.181 Y2.196 Z43.981
N842 X38.252 Y2.384 Z43.955
N843 X36.449 Z43.908
N844 X0 F1500.
N845 X-38.252
N846 X-39.181 Y2.196
N847 X-39.963 Y1.66
N848 X-40.475 Y.862
N849 X-41.255 Y-.92
N850 X-41.362 Y-1.417
N851 X-41.214 Y-1.904
N852 X-40.847 Y-2.256
N853 X-40.354 Y-2.384
N854 X40.356
N855 X40.848 Y-2.256
N856 X41.215 Y-1.904
N857 X41.363 Y-1.419
N858 X41.256 Y-.922
N859 X40.474 Y.862
N860 X39.963 Y1.66
N861 X39.181 Y2.196
N862 X38.252 Y2.384
N863 X36.449
N864 X36.145 Y2.487
N865 X35.966 Y2.755
N866 X35.432 Y4.752
N867 X35.254 Y5.019
N868 X34.949 Y5.122
N869 X0
N870 X-38.792
N871 X-40.089 Y4.924
N872 X-41.267 Y4.348
N873 X-42.22 Y3.446
N874 X-42.859 Y2.301
N875 X-43.887 Y-.035
N876 X-44.781 Y-1.443
N877 X-45.791 Y-2.771
N878 X-46.482 Y-3.555
N879 X-47.246 Y-4.267
N880 X-47.426 Y-4.607
N881 X-47.299 Y-4.969
N882 X-46.947 Y-5.122
N883 X46.975
N884 X47.347 Y-4.961
N885 X47.484 Y-4.579
N886 X47.3 Y-4.218
N887 X47.149 Y-4.094
N888 X46.262 Y-3.238
N889 X44.95 Y-1.662
N890 X43.747 Y.233
N891 X42.861 Y2.296
N892 X42.222 Y3.443
N893 X41.269 Y4.346
N894 X40.09 Y4.924
N895 X38.792 Y5.122
N896 X34.949
N897 X34.655 Y5.218
N898 X34.474 Y5.467
N899 X33.924 Y7.149
N900 X33.743 Y7.398
N901 X33.449 Y7.494
N902 X-40.898
N903 X-42.063 Y7.308
N904 X-43.112 Y6.768
N905 X-43.941 Y5.928
N906 X-44.467 Y4.871
N907 X-45.214 Y2.773
N908 X-45.843 Y1.348
N909 X-46.647 Y.013
N910 X-47.675 Y-1.331
N911 X-48.782 Y-2.458
N912 X-50.211 Y-3.568
N913 X-51.153 Y-4.157
N914 X-52.854 Y-4.832
N915 X-54.628 Y-5.28
N916 X-56.446 Y-5.493
N917 X-57.337 Y-5.427
N918 X-57.905 Y-5.522
N919 X-58.334 Y-5.904
N920 X-58.494 Y-6.457
N921 X-58.355 Y-6.975
N922 X-57.975 Y-7.355
N923 X-57.457 Y-7.494
N924 X57.424
N925 X57.959 Y-7.35
N926 X58.35 Y-6.959
N927 X58.494 Y-6.424
N928 X58.332 Y-5.859
N929 X57.897 Y-5.465
N930 X57.319 Y-5.36
N931 X56.446 Y-5.419
N932 X54.378 Y-5.215
N933 X53.163 Y-4.931
N934 X51.995 Y-4.513
N935 X51.002 Y-4.047
N936 X50.086 Y-3.442
N937 X48.037 Y-1.666
N938 X46.778 Y-.15
N939 X46.244 Y.62
N940 X45.953 Y1.129
N941 X45.137 Y2.972
N942 X44.467 Y4.874
N943 X43.941 Y5.929
N944 X43.111 Y6.768
N945 X42.062 Y7.308
N946 X40.897 Y7.494
N947 X33.449
N948 X33.144 Y7.598
N949 X32.966 Y7.866
N950 X32.433 Y9.89
N951 X32.254 Y10.159
N952 X31.949 Y10.263
N953 X-44.191
N954 X-45.016 Y10.112
N955 X-45.735 Y9.68
N956 X-46.255 Y9.022
N957 X-46.508 Y8.222
N958 X-46.585 Y7.618
N959 X-47.115 Y5.655
N960 X-47.808 Y3.743
N961 X-48.642 Y2.002
N962 X-50.12 Y.064
N963 X-51.909 Y-1.38
N964 X-52.377 Y-1.673
N965 X-54.127 Y-2.331
N966 X-56.446 Y-2.724
N967 X-58.19 Y-2.54
N968 X-59.021 Y-2.312
N969 X-59.819 Y-1.988
N970 X-60.322 Y-1.918
N971 X-60.8 Y-2.091
N972 X-61.14 Y-2.469
N973 X-61.263 Y-2.962
N974 Y-6.462
N975 X-61.077 Y-7.637
N976 X-60.537 Y-8.696
N977 X-59.696 Y-9.537
N978 X-58.637 Y-10.077
N979 X-57.462 Y-10.263
N980 X57.462
N981 X58.637 Y-10.077
N982 X59.696 Y-9.537
N983 X60.537 Y-8.696
N984 X61.077 Y-7.637
N985 X61.263 Y-6.462
N986 Y-2.939
N987 X61.146 Y-2.462
N988 X60.824 Y-2.092
N989 X60.367 Y-1.913
N990 X59.879 Y-1.963
N991 X58.144 Y-2.496
N992 X56.446 Y-2.65
N993 X54.699 Y-2.465
N994 X52.927 Y-1.906
N995 X51.847 Y-1.305
N996 X50.11 Y.17
N997 X48.912 Y1.614
N998 X48.647 Y1.997
N999 X48.355 Y2.506
N1000 X47.517 Y4.507
N1001 X46.837 Y6.567
N1002 X46.508 Y8.223
N1003 X46.255 Y9.022
N1004 X45.735 Y9.68
N1005 X45.016 Y10.112
N1006 X44.191 Y10.263
N1007 X31.949
N1008 X31.645 Y10.366
N1009 X31.466 Y10.633
N1010 X30.932 Y12.629
N1011 X30.754 Y12.897
N1012 X30.449 Y13.
N1013 X-50.596
N1014 X-50.773 Y12.873
N1015 X-50.73 Y12.683
N1016 X-49.796 Y11.419
N1017 X-49.309 Y10.075
N1018 X-49.301 Y10.036
N1019 X-49.203 Y8.732
N1020 X-49.301 Y7.964
N1021 X-49.449 Y7.389
N1022 X-49.87 Y6.045
N1023 X-50.372 Y4.702
N1024 X-50.73 Y3.868
N1025 X-51.02 Y3.358
N1026 X-52.048 Y2.015
N1027 X-52.159 Y1.891
N1028 X-53.588 Y.782
N1029 X-53.811 Y.672
N1030 X-55.017 Y.257
N1031 X-56.446 Y.013
N1032 X-57.875 Y.179
N1033 X-59.095 Y.672
N1034 X-59.304 Y.779
N1035 X-60.733 Y1.745
N1036 X-60.998 Y2.015
N1037 X-61.958 Y3.358
N1038 X-62.162 Y3.679
N1039 X-62.625 Y4.702
N1040 X-63.145 Y6.045
N1041 X-63.591 Y7.606
N1042 X-63.776 Y8.732
N1043 X-63.669 Y10.075
N1044 X-63.591 Y10.394
N1045 Y10.637
N1046 X-63.816 Y10.127
N1047 X-63.842 Y10.021
N1048 X-64. Y8.732
N1049 Y-8.732
N1050 X-63.842 Y-10.02
N1051 X-63.816 Y-10.128
N1052 X-63.609 Y-10.705
N1053 X-63.562 Y-10.802
N1054 X-63.211 Y-11.36
N1055 X-63.124 Y-11.465
N1056 X-62.215 Y-12.288
N1057 X-62.097 Y-12.367
N1058 X-61.323 Y-12.743
N1059 X-61.241 Y-12.774
N1060 X-60.785 Y-12.903
N1061 X-60.678 Y-12.921
N1062 X-59.304 Y-13.
N1063 X59.304
N1064 X60.678 Y-12.921
N1065 X60.785 Y-12.903
N1066 X61.241 Y-12.774
N1067 X61.323 Y-12.743
N1068 X62.097 Y-12.367
N1069 X62.215 Y-12.288
N1070 X63.124 Y-11.465
N1071 X63.211 Y-11.36
N1072 X63.562 Y-10.802
N1073 X63.609 Y-10.705
N1074 X63.816 Y-10.128
N1075 X63.842 Y-10.02
N1076 X64. Y-8.732
N1077 Y8.732
N1078 X63.842 Y10.02
N1079 X63.816 Y10.128
N1080 X63.801 Y10.17
N1081 X63.737 Y10.35
N1082 X63.609 Y10.705
N1083 X63.562 Y10.802
N1084 X63.267 Y11.271
N1085 X63.233 Y11.326
N1086 X63.591 Y10.298
N1087 X63.643 Y10.075
N1088 X63.749 Y8.732
N1089 X63.591 Y7.689
N1090 X63.524 Y7.389
N1091 X63.143 Y6.045
N1092 X62.636 Y4.702
N1093 X62.162 Y3.679
N1094 X61.958 Y3.358
N1095 X60.905 Y2.015
N1096 X60.733 Y1.825
N1097 X59.304 Y.77
N1098 X59.118 Y.672
N1099 X57.875 Y.228
N1100 X56.446 Y.087
N1101 X55.017 Y.254
N1102 X53.849 Y.672
N1103 X53.588 Y.807
N1104 X52.159 Y1.985
N1105 X51.021 Y3.358
N1106 X50.73 Y3.867
N1107 X50.372 Y4.702
N1108 X49.871 Y6.045
N1109 X49.449 Y7.389
N1110 X49.301 Y7.964
N1111 X49.203 Y8.732
N1112 X49.301 Y10.036
N1113 X49.309 Y10.075
N1114 X49.796 Y11.419
N1115 X50.682 Y12.619
N1116 X50.703 Y12.869
N1117 X50.489 Y13.
N1118 X30.449
N1119 X30.168 Y12.913
N1120 X29.984 Y12.683
N1121 X24.861 Y-.317
N1122 X24.844 Y-.635
N1123 X25.024 Y-.899
N1124 X25.326 Y-1.
N1125 X37.355 Z43.635 F600.
N1126 X37.946 Y-.807 Z43.621
N1127 X38.309 Y-.301 Z43.607
N1128 X38.302 Y.321 Z43.592
N1129 X37.938 Y.813 Z43.578
N1130 X37.355 Y1. Z43.564
N1131 X30.449 Z43.408
N1132 X.008 F1500.
N1133 X-37.34
N1134 X-37.929 Y.808
N1135 X-38.292 Y.307
N1136 X-38.29 Y-.311
N1137 X-37.927 Y-.81
N1138 X-37.34 Y-1.
N1139 X37.355
N1140 X37.946 Y-.807
N1141 X38.309 Y-.301
N1142 X38.302 Y.321
N1143 X37.938 Y.813
N1144 X37.355 Y1.
N1145 X30.449
N1146 X30.157 Y1.094
N1147 X29.975 Y1.341
N1148 X29.423 Y2.985
N1149 X29.241 Y3.232
N1150 X28.949 Y3.326
N1151 X.008
N1152 X-37.34
N1153 X-38.369 Y3.163
N1154 X-39.298 Y2.688
N1155 X-40.034 Y1.95
N1156 X-40.506 Y1.02
N1157 X-41.018 Y-.397
N1158 X-41.636 Y-1.771
N1159 X-41.737 Y-2.304
N1160 X-41.569 Y-2.82
N1161 X-41.173 Y-3.191
N1162 X-40.648 Y-3.326
N1163 X40.588
N1164 X41.121 Y-3.191
N1165 X41.526 Y-2.82
N1166 X41.706 Y-2.3
N1167 X41.617 Y-1.757
N1168 X40.505 Y1.066
N1169 X40.028 Y1.98
N1170 X39.293 Y2.703
N1171 X38.373 Y3.166
N1172 X37.355 Y3.326
N1173 X28.949
N1174 X28.644 Y3.43
N1175 X28.465 Y3.699
N1176 X27.933 Y5.733
N1177 X27.755 Y6.002
N1178 X27.449 Y6.107
N1179 X.008
N1180 X-39.131
N1181 X-40.1 Y5.978
N1182 X-41.001 Y5.6
N1183 X-41.773 Y4.999
N1184 X-42.361 Y4.218
N1185 X-42.724 Y3.31
N1186 X-43.392 Y1.153
N1187 X-44.305 Y-.912
N1188 X-45.14 Y-2.427
N1189 X-46.141 Y-3.838
N1190 X-47.296 Y-5.127
N1191 X-47.465 Y-5.532
N1192 X-47.297 Y-5.938
N1193 X-46.891 Y-6.107
N1194 X46.987
N1195 X47.375 Y-5.945
N1196 X47.533 Y-5.555
N1197 X47.367 Y-5.168
N1198 X46.363 Y-4.145
N1199 X45.449 Y-2.983
N1200 X44.885 Y-2.079
N1201 X43.641 Y.561
N1202 X42.721 Y3.331
N1203 X42.351 Y4.234
N1204 X41.76 Y5.009
N1205 X40.987 Y5.604
N1206 X40.087 Y5.979
N1207 X39.12 Y6.107
N1208 X27.449
N1209 X27.154 Y6.203
N1210 X26.972 Y6.456
N1211 X26.426 Y8.184
N1212 X26.245 Y8.437
N1213 X25.949 Y8.534
N1214 X-41.356
N1215 X-42.422 Y8.356
N1216 X-43.371 Y7.841
N1217 X-44.102 Y7.046
N1218 X-44.534 Y6.056
N1219 X-44.811 Y4.956
N1220 X-45.496 Y2.481
N1221 X-46.502 Y.118
N1222 X-47.193 Y-1.123
N1223 X-48.006 Y-2.287
N1224 X-48.813 Y-3.2
N1225 X-49.874 Y-4.198
N1226 X-51.065 Y-5.036
N1227 X-52.113 Y-5.566
N1228 X-53.542 Y-6.066
N1229 X-54.979 Y-6.392
N1230 X-56.446 Y-6.533
N1231 X-58.233 Y-6.387
N1232 X-58.861 Y-6.447
N1233 X-59.35 Y-6.846
N1234 X-59.534 Y-7.449
N1235 X-59.388 Y-7.992
N1236 X-58.992 Y-8.388
N1237 X-58.449 Y-8.534
N1238 X58.41
N1239 X58.972 Y-8.383
N1240 X59.383 Y-7.972
N1241 X59.534 Y-7.41
N1242 X59.361 Y-6.812
N1243 X58.896 Y-6.398
N1244 X58.282 Y-6.295
N1245 X56.446 Y-6.477
N1246 X54.981 Y-6.312
N1247 X53.542 Y-5.997
N1248 X52.113 Y-5.497
N1249 X51.111 Y-4.997
N1250 X49.704 Y-4.008
N1251 X48.964 Y-3.334
N1252 X47.679 Y-1.926
N1253 X46.678 Y-.303
N1254 X45.9 Y1.457
N1255 X45.257 Y3.27
N1256 X44.528 Y6.058
N1257 X44.097 Y7.047
N1258 X43.367 Y7.842
N1259 X42.418 Y8.356
N1260 X41.354 Y8.534
N1261 X25.949
N1262 X25.693 Y8.604
N1263 X25.509 Y8.796
N1264 X24.889 Y9.942
N1265 X24.705 Y10.134
N1266 X24.449 Y10.204
N1267 X-43.485
N1268 X-44.294 Y10.062
N1269 X-45.005 Y9.651
N1270 X-45.533 Y9.021
N1271 X-45.813 Y8.249
N1272 X-46.237 Y6.119
N1273 X-46.773 Y4.015
N1274 X-47.333 Y2.321
N1275 X-48.076 Y.699
N1276 X-48.994 Y-.831
N1277 X-49.941 Y-1.966
N1278 X-51.018 Y-2.978
N1279 X-51.812 Y-3.532
N1280 X-52.665 Y-3.989
N1281 X-54.094 Y-4.489
N1282 X-55.259 Y-4.745
N1283 X-56.446 Y-4.862
N1284 X-58.087 Y-4.714
N1285 X-59.657 Y-4.212
N1286 X-60.199 Y-4.144
N1287 X-60.711 Y-4.337
N1288 X-61.073 Y-4.745
N1289 X-61.204 Y-5.276
N1290 Y-7.449
N1291 X-61.07 Y-8.301
N1292 X-60.678 Y-9.069
N1293 X-60.069 Y-9.678
N1294 X-59.301 Y-10.07
N1295 X-58.449 Y-10.204
N1296 X58.41
N1297 X59.274 Y-10.068
N1298 X60.053 Y-9.671
N1299 X60.671 Y-9.053
N1300 X61.068 Y-8.274
N1301 X61.204 Y-7.41
N1302 Y-5.24
N1303 X61.073 Y-4.705
N1304 X60.707 Y-4.293
N1305 X60.191 Y-4.097
N1306 X59.644 Y-4.164
N1307 X58.196 Y-4.623
N1308 X56.446 Y-4.806
N1309 X54.573 Y-4.541
N1310 X52.664 Y-3.92
N1311 X51.702 Y-3.4
N1312 X50.815 Y-2.76
N1313 X49.295 Y-1.282
N1314 X48.572 Y-.264
N1315 X47.989 Y.84
N1316 X47.328 Y2.392
N1317 X46.785 Y3.99
N1318 X46.235 Y6.105
N1319 X45.81 Y8.249
N1320 X45.529 Y9.021
N1321 X45.002 Y9.651
N1322 X44.29 Y10.062
N1323 X43.481 Y10.204
N1324 X24.449
N1325 X24.143 Y10.309
N1326 X23.965 Y10.579
N1327 X23.433 Y12.626
N1328 X23.255 Y12.896
N1329 X22.949 Y13.
N1330 X-49.233
N1331 X-49.366 Y12.982
N1332 X-49.985 Y12.812
N1333 X-50.07 Y12.731
N1334 X-50.049 Y12.617
N1335 X-49.301 Y11.675
N1336 X-49.157 Y11.419
N1337 X-48.672 Y10.075
N1338 X-48.567 Y8.732
N1339 X-48.804 Y7.389
N1340 X-49.483 Y4.702
N1341 X-49.916 Y3.358
N1342 X-50.546 Y2.015
N1343 X-50.73 Y1.647
N1344 X-51.352 Y.672
N1345 X-52.159 Y-.241
N1346 X-52.597 Y-.672
N1347 X-53.588 Y-1.35
N1348 X-55.017 Y-1.85
N1349 X-55.846 Y-2.015
N1350 X-56.446 Y-2.067
N1351 X-57.319 Y-2.015
N1352 X-57.875 Y-1.902
N1353 X-59.304 Y-1.353
N1354 X-60.407 Y-.672
N1355 X-60.733 Y-.388
N1356 X-61.617 Y.672
N1357 X-62.162 Y1.434
N1358 X-62.478 Y2.015
N1359 X-63.065 Y3.358
N1360 X-63.52 Y4.702
N1361 X-63.591 Y4.973
N1362 X-63.799 Y5.893
N1363 X-63.91 Y5.972
N1364 X-64. Y5.871
N1365 Y-8.732
N1366 X-63.842 Y-10.02
N1367 X-63.816 Y-10.128
N1368 X-63.609 Y-10.705
N1369 X-63.562 Y-10.802
N1370 X-63.211 Y-11.36
N1371 X-63.124 Y-11.465
N1372 X-62.215 Y-12.288
N1373 X-62.097 Y-12.367
N1374 X-61.323 Y-12.743
N1375 X-61.241 Y-12.774
N1376 X-60.785 Y-12.903
N1377 X-60.678 Y-12.921
N1378 X-59.304 Y-13.
N1379 X59.304
N1380 X60.678 Y-12.921
N1381 X60.785 Y-12.903
N1382 X61.241 Y-12.774
N1383 X61.323 Y-12.743
N1384 X62.097 Y-12.367
N1385 X62.215 Y-12.288
N1386 X63.124 Y-11.465
N1387 X63.211 Y-11.36
N1388 X63.562 Y-10.802
N1389 X63.609 Y-10.705
N1390 X63.816 Y-10.128
N1391 X63.842 Y-10.02
N1392 X64. Y-8.732
N1393 Y5.871
N1394 X63.91 Y5.972
N1395 X63.799 Y5.894
N1396 X63.591 Y4.988
N1397 X63.519 Y4.702
N1398 X63.04 Y3.358
N1399 X62.501 Y2.015
N1400 X62.162 Y1.377
N1401 X61.67 Y.672
N1402 X60.733 Y-.351
N1403 X60.357 Y-.672
N1404 X59.304 Y-1.303
N1405 X57.875 Y-1.846
N1406 X56.446 Y-2.011
N1407 X55.017 Y-1.781
N1408 X53.588 Y-1.281
N1409 X52.674 Y-.672
N1410 X52.159 Y-.213
N1411 X51.294 Y.672
N1412 X50.73 Y1.575
N1413 X50.526 Y2.015
N1414 X49.943 Y3.358
N1415 X49.488 Y4.702
N1416 X48.799 Y7.389
N1417 X48.563 Y8.732
N1418 X48.669 Y10.075
N1419 X49.152 Y11.419
N1420 X49.301 Y11.684
N1421 X50.041 Y12.616
N1422 X50.062 Y12.731
N1423 X49.978 Y12.812
N1424 X49.366 Y12.982
N1425 X49.233 Y13.
N1426 X22.949
N1427 X22.64 Y12.893
N1428 X22.463 Y12.619
N1429 X22.493 Y12.294
N1430 X28.37 Y-.706
N1431 X28.555 Y-.92
N1432 X28.826 Y-1.
N1433 X36.668 Z43.251 F600.
N1434 X37.241 Y-.82 Z43.239
N1435 X37.607 Y-.345 Z43.227
N1436 X37.636 Y.255 Z43.214
N1437 X37.279 Y.792 Z43.201
N1438 X36.668 Y1. Z43.188
N1439 X22.949 Z42.914
N1440 X-36.662 F1500.
N1441 X-37.085 Y.906
N1442 X-37.429 Y.643
N1443 X-37.628 Y.258
N1444 X-37.602 Y-.342
N1445 X-37.236 Y-.819
N1446 X-36.662 Y-1.
N1447 X.003
N1448 X36.668
N1449 X37.241 Y-.82
N1450 X37.607 Y-.345
N1451 X37.636 Y.255
N1452 X37.436 Y.641
N1453 X37.092 Y.906
N1454 X36.668 Y1.
N1455 X22.949
N1456 X22.705 Y1.064
N1457 X22.523 Y1.239
N1458 X21.875 Y2.295
N1459 X21.693 Y2.47
N1460 X21.449 Y2.534
N1461 X-36.662
N1462 X-37.477 Y2.399
N1463 X-38.205 Y2.01
N1464 X-38.769 Y1.407
N1465 X-39.11 Y.655
N1466 X-39.555 Y-.783
N1467 X-39.61 Y-1.404
N1468 X-39.375 Y-1.981
N1469 X-38.903 Y-2.387
N1470 X-38.297 Y-2.534
N1471 X.003
N1472 X38.3
N1473 X38.898 Y-2.39
N1474 X39.366 Y-1.992
N1475 X39.602 Y-1.425
N1476 X39.556 Y-.812
N1477 X39.118 Y.645
N1478 X38.779 Y1.401
N1479 X38.215 Y2.007
N1480 X37.485 Y2.398
N1481 X36.668 Y2.534
N1482 X21.449
N1483 X21.141 Y2.64
N1484 X20.964 Y2.913
N1485 X20.434 Y5.049
N1486 X20.257 Y5.322
N1487 X19.949 Y5.429
N1488 X-38.107
N1489 X-39.27 Y5.234
N1490 X-40.307 Y4.672
N1491 X-41.104 Y3.803
N1492 X-41.575 Y2.723
N1493 X-42.05 Y.919
N1494 X-42.648 Y-.849
N1495 X-43.197 Y-2.192
N1496 X-44.292 Y-4.133
N1497 X-44.425 Y-4.557
N1498 X-44.322 Y-4.991
N1499 X-44.013 Y-5.311
N1500 X-43.584 Y-5.429
N1501 X.003
N1502 X43.5
N1503 X43.948 Y-5.307
N1504 X44.273 Y-4.977
N1505 X44.387 Y-4.527
N1506 X44.258 Y-4.081
N1507 X43.756 Y-3.253
N1508 X42.855 Y-1.379
N1509 X42.145 Y.576
N1510 X41.633 Y2.591
N1511 X41.286 Y3.509
N1512 X40.708 Y4.302
N1513 X39.94 Y4.912
N1514 X39.037 Y5.297
N1515 X38.065 Y5.429
N1516 X19.949
N1517 X19.647 Y5.53
N1518 X19.468 Y5.793
N1519 X18.93 Y7.703
N1520 X18.751 Y7.966
N1521 X18.449 Y8.067
N1522 X-40.412
N1523 X-41.515 Y7.879
N1524 X-42.492 Y7.336
N1525 X-43.235 Y6.499
N1526 X-43.657 Y5.463
N1527 X-43.765 Y4.976
N1528 X-44.336 Y2.538
N1529 X-45.091 Y.149
N1530 X-45.952 Y-1.796
N1531 X-47.122 Y-3.572
N1532 X-48.109 Y-4.735
N1533 X-49.203 Y-5.799
N1534 X-50.94 Y-6.954
N1535 X-52.446 Y-7.643
N1536 X-52.577 Y-7.788
N1537 X-52.541 Y-7.98
N1538 X-52.366 Y-8.067
N1539 X.003
N1540 X52.199
N1541 X52.401 Y-7.897
N1542 X52.269 Y-7.669
N1543 X51.915 Y-7.541
N1544 X50.788 Y-6.962
N1545 X49.009 Y-5.687
N1546 X47.885 Y-4.541
N1547 X46.876 Y-3.292
N1548 X46.012 Y-1.885
N1549 X45.201 Y-.139
N1550 X44.568 Y1.679
N1551 X44.12 Y3.551
N1552 X43.647 Y5.487
N1553 X43.214 Y6.515
N1554 X42.468 Y7.344
N1555 X41.49 Y7.881
N1556 X40.391 Y8.067
N1557 X18.449
N1558 X18.164 Y8.156
N1559 X17.981 Y8.391
N1560 X17.417 Y9.892
N1561 X17.234 Y10.127
N1562 X16.949 Y10.216
N1563 X-42.997
N1564 X-43.812 Y10.071
N1565 X-44.526 Y9.653
N1566 X-45.052 Y9.015
N1567 X-45.325 Y8.234
N1568 X-46.169 Y4.088
N1569 X-46.857 Y1.574
N1570 X-47.862 Y-.832
N1571 X-49.009 Y-2.491
N1572 X-50.373 Y-3.978
N1573 X-52.093 Y-5.141
N1574 X-53.181 Y-5.639
N1575 X-54.306 Y-6.045
N1576 X-56.1 Y-6.297
N1577 X-56.787 Y-6.298
N1578 X-58.212 Y-6.122
N1579 X-59.701 Y-5.682
N1580 X-60.239 Y-5.636
N1581 X-60.738 Y-5.84
N1582 X-61.089 Y-6.249
N1583 X-61.216 Y-6.773
N1584 Y-8.101
N1585 X-61.055 Y-8.91
N1586 X-60.596 Y-9.596
N1587 X-59.91 Y-10.055
N1588 X-59.101 Y-10.216
N1589 X56.446
N1590 X59.137
N1591 X59.933 Y-10.058
N1592 X60.607 Y-9.607
N1593 X61.058 Y-8.933
N1594 X61.216 Y-8.137
N1595 Y-6.819
N1596 X61.087 Y-6.297
N1597 X60.731 Y-5.893
N1598 X60.229 Y-5.701
N1599 X59.695 Y-5.764
N1600 X58.135 Y-6.213
N1601 X56.446 Y-6.359
N1602 X56.09 Y-6.336
N1603 X54.308 Y-6.088
N1604 X52.643 Y-5.52
N1605 X52.007 Y-5.193
N1606 X50.444 Y-4.088
N1607 X48.995 Y-2.544
N1608 X47.85 Y-.772
N1609 X46.852 Y1.58
N1610 X46.209 Y4.052
N1611 X45.698 Y6.129
N1612 X45.312 Y8.232
N1613 X45.039 Y9.013
N1614 X44.513 Y9.653
N1615 X43.798 Y10.07
N1616 X42.983 Y10.216
N1617 X16.949
N1618 X16.643 Y10.32
N1619 X16.465 Y10.589
N1620 X15.933 Y12.626
N1621 X15.755 Y12.896
N1622 X15.449 Y13.
N1623 X-49.212
N1624 X-49.374 Y12.95
N1625 X-49.468 Y12.886
N1626 X-49.548 Y12.751
N1627 X-49.499 Y12.602
N1628 X-49.301 Y12.389
N1629 X-48.65 Y11.419
N1630 X-48.17 Y10.075
N1631 X-48.065 Y8.732
N1632 X-48.283 Y7.389
N1633 X-48.581 Y6.045
N1634 X-48.884 Y4.702
N1635 X-49.221 Y3.358
N1636 X-49.301 Y3.073
N1637 X-49.657 Y2.015
N1638 X-50.206 Y.672
N1639 X-50.73 Y-.145
N1640 X-51.112 Y-.672
N1641 X-52.159 Y-1.841
N1642 X-52.366 Y-2.015
N1643 X-53.588 Y-2.792
N1644 X-55.017 Y-3.353
N1645 X-55.037 Y-3.358
N1646 X-56.446 Y-3.535
N1647 X-57.871 Y-3.358
N1648 X-59.304 Y-2.88
N1649 X-60.628 Y-2.015
N1650 X-60.733 Y-1.918
N1651 X-61.929 Y-.672
N1652 X-62.162 Y-.35
N1653 X-62.774 Y.672
N1654 X-63.361 Y2.015
N1655 X-63.706 Y3.2
N1656 X-63.871 Y3.307
N1657 X-64. Y3.158
N1658 Y-8.732
N1659 X-63.842 Y-10.02
N1660 X-63.816 Y-10.128
N1661 X-63.609 Y-10.705
N1662 X-63.562 Y-10.802
N1663 X-63.211 Y-11.36
N1664 X-63.124 Y-11.465
N1665 X-62.215 Y-12.288
N1666 X-62.097 Y-12.367
N1667 X-61.323 Y-12.743
N1668 X-61.241 Y-12.774
N1669 X-60.785 Y-12.903
N1670 X-60.678 Y-12.921
N1671 X-59.304 Y-13.
N1672 X56.446
N1673 X59.304
N1674 X60.678 Y-12.921
N1675 X60.785 Y-12.903
N1676 X61.241 Y-12.774
N1677 X61.323 Y-12.743
N1678 X62.097 Y-12.367
N1679 X62.215 Y-12.288
N1680 X63.124 Y-11.465
N1681 X63.211 Y-11.36
N1682 X63.562 Y-10.802
N1683 X63.609 Y-10.705
N1684 X63.816 Y-10.128
N1685 X63.842 Y-10.02
N1686 X64. Y-8.732
N1687 Y3.158
N1688 X63.868 Y3.308
N1689 X63.703 Y3.195
N1690 X63.591 Y2.753
N1691 X63.362 Y2.015
N1692 X62.739 Y.672
N1693 X62.162 Y-.367
N1694 X61.953 Y-.672
N1695 X60.733 Y-2.006
N1696 X59.304 Y-2.937
N1697 X58.179 Y-3.358
N1698 X57.875 Y-3.441
N1699 X56.446 Y-3.575
N1700 X55.017 Y-3.391
N1701 X54.856 Y-3.358
N1702 X53.588 Y-2.901
N1703 X52.303 Y-2.015
N1704 X52.159 Y-1.886
N1705 X51.056 Y-.672
N1706 X50.73 Y-.152
N1707 X50.231 Y.672
N1708 X49.641 Y2.015
N1709 X49.301 Y3.078
N1710 X49.227 Y3.358
N1711 X48.916 Y4.702
N1712 X48.582 Y6.045
N1713 X48.267 Y7.389
N1714 X48.051 Y8.732
N1715 X48.156 Y10.075
N1716 X48.635 Y11.419
N1717 X49.301 Y12.408
N1718 X49.48 Y12.6
N1719 X49.531 Y12.752
N1720 X49.451 Y12.892
N1721 X49.374 Y12.947
N1722 X49.211 Y13.
N1723 X15.449
N1724 X15.062 Y12.817
N1725 X14.959 Y12.402
N1726 X15.214 Y12.059
N1727 X32.184 Y3.014
N1728 X32.439 Y2.671
N1729 X32.336 Y2.256
N1730 X31.949 Y2.073
N1731 X15.449 Z42.414 F600.
N1732 X-36.168 F1500.
N1733 X-36.849 Y1.958
N1734 X-37.454 Y1.625
N1735 X-37.917 Y1.113
N1736 X-38.185 Y.476
N1737 X-38.349 Y-.218
N1738 X-38.354 Y-.892
N1739 X-38.064 Y-1.501
N1740 X-37.538 Y-1.922
N1741 X-36.881 Y-2.073
N1742 X.002
N1743 X36.87
N1744 X37.543 Y-1.917
N1745 X38.08 Y-1.48
N1746 X38.369 Y-.852
N1747 X38.352 Y-.16
N1748 X38.179 Y.516
N1749 X37.768 Y1.322
N1750 X37.053 Y1.876
N1751 X36.171 Y2.073
N1752 X15.449
N1753 X15.139 Y2.18
N1754 X14.963 Y2.456
N1755 X14.435 Y4.662
N1756 X14.259 Y4.938
N1757 X13.949 Y5.046
N1758 X-37.408
N1759 X-38.346 Y4.917
N1760 X-39.216 Y4.542
N1761 X-39.953 Y3.947
N1762 X-40.503 Y3.175
N1763 X-40.827 Y2.285
N1764 X-40.956 Y1.683
N1765 X-41.645 Y-.968
N1766 X-42.682 Y-3.502
N1767 X-42.786 Y-4.03
N1768 X-42.623 Y-4.542
N1769 X-42.232 Y-4.911
N1770 X-41.711 Y-5.046
N1771 X.002
N1772 X41.682
N1773 X42.197 Y-4.914
N1774 X42.586 Y-4.553
N1775 X42.755 Y-4.049
N1776 X42.663 Y-3.526
N1777 X42.246 Y-2.604
N1778 X41.426 Y-.186
N1779 X40.825 Y2.297
N1780 X40.507 Y3.183
N1781 X39.962 Y3.951
N1782 X39.231 Y4.543
N1783 X38.367 Y4.918
N1784 X37.434 Y5.046
N1785 X13.949
N1786 X13.644 Y5.15
N1787 X13.466 Y5.418
N1788 X12.933 Y7.441
N1789 X12.754 Y7.71
N1790 X12.449 Y7.814
N1791 X-39.782
N1792 X-40.895 Y7.623
N1793 X-41.879 Y7.07
N1794 X-42.622 Y6.221
N1795 X-43.038 Y5.172
N1796 X-43.663 Y2.266
N1797 X-44.319 Y-.234
N1798 X-45.312 Y-2.62
N1799 X-46.623 Y-4.847
N1800 X-47.568 Y-5.952
N1801 X-48.588 Y-6.987
N1802 X-48.738 Y-7.326
N1803 X-48.6 Y-7.671
N1804 X-48.258 Y-7.814
N1805 X.002
N1806 X48.313
N1807 X48.651 Y-7.672
N1808 X48.785 Y-7.33
N1809 X48.634 Y-6.996
N1810 X47.627 Y-6.006
N1811 X46.706 Y-4.936
N1812 X45.628 Y-3.261
N1813 X44.769 Y-1.464
N1814 X44.053 Y.723
N1815 X43.052 Y5.171
N1816 X42.638 Y6.22
N1817 X41.897 Y7.07
N1818 X40.914 Y7.623
N1819 X39.803 Y7.814
N1820 X12.449
N1821 X12.155 Y7.91
N1822 X11.973 Y8.161
N1823 X11.425 Y9.863
N1824 X11.243 Y10.114
N1825 X10.949 Y10.21
N1826 X-42.578
N1827 X-43.394 Y10.065
N1828 X-44.109 Y9.647
N1829 X-44.635 Y9.008
N1830 X-44.909 Y8.226
N1831 X-46.005 Y2.771
N1832 X-46.562 Y.611
N1833 X-47.405 Y-1.453
N1834 X-48.52 Y-3.384
N1835 X-50.154 Y-5.166
N1836 X-50.35 Y-5.35
N1837 X-52.102 Y-6.521
N1838 X-52.648 Y-6.786
N1839 X-54.496 Y-7.412
N1840 X-54.658 Y-7.443
N1841 X-56.446 Y-7.642
N1842 X-58.147 Y-7.488
N1843 X-59.67 Y-7.038
N1844 X-60.213 Y-6.982
N1845 X-60.722 Y-7.182
N1846 X-61.081 Y-7.594
N1847 X-61.21 Y-8.124
N1848 X-61.175 Y-8.844
N1849 X-60.932 Y-9.501
N1850 X-60.422 Y-9.98
N1851 X-59.751 Y-10.18
N1852 X-59.223 Y-10.21
N1853 X56.446
N1854 X59.223
N1855 X59.765 Y-10.179
N1856 X60.429 Y-9.981
N1857 X60.934 Y-9.508
N1858 X61.173 Y-8.859
N1859 X61.21 Y-8.129
N1860 X61.08 Y-7.602
N1861 X60.721 Y-7.196
N1862 X60.215 Y-7.003
N1863 X59.676 Y-7.067
N1864 X58.903 Y-7.348
N1865 X58.098 Y-7.523
N1866 X56.446 Y-7.646
N1867 X54.551 Y-7.444
N1868 X52.661 Y-6.821
N1869 X52.006 Y-6.488
N1870 X50.483 Y-5.422
N1871 X49.011 Y-3.98
N1872 X47.767 Y-2.2
N1873 X47.164 Y-.963
N1874 X46.664 Y.318
N1875 X45.677 Y4.242
N1876 X44.928 Y8.218
N1877 X44.656 Y9.002
N1878 X44.13 Y9.644
N1879 X43.414 Y10.064
N1880 X42.596 Y10.21
N1881 X10.949
N1882 X10.643 Y10.314
N1883 X10.465 Y10.584
N1884 X9.933 Y12.626
N1885 X9.755 Y12.896
N1886 X9.449 Y13.
N1887 X-49.096
N1888 X-49.238 Y12.912
N1889 X-49.224 Y12.746
N1890 X-48.239 Y11.419
N1891 X-47.872 Y10.519
N1892 X-47.758 Y10.075
N1893 X-47.654 Y8.732
N1894 X-47.871 Y7.389
N1895 X-48.153 Y6.045
N1896 X-48.732 Y3.358
N1897 X-49.049 Y2.015
N1898 X-49.301 Y1.233
N1899 X-49.502 Y.672
N1900 X-50.147 Y-.672
N1901 X-50.73 Y-1.681
N1902 X-50.987 Y-2.015
N1903 X-52.159 Y-3.226
N1904 X-52.314 Y-3.358
N1905 X-53.588 Y-4.16
N1906 X-55.017 Y-4.671
N1907 X-55.179 Y-4.702
N1908 X-56.446 Y-4.852
N1909 X-57.875 Y-4.712
N1910 X-57.915 Y-4.702
N1911 X-59.304 Y-4.207
N1912 X-60.664 Y-3.358
N1913 X-60.733 Y-3.298
N1914 X-62.018 Y-2.015
N1915 X-62.162 Y-1.826
N1916 X-62.844 Y-.672
N1917 X-63.478 Y.672
N1918 X-63.591 Y.975
N1919 X-63.921 Y1.894
N1920 X-64. Y1.88
N1921 Y-8.732
N1922 X-63.842 Y-10.02
N1923 X-63.816 Y-10.128
N1924 X-63.609 Y-10.705
N1925 X-63.562 Y-10.802
N1926 X-63.211 Y-11.36
N1927 X-63.124 Y-11.465
N1928 X-62.215 Y-12.288
N1929 X-62.097 Y-12.367
N1930 X-61.323 Y-12.743
N1931 X-61.241 Y-12.774
N1932 X-60.785 Y-12.903
N1933 X-60.678 Y-12.921
N1934 X-59.304 Y-13.
N1935 X56.446
N1936 X59.304
N1937 X60.678 Y-12.921
N1938 X60.785 Y-12.903
N1939 X61.241 Y-12.774
N1940 X61.323 Y-12.743
N1941 X62.097 Y-12.367
N1942 X62.215 Y-12.288
N1943 X63.124 Y-11.465
N1944 X63.211 Y-11.36
N1945 X63.562 Y-10.802
N1946 X63.609 Y-10.705
N1947 X63.816 Y-10.128
N1948 X63.842 Y-10.02
N1949 X64. Y-8.732
N1950 Y1.875
N1951 X63.905 Y1.89
N1952 X63.591 Y.957
N1953 X63.488 Y.672
N1954 X62.912 Y-.672
N1955 X62.162 Y-1.755
N1956 X61.976 Y-2.015
N1957 X60.733 Y-3.313
N1958 X60.67 Y-3.358
N1959 X59.304 Y-4.226
N1960 X58.039 Y-4.702
N1961 X57.875 Y-4.742
N1962 X56.446 Y-4.856
N1963 X55.065 Y-4.702
N1964 X55.017 Y-4.693
N1965 X53.588 Y-4.19
N1966 X52.381 Y-3.358
N1967 X52.159 Y-3.192
N1968 X50.991 Y-2.015
N1969 X50.73 Y-1.631
N1970 X50.102 Y-.672
N1971 X49.495 Y.672
N1972 X49.301 Y1.231
N1973 X49.076 Y2.015
N1974 X48.73 Y3.358
N1975 X48.446 Y4.702
N1976 X47.872 Y7.464
N1977 X47.671 Y8.732
N1978 X47.776 Y10.075
N1979 X47.872 Y10.459
N1980 X48.256 Y11.419
N1981 X49.227 Y12.73
N1982 X49.243 Y12.907
N1983 X49.091 Y13.
N1984 X9.449
N1985 X9.061 Y12.816
N1986 X8.959 Y12.399
N1987 X9.219 Y12.056
N1988 X26.18 Y3.247
N1989 X26.439 Y2.905
N1990 X26.337 Y2.487
N1991 X25.949 Y2.303
N1992 X9.449 Z41.914 F600.
N1993 X-.005 F1500.
N1994 X-35.766
N1995 X-36.543 Y2.168
N1996 X-37.229 Y1.779
N1997 X-37.743 Y1.181
N1998 X-38.026 Y.445
N1999 X-38.202 Y-.417
N2000 X-38.205 Y-1.103
N2001 X-37.909 Y-1.722
N2002 X-37.374 Y-2.15
N2003 X-36.705 Y-2.303
N2004 X36.652
N2005 X37.336 Y-2.147
N2006 X37.885 Y-1.709
N2007 X38.189 Y-1.077
N2008 X38.188 Y-.375
N2009 X38.012 Y.465
N2010 X37.726 Y1.194
N2011 X37.211 Y1.785
N2012 X36.529 Y2.17
N2013 X35.757 Y2.303
N2014 X9.449
N2015 X9.139 Y2.411
N2016 X8.962 Y2.688
N2017 X8.436 Y4.915
N2018 X8.259 Y5.192
N2019 X7.949 Y5.3
N2020 X-.005
N2021 X-37.345
N2022 X-38.483 Y5.103
N2023 X-39.487 Y4.534
N2024 X-40.241 Y3.66
N2025 X-40.657 Y2.584
N2026 X-41.365 Y-.629
N2027 X-42.403 Y-3.75
N2028 X-42.491 Y-4.286
N2029 X-42.314 Y-4.799
N2030 X-41.914 Y-5.167
N2031 X-41.388 Y-5.3
N2032 X41.379
N2033 X41.909 Y-5.166
N2034 X42.312 Y-4.796
N2035 X42.491 Y-4.28
N2036 X42.402 Y-3.74
N2037 X41.513 Y-1.27
N2038 X40.638 Y2.599
N2039 X40.224 Y3.669
N2040 X39.475 Y4.538
N2041 X38.476 Y5.104
N2042 X37.345 Y5.3
N2043 X7.949
N2044 X7.643 Y5.405
N2045 X7.465 Y5.675
N2046 X6.933 Y7.731
N2047 X6.755 Y8.001
N2048 X6.449 Y8.106
N2049 X-.005
N2050 X-39.794
N2051 X-40.884 Y7.915
N2052 X-41.845 Y7.365
N2053 X-42.562 Y6.522
N2054 X-42.95 Y5.485
N2055 X-43.283 Y3.765
N2056 X-43.723 Y1.538
N2057 X-44.289 Y-.66
N2058 X-44.932 Y-2.5
N2059 X-45.794 Y-4.247
N2060 X-46.677 Y-5.685
N2061 X-47.743 Y-6.993
N2062 X-47.918 Y-7.461
N2063 X-47.718 Y-7.918
N2064 X-47.255 Y-8.106
N2065 X47.282
N2066 X47.741 Y-7.919
N2067 X47.94 Y-7.464
N2068 X47.765 Y-7.
N2069 X46.685 Y-5.675
N2070 X45.777 Y-4.225
N2071 X44.912 Y-2.432
N2072 X44.228 Y-.562
N2073 X43.519 Y2.447
N2074 X42.941 Y5.483
N2075 X42.559 Y6.52
N2076 X41.847 Y7.364
N2077 X40.889 Y7.915
N2078 X39.801 Y8.106
N2079 X6.449
N2080 X6.151 Y8.204
N2081 X5.971 Y8.461
N2082 X5.428 Y10.251
N2083 X5.247 Y10.508
N2084 X4.949 Y10.606
N2085 X-42.843
N2086 X-43.634 Y10.455
N2087 X-44.313 Y10.023
N2088 X-44.785 Y9.37
N2089 X-44.983 Y8.59
N2090 X-45.443 Y5.732
N2091 X-46.006 Y2.893
N2092 X-46.504 Y.666
N2093 X-47.216 Y-1.503
N2094 X-47.904 Y-2.886
N2095 X-48.695 Y-4.212
N2096 X-49.608 Y-5.345
N2097 X-50.616 Y-6.395
N2098 X-52.308 Y-7.526
N2099 X-54.375 Y-8.37
N2100 X-56.446 Y-8.606
N2101 X-58.403 Y-8.42
N2102 X-60.249 Y-7.763
N2103 X-60.743 Y-7.691
N2104 X-61.206 Y-7.877
N2105 X-61.515 Y-8.27
N2106 X-61.584 Y-8.765
N2107 X-61.522 Y-9.27
N2108 X-61.253 Y-9.887
N2109 X-60.757 Y-10.342
N2110 X-60.118 Y-10.555
N2111 X-59.235 Y-10.606
N2112 X59.235
N2113 X60.12 Y-10.555
N2114 X60.56 Y-10.444
N2115 X60.947 Y-10.207
N2116 X61.119 Y-10.051
N2117 X61.39 Y-9.699
N2118 X61.522 Y-9.275
N2119 X61.585 Y-8.755
N2120 X61.516 Y-8.269
N2121 X61.213 Y-7.885
N2122 X60.757 Y-7.706
N2123 X60.272 Y-7.78
N2124 X58.923 Y-8.288
N2125 X58.057 Y-8.483
N2126 X56.446 Y-8.6
N2127 X54.506 Y-8.398
N2128 X52.734 Y-7.76
N2129 X51.03 Y-6.687
N2130 X50.401 Y-6.167
N2131 X49.307 Y-4.984
N2132 X48.254 Y-3.488
N2133 X47.389 Y-1.876
N2134 X46.724 Y-.172
N2135 X46.169 Y2.019
N2136 X45.722 Y4.234
N2137 X44.983 Y8.59
N2138 X44.785 Y9.37
N2139 X44.313 Y10.023
N2140 X43.634 Y10.455
N2141 X42.843 Y10.606
N2142 X4.949
N2143 X4.655 Y10.702
N2144 X4.473 Y10.953
N2145 X3.925 Y12.653
N2146 X3.743 Y12.904
N2147 X3.449 Y13.
N2148 X-47.817
N2149 X-47.925 Y12.988
N2150 X-48.764 Y12.802
N2151 X-48.85 Y12.727
N2152 X-48.834 Y12.614
N2153 X-47.954 Y11.419
N2154 X-47.872 Y11.253
N2155 X-47.476 Y10.075
N2156 X-47.372 Y8.732
N2157 X-47.573 Y7.389
N2158 X-47.824 Y6.045
N2159 X-48.086 Y4.702
N2160 X-48.619 Y2.015
N2161 X-48.999 Y.672
N2162 X-49.301 Y-.239
N2163 X-49.461 Y-.672
N2164 X-50.15 Y-2.015
N2165 X-50.73 Y-2.952
N2166 X-51.05 Y-3.358
N2167 X-52.159 Y-4.565
N2168 X-52.322 Y-4.702
N2169 X-53.588 Y-5.503
N2170 X-54.945 Y-6.045
N2171 X-55.017 Y-6.063
N2172 X-56.446 Y-6.212
N2173 X-57.875 Y-6.085
N2174 X-58.052 Y-6.045
N2175 X-59.304 Y-5.563
N2176 X-60.679 Y-4.702
N2177 X-60.733 Y-4.657
N2178 X-61.971 Y-3.358
N2179 X-62.162 Y-3.109
N2180 X-62.85 Y-2.015
N2181 X-63.5 Y-.737
N2182 X-63.68 Y-.598
N2183 X-63.902 Y-.651
N2184 X-64. Y-.857
N2185 Y-8.732
N2186 X-63.842 Y-10.02
N2187 X-63.816 Y-10.128
N2188 X-63.609 Y-10.705
N2189 X-63.562 Y-10.802
N2190 X-63.211 Y-11.36
N2191 X-63.124 Y-11.465
N2192 X-62.215 Y-12.288
N2193 X-62.097 Y-12.367
N2194 X-61.323 Y-12.743
N2195 X-61.241 Y-12.774
N2196 X-60.785 Y-12.903
N2197 X-60.678 Y-12.921
N2198 X-59.304 Y-13.
N2199 X59.304
N2200 X60.678 Y-12.921
N2201 X60.785 Y-12.903
N2202 X61.241 Y-12.774
N2203 X61.323 Y-12.743
N2204 X62.097 Y-12.367
N2205 X62.215 Y-12.288
N2206 X63.124 Y-11.465
N2207 X63.211 Y-11.36
N2208 X63.562 Y-10.802
N2209 X63.609 Y-10.705
N2210 X63.816 Y-10.128
N2211 X63.842 Y-10.02
N2212 X64. Y-8.732
N2213 Y-.844
N2214 X63.843 Y-.599
N2215 X63.805 Y-.58
N2216 X63.631 Y-.572
N2217 X63.502 Y-.689
N2218 X62.867 Y-2.015
N2219 X62.162 Y-3.105
N2220 X61.965 Y-3.358
N2221 X60.733 Y-4.653
N2222 X60.674 Y-4.702
N2223 X59.304 Y-5.591
N2224 X58.086 Y-6.045
N2225 X57.875 Y-6.097
N2226 X56.446 Y-6.206
N2227 X55.017 Y-6.059
N2228 X54.953 Y-6.045
N2229 X53.588 Y-5.524
N2230 X52.367 Y-4.702
N2231 X52.159 Y-4.542
N2232 X51.064 Y-3.358
N2233 X50.73 Y-2.927
N2234 X50.144 Y-2.015
N2235 X49.464 Y-.672
N2236 X49.301 Y-.221
N2237 X48.964 Y.672
N2238 X48.614 Y2.015
N2239 X48.338 Y3.358
N2240 X48.07 Y4.702
N2241 X47.872 Y5.719
N2242 X47.57 Y7.389
N2243 X47.372 Y8.732
N2244 X47.476 Y10.075
N2245 X47.872 Y11.255
N2246 X47.953 Y11.419
N2247 X48.832 Y12.614
N2248 X48.848 Y12.727
N2249 X48.762 Y12.802
N2250 X47.925 Y12.988
N2251 X47.817 Y13.
N2252 X3.449
N2253 X3.068 Y12.823
N2254 X2.956 Y12.418
N2255 X3.193 Y12.071
N2256 X20.205 Y1.93
N2257 X20.442 Y1.582
N2258 X20.331 Y1.177
N2259 X19.949 Y1.
N2260 X3.449 Z41.418 F600.
N2261 X-35.44 F1500.
N2262 X-35.887 Y.895
N2263 X-36.239 Y.602
N2264 X-36.424 Y.182
N2265 X-36.361 Y-.391
N2266 X-35.993 Y-.834
N2267 X-35.44 Y-1.
N2268 X.001
N2269 X35.443
N2270 X35.993 Y-.835
N2271 X36.361 Y-.395
N2272 X36.427 Y.175
N2273 X36.244 Y.598
N2274 X35.891 Y.894
N2275 X35.443 Y1.
N2276 X3.449
N2277 X3.171 Y1.085
N2278 X2.987 Y1.309
N2279 X2.411 Y2.701
N2280 X2.227 Y2.926
N2281 X1.949 Y3.01
N2282 X-35.44
N2283 X-36.464 Y2.831
N2284 X-37.365 Y2.315
N2285 X-38.037 Y1.522
N2286 X-38.4 Y.549
N2287 X-38.749 Y-1.113
N2288 X-38.745 Y-1.805
N2289 X-38.442 Y-2.427
N2290 X-37.9 Y-2.857
N2291 X-37.226 Y-3.01
N2292 X.001
N2293 X37.234
N2294 X37.902 Y-2.859
N2295 X38.44 Y-2.434
N2296 X38.742 Y-1.818
N2297 X38.748 Y-1.133
N2298 X38.406 Y.527
N2299 X38.048 Y1.508
N2300 X37.376 Y2.307
N2301 X36.471 Y2.829
N2302 X35.443 Y3.01
N2303 X1.949
N2304 X1.639 Y3.118
N2305 X1.463 Y3.395
N2306 X.936 Y5.619
N2307 X.759 Y5.896
N2308 X.449 Y6.004
N2309 X-37.699
N2310 X-38.812 Y5.81
N2311 X-39.794 Y5.252
N2312 X-40.529 Y4.395
N2313 X-40.932 Y3.339
N2314 X-41.151 Y2.136
N2315 X-41.847 Y-1.184
N2316 X-42.921 Y-4.402
N2317 X-42.987 Y-4.965
N2318 X-42.784 Y-5.494
N2319 X-42.359 Y-5.869
N2320 X-41.809 Y-6.004
N2321 X.001
N2322 X41.82
N2323 X42.361 Y-5.871
N2324 X42.78 Y-5.503
N2325 X42.98 Y-4.983
N2326 X42.916 Y-4.429
N2327 X42.28 Y-2.634
N2328 X41.741 Y-.808
N2329 X40.952 Y3.296
N2330 X40.559 Y4.366
N2331 X39.824 Y5.238
N2332 X38.836 Y5.807
N2333 X37.712 Y6.004
N2334 X.449
N2335 X.142 Y6.109
N2336 X-.035 Y6.38
N2337 X-.566 Y8.461
N2338 X-.744 Y8.732
N2339 X-1.051 Y8.837
N2340 X-40.314
N2341 X-41.341 Y8.656
N2342 X-42.243 Y8.134
N2343 X-42.913 Y7.335
N2344 X-43.268 Y6.355
N2345 X-43.779 Y3.541
N2346 X-44.283 Y.825
N2347 X-44.987 Y-1.846
N2348 X-45.626 Y-3.515
N2349 X-46.371 Y-5.14
N2350 X-47.14 Y-6.469
N2351 X-48.069 Y-7.691
N2352 X-48.244 Y-8.175
N2353 X-48.034 Y-8.644
N2354 X-47.557 Y-8.837
N2355 X.001
N2356 X47.562
N2357 X47.941 Y-8.725
N2358 X48.198 Y-8.426
N2359 X48.252 Y-8.035
N2360 X48.086 Y-7.678
N2361 X47.163 Y-6.49
N2362 X46.404 Y-5.192
N2363 X45.677 Y-3.673
N2364 X45.079 Y-2.1
N2365 X44.592 Y-.498
N2366 X44.219 Y1.135
N2367 X43.952 Y2.625
N2368 X43.282 Y6.354
N2369 X42.922 Y7.335
N2370 X42.25 Y8.134
N2371 X41.345 Y8.656
N2372 X40.316 Y8.837
N2373 X-1.051
N2374 X-1.35 Y8.936
N2375 X-1.53 Y9.194
N2376 X-2.072 Y11.006
N2377 X-2.252 Y11.264
N2378 X-2.551 Y11.363
N2379 X-43.847
N2380 X-44.527 Y11.221
N2381 X-45.094 Y10.818
N2382 X-45.452 Y10.222
N2383 X-45.541 Y9.533
N2384 X-45.489 Y8.858
N2385 X-45.701 Y7.107
N2386 X-46.69 Y1.661
N2387 X-47.217 Y-.496
N2388 X-47.964 Y-2.588
N2389 X-48.76 Y-4.249
N2390 X-49.761 Y-5.796
N2391 X-51.079 Y-7.246
N2392 X-52.667 Y-8.349
N2393 X-53.578 Y-8.781
N2394 X-54.529 Y-9.117
N2395 X-56.446 Y-9.362
N2396 X-58.052 Y-9.198
N2397 X-58.972 Y-8.969
N2398 X-60.22 Y-8.427
N2399 X-61.263 Y-7.723
N2400 X-61.748 Y-7.608
N2401 X-62.187 Y-7.842
N2402 X-62.363 Y-8.307
N2403 X-62.249 Y-9.557
N2404 X-62.086 Y-10.054
N2405 X-61.777 Y-10.476
N2406 X-61.111 Y-11.018
N2407 X-60.302 Y-11.302
N2408 X-59.257 Y-11.363
N2409 X59.257
N2410 X60.299 Y-11.303
N2411 X60.872 Y-11.14
N2412 X61.382 Y-10.833
N2413 X61.831 Y-10.42
N2414 X62.157 Y-9.904
N2415 X62.363 Y-8.579
N2416 Y-8.295
N2417 X62.186 Y-7.825
N2418 X61.744 Y-7.588
N2419 X61.255 Y-7.702
N2420 X60.212 Y-8.397
N2421 X58.879 Y-8.974
N2422 X58.019 Y-9.173
N2423 X56.59 Y-9.299
N2424 X56.29 Y-9.298
N2425 X54.861 Y-9.162
N2426 X53.848 Y-8.875
N2427 X52.894 Y-8.431
N2428 X51.144 Y-7.289
N2429 X50.931 Y-7.085
N2430 X49.784 Y-5.785
N2431 X48.735 Y-4.196
N2432 X47.717 Y-1.989
N2433 X46.979 Y.325
N2434 X45.706 Y7.15
N2435 X45.508 Y8.494
N2436 X45.548 Y9.534
N2437 X45.459 Y10.223
N2438 X45.101 Y10.818
N2439 X44.535 Y11.221
N2440 X43.855 Y11.363
N2441 X-2.551
N2442 X-2.804 Y11.432
N2443 X-2.988 Y11.619
N2444 X-3.614 Y12.743
N2445 X-3.798 Y12.931
N2446 X-4.051 Y13.
N2447 X-47.8
N2448 X-47.94 Y12.98
N2449 X-48.507 Y12.815
N2450 X-48.593 Y12.732
N2451 X-48.571 Y12.614
N2452 X-47.872 Y11.725
N2453 X-47.701 Y11.419
N2454 X-47.225 Y10.075
N2455 X-47.121 Y8.732
N2456 X-47.313 Y7.389
N2457 X-47.548 Y6.045
N2458 X-47.794 Y4.702
N2459 X-47.872 Y4.302
N2460 X-48.039 Y3.358
N2461 X-48.288 Y2.015
N2462 X-48.586 Y.672
N2463 X-48.98 Y-.672
N2464 X-49.301 Y-1.489
N2465 X-49.497 Y-2.015
N2466 X-50.134 Y-3.358
N2467 X-50.73 Y-4.351
N2468 X-50.98 Y-4.702
N2469 X-52.159 Y-6.015
N2470 X-52.191 Y-6.045
N2471 X-53.588 Y-6.996
N2472 X-54.486 Y-7.389
N2473 X-55.017 Y-7.554
N2474 X-56.446 Y-7.725
N2475 X-57.875 Y-7.57
N2476 X-58.543 Y-7.389
N2477 X-59.304 Y-7.07
N2478 X-60.733 Y-6.106
N2479 X-60.803 Y-6.045
N2480 X-61.999 Y-4.702
N2481 X-62.162 Y-4.486
N2482 X-62.852 Y-3.358
N2483 X-63.502 Y-2.015
N2484 X-63.513 Y-1.987
N2485 X-63.625 Y-1.877
N2486 X-63.781 Y-1.891
N2487 X-63.862 Y-1.937
N2488 X-64. Y-2.174
N2489 Y-8.732
N2490 X-63.842 Y-10.02
N2491 X-63.816 Y-10.128
N2492 X-63.609 Y-10.705
N2493 X-63.562 Y-10.802
N2494 X-63.211 Y-11.36
N2495 X-63.124 Y-11.465
N2496 X-62.215 Y-12.288
N2497 X-62.097 Y-12.367
N2498 X-61.323 Y-12.743
N2499 X-61.241 Y-12.774
N2500 X-60.785 Y-12.903
N2501 X-60.678 Y-12.921
N2502 X-59.304 Y-13.
N2503 X59.304
N2504 X60.678 Y-12.921
N2505 X60.785 Y-12.903
N2506 X61.241 Y-12.774
N2507 X61.323 Y-12.743
N2508 X62.097 Y-12.367
N2509 X62.215 Y-12.288
N2510 X63.124 Y-11.465
N2511 X63.211 Y-11.36
N2512 X63.562 Y-10.802
N2513 X63.609 Y-10.705
N2514 X63.816 Y-10.128
N2515 X63.842 Y-10.02
N2516 X64. Y-8.732
N2517 Y-2.184
N2518 X63.848 Y-1.941
N2519 X63.797 Y-1.917
N2520 X63.634 Y-1.907
N2521 X63.512 Y-2.015
N2522 X62.86 Y-3.358
N2523 X62.162 Y-4.486
N2524 X62.001 Y-4.702
N2525 X60.78 Y-6.045
N2526 X60.733 Y-6.082
N2527 X59.304 Y-7.035
N2528 X58.471 Y-7.389
N2529 X57.875 Y-7.542
N2530 X56.446 Y-7.669
N2531 X55.017 Y-7.532
N2532 X54.529 Y-7.389
N2533 X53.588 Y-6.948
N2534 X52.209 Y-6.045
N2535 X52.159 Y-6.003
N2536 X51.012 Y-4.702
N2537 X50.73 Y-4.347
N2538 X50.142 Y-3.358
N2539 X49.483 Y-2.015
N2540 X48.989 Y-.672
N2541 X48.579 Y.672
N2542 X48.288 Y2.015
N2543 X48.049 Y3.358
N2544 X47.326 Y7.389
N2545 X47.128 Y8.732
N2546 X47.232 Y10.075
N2547 X47.709 Y11.419
N2548 X47.872 Y11.711
N2549 X48.582 Y12.614
N2550 X48.603 Y12.731
N2551 X48.517 Y12.814
N2552 X47.94 Y12.98
N2553 X47.801 Y13.
N2554 X-4.051
N2555 X-4.437 Y12.818
N2556 X-4.542 Y12.405
N2557 X-4.289 Y12.061
N2558 X12.688 Y2.849
N2559 X12.94 Y2.505
N2560 X12.835 Y2.091
N2561 X12.449 Y1.909
N2562 X-4.051 Z40.926 F600.
N2563 X-35.198 F1500.
N2564 X-35.849 Y1.794
N2565 X-36.423 Y1.464
N2566 X-36.849 Y.958
N2567 X-37.077 Y.337
N2568 X-37.109 Y.159
N2569 X-37.077 Y-.603
N2570 X-36.727 Y-1.279
N2571 X-36.123 Y-1.744
N2572 X-35.379 Y-1.909
N2573 X0
N2574 X35.395
N2575 X36.132 Y-1.746
N2576 X36.731 Y-1.286
N2577 X37.079 Y-.616
N2578 X37.111 Y.139
N2579 X37.076 Y.334
N2580 X36.849 Y.956
N2581 X36.423 Y1.463
N2582 X35.849 Y1.794
N2583 X35.196 Y1.909
N2584 X-4.051
N2585 X-4.363 Y2.018
N2586 X-4.538 Y2.298
N2587 X-5.063 Y4.601
N2588 X-5.239 Y4.88
N2589 X-5.551 Y4.989
N2590 X-36.629
N2591 X-37.75 Y4.792
N2592 X-38.736 Y4.223
N2593 X-39.468 Y3.351
N2594 X-39.859 Y2.282
N2595 X-40.349 Y-.433
N2596 X-40.959 Y-3.123
N2597 X-40.995 Y-3.792
N2598 X-40.728 Y-4.406
N2599 X-40.214 Y-4.835
N2600 X-39.562 Y-4.989
N2601 X0
N2602 X39.574
N2603 X40.223 Y-4.835
N2604 X40.733 Y-4.406
N2605 X40.996 Y-3.793
N2606 X40.954 Y-3.127
N2607 X40.346 Y-.433
N2608 X39.858 Y2.286
N2609 X39.468 Y3.354
N2610 X38.736 Y4.224
N2611 X37.751 Y4.792
N2612 X36.631 Y4.989
N2613 X-5.551
N2614 X-5.86 Y5.097
N2615 X-6.037 Y5.373
N2616 X-6.565 Y7.567
N2617 X-6.741 Y7.843
N2618 X-7.051 Y7.95
N2619 X-39.186
N2620 X-40.276 Y7.758
N2621 X-41.235 Y7.205
N2622 X-41.948 Y6.357
N2623 X-42.327 Y5.317
N2624 X-43.073 Y1.124
N2625 X-43.586 Y-1.468
N2626 X-44.336 Y-4.002
N2627 X-45.316 Y-6.457
N2628 X-45.4 Y-6.974
N2629 X-45.228 Y-7.468
N2630 X-44.842 Y-7.822
N2631 X-44.334 Y-7.95
N2632 X0
N2633 X44.337
N2634 X44.858 Y-7.817
N2635 X45.251 Y-7.45
N2636 X45.418 Y-6.939
N2637 X45.32 Y-6.41
N2638 X44.437 Y-4.31
N2639 X43.749 Y-2.139
N2640 X42.328 Y5.318
N2641 X41.951 Y6.357
N2642 X41.241 Y7.205
N2643 X40.284 Y7.758
N2644 X39.195 Y7.95
N2645 X-7.051
N2646 X-7.356 Y8.055
N2647 X-7.535 Y8.324
N2648 X-8.067 Y10.355
N2649 X-8.246 Y10.624
N2650 X-8.551 Y10.728
N2651 X-42.555
N2652 X-43.337 Y10.574
N2653 X-44.004 Y10.135
N2654 X-44.454 Y9.476
N2655 X-44.62 Y8.696
N2656 X-44.644 Y8.403
N2657 X-45.635 Y2.576
N2658 X-46.123 Y-.061
N2659 X-46.803 Y-2.656
N2660 X-48.094 Y-5.843
N2661 X-48.942 Y-7.276
N2662 X-50.303 Y-8.878
N2663 X-51.025 Y-9.514
N2664 X-51.814 Y-10.065
N2665 X-51.964 Y-10.323
N2666 X-51.873 Y-10.607
N2667 X-51.601 Y-10.728
N2668 X0
N2669 X51.638
N2670 X51.908 Y-10.605
N2671 X51.994 Y-10.321
N2672 X51.836 Y-10.069
N2673 X50.573 Y-9.187
N2674 X49.005 Y-7.356
N2675 X48.096 Y-5.778
N2676 X47.332 Y-4.125
N2677 X46.355 Y-1.128
N2678 X45.403 Y3.769
N2679 X44.626 Y8.696
N2680 X44.459 Y9.476
N2681 X44.01 Y10.135
N2682 X43.343 Y10.574
N2683 X42.56 Y10.728
N2684 X-8.551
N2685 X-8.841 Y10.821
N2686 X-9.023 Y11.064
N2687 X-9.579 Y12.664
N2688 X-9.761 Y12.907
N2689 X-10.051 Y13.
N2690 X-47.794
N2691 X-47.944 Y12.971
N2692 X-48.28 Y12.835
N2693 X-48.364 Y12.738
N2694 X-48.334 Y12.614
N2695 X-47.872 Y12.072
N2696 X-47.472 Y11.419
N2697 X-46.996 Y10.075
N2698 X-46.892 Y8.732
N2699 X-47.088 Y7.389
N2700 X-48.044 Y2.015
N2701 X-48.292 Y.672
N2702 X-48.588 Y-.672
N2703 X-48.982 Y-2.015
N2704 X-49.301 Y-2.896
N2705 X-49.479 Y-3.358
N2706 X-50.059 Y-4.702
N2707 X-50.73 Y-5.857
N2708 X-50.851 Y-6.045
N2709 X-52.018 Y-7.389
N2710 X-52.159 Y-7.519
N2711 X-53.588 Y-8.542
N2712 X-54.02 Y-8.732
N2713 X-55.017 Y-9.066
N2714 X-56.446 Y-9.274
N2715 X-57.875 Y-9.074
N2716 X-59.015 Y-8.732
N2717 X-59.304 Y-8.603
N2718 X-60.733 Y-7.608
N2719 X-60.985 Y-7.389
N2720 X-62.143 Y-6.045
N2721 X-62.932 Y-4.702
N2722 X-63.506 Y-3.429
N2723 X-63.638 Y-3.3
N2724 X-63.823 Y-3.295
N2725 X-63.828 Y-3.297
N2726 X-64. Y-3.541
N2727 Y-8.732
N2728 X-63.842 Y-10.02
N2729 X-63.816 Y-10.128
N2730 X-63.609 Y-10.705
N2731 X-63.562 Y-10.802
N2732 X-63.211 Y-11.36
N2733 X-63.124 Y-11.465
N2734 X-62.215 Y-12.288
N2735 X-62.097 Y-12.367
N2736 X-61.323 Y-12.743
N2737 X-61.241 Y-12.774
N2738 X-60.785 Y-12.903
N2739 X-60.678 Y-12.921
N2740 X-59.304 Y-13.
N2741 X56.446
N2742 X59.304
N2743 X60.678 Y-12.921
N2744 X60.785 Y-12.903
N2745 X61.241 Y-12.774
N2746 X61.323 Y-12.743
N2747 X62.097 Y-12.367
N2748 X62.215 Y-12.288
N2749 X63.124 Y-11.465
N2750 X63.211 Y-11.36
N2751 X63.562 Y-10.802
N2752 X63.609 Y-10.705
N2753 X63.816 Y-10.128
N2754 X63.842 Y-10.02
N2755 X64. Y-8.732
N2756 Y-3.566
N2757 X63.899 Y-3.357
N2758 X63.672 Y-3.308
N2759 X63.494 Y-3.456
N2760 X62.93 Y-4.702
N2761 X62.162 Y-5.961
N2762 X62.114 Y-6.045
N2763 X60.986 Y-7.389
N2764 X60.733 Y-7.59
N2765 X59.304 Y-8.623
N2766 X59.071 Y-8.732
N2767 X57.875 Y-9.089
N2768 X56.446 Y-9.28
N2769 X55.017 Y-9.108
N2770 X54.034 Y-8.732
N2771 X53.588 Y-8.504
N2772 X52.159 Y-7.56
N2773 X51.983 Y-7.389
N2774 X50.86 Y-6.045
N2775 X50.73 Y-5.861
N2776 X50.094 Y-4.702
N2777 X49.47 Y-3.358
N2778 X48.988 Y-2.015
N2779 X48.581 Y-.672
N2780 X48.305 Y.672
N2781 X48.042 Y2.015
N2782 X47.564 Y4.702
N2783 X47.092 Y7.389
N2784 X46.897 Y8.732
N2785 X47.002 Y10.075
N2786 X47.478 Y11.419
N2787 X47.872 Y12.063
N2788 X48.341 Y12.614
N2789 X48.37 Y12.738
N2790 X48.287 Y12.834
N2791 X47.944 Y12.971
N2792 X47.794 Y13.
N2793 X-10.051
N2794 X-10.434 Y12.821
N2795 X-10.543 Y12.412
N2796 X-10.3 Y12.066
N2797 X6.698 Y2.308
N2798 X6.941 Y1.962
N2799 X6.832 Y1.553
N2800 X6.449 Y1.374
N2801 X-10.051 Z40.426 F600.
N2802 X-34.962 F1500.
N2803 X-35.578 Y1.229
N2804 X-36.063 Y.822
N2805 X-36.315 Y.241
N2806 X-36.29 Y-.354
N2807 X-36.016 Y-.882
N2808 X-35.543 Y-1.245
N2809 X-34.962 Y-1.374
N2810 X-.003
N2811 X34.956
N2812 X35.537 Y-1.245
N2813 X36.009 Y-.883
N2814 X36.284 Y-.354
N2815 X36.309 Y.24
N2816 X36.058 Y.822
N2817 X35.572 Y1.229
N2818 X34.956 Y1.374
N2819 X-10.051
N2820 X-10.363 Y1.484
N2821 X-10.539 Y1.764
N2822 X-11.063 Y4.086
N2823 X-11.239 Y4.366
N2824 X-11.551 Y4.476
N2825 X-35.958
N2826 X-37.081 Y4.278
N2827 X-38.068 Y3.709
N2828 X-38.802 Y2.837
N2829 X-39.193 Y1.767
N2830 X-39.97 Y-2.466
N2831 X-39.959 Y-3.201
N2832 X-39.633 Y-3.859
N2833 X-39.055 Y-4.314
N2834 X-38.339 Y-4.476
N2835 X-.003
N2836 X38.325
N2837 X39.042 Y-4.314
N2838 X39.62 Y-3.861
N2839 X39.948 Y-3.203
N2840 X39.962 Y-2.468
N2841 X39.188 Y1.765
N2842 X38.797 Y2.836
N2843 X38.064 Y3.708
N2844 X37.076 Y4.278
N2845 X35.953 Y4.476
N2846 X-11.551
N2847 X-11.862 Y4.584
N2848 X-12.038 Y4.863
N2849 X-12.564 Y7.126
N2850 X-12.74 Y7.404
N2851 X-13.051 Y7.512
N2852 X-38.558
N2853 X-39.657 Y7.319
N2854 X-40.624 Y6.762
N2855 X-41.343 Y5.907
N2856 X-41.726 Y4.859
N2857 X-42.645 Y-.292
N2858 X-43.205 Y-3.07
N2859 X-43.968 Y-5.8
N2860 X-44.013 Y-6.41
N2861 X-43.778 Y-6.974
N2862 X-43.312 Y-7.37
N2863 X-42.717 Y-7.512
N2864 X-.003
N2865 X42.717
N2866 X43.321 Y-7.367
N2867 X43.793 Y-6.961
N2868 X44.027 Y-6.385
N2869 X43.974 Y-5.766
N2870 X43.196 Y-3.121
N2871 X41.721 Y4.858
N2872 X41.337 Y5.907
N2873 X40.618 Y6.761
N2874 X39.65 Y7.319
N2875 X38.55 Y7.512
N2876 X-13.051
N2877 X-13.359 Y7.619
N2878 X-13.536 Y7.892
N2879 X-14.066 Y10.029
N2880 X-14.243 Y10.303
N2881 X-14.551 Y10.409
N2882 X-41.838
N2883 X-42.639 Y10.262
N2884 X-43.336 Y9.84
N2885 X-43.838 Y9.199
N2886 X-44.08 Y8.421
N2887 X-44.298 Y6.934
N2888 X-45.497 Y.217
N2889 X-46.084 Y-2.691
N2890 X-47.004 Y-5.712
N2891 X-47.772 Y-7.47
N2892 X-48.734 Y-9.13
N2893 X-48.892 Y-9.537
N2894 X-48.813 Y-9.966
N2895 X-48.519 Y-10.289
N2896 X-48.099 Y-10.409
N2897 X-.003
N2898 X48.159
N2899 X48.569 Y-10.291
N2900 X48.853 Y-9.974
N2901 X48.925 Y-9.554
N2902 X48.764 Y-9.16
N2903 X48.463 Y-8.728
N2904 X47.675 Y-7.281
N2905 X46.784 Y-5.036
N2906 X46.08 Y-2.726
N2907 X45.011 Y2.836
N2908 X44.073 Y8.422
N2909 X43.831 Y9.199
N2910 X43.329 Y9.84
N2911 X42.632 Y10.262
N2912 X41.831 Y10.409
N2913 X-14.551
N2914 X-14.852 Y10.509
N2915 X-15.031 Y10.77
N2916 X-15.571 Y12.639
N2917 X-15.75 Y12.9
N2918 X-16.051 Y13.
N2919 X-47.783
N2920 X-47.945 Y12.95
N2921 X-48.041 Y12.885
N2922 X-48.122 Y12.751
N2923 X-48.074 Y12.601
N2924 X-47.872 Y12.382
N2925 X-47.233 Y11.419
N2926 X-46.756 Y10.075
N2927 X-46.652 Y8.732
N2928 X-46.849 Y7.389
N2929 X-48.047 Y.672
N2930 X-48.303 Y-.672
N2931 X-48.585 Y-2.015
N2932 X-48.949 Y-3.358
N2933 X-49.301 Y-4.46
N2934 X-49.391 Y-4.702
N2935 X-49.959 Y-6.045
N2936 X-50.68 Y-7.389
N2937 X-50.73 Y-7.474
N2938 X-51.685 Y-8.732
N2939 X-52.159 Y-9.216
N2940 X-53.27 Y-10.075
N2941 X-53.588 Y-10.255
N2942 X-55.017 Y-10.79
N2943 X-56.446 Y-10.989
N2944 X-57.875 Y-10.822
N2945 X-59.304 Y-10.286
N2946 X-59.714 Y-10.075
N2947 X-60.733 Y-9.316
N2948 X-61.317 Y-8.732
N2949 X-62.162 Y-7.649
N2950 X-62.314 Y-7.389
N2951 X-63.043 Y-6.045
N2952 X-63.554 Y-4.848
N2953 X-63.709 Y-4.715
N2954 X-63.91 Y-4.756
N2955 X-64. Y-4.94
N2956 Y-8.732
N2957 X-63.842 Y-10.02
N2958 X-63.816 Y-10.128
N2959 X-63.609 Y-10.705
N2960 X-63.562 Y-10.802
N2961 X-63.211 Y-11.36
N2962 X-63.124 Y-11.465
N2963 X-62.215 Y-12.288
N2964 X-62.097 Y-12.367
N2965 X-61.323 Y-12.743
N2966 X-61.241 Y-12.774
N2967 X-60.785 Y-12.903
N2968 X-60.678 Y-12.921
N2969 X-59.304 Y-13.
N2970 X56.446
N2971 X59.304
N2972 X60.678 Y-12.921
N2973 X60.785 Y-12.903
N2974 X61.241 Y-12.774
N2975 X61.323 Y-12.743
N2976 X62.097 Y-12.367
N2977 X62.215 Y-12.288
N2978 X63.124 Y-11.465
N2979 X63.211 Y-11.36
N2980 X63.562 Y-10.802
N2981 X63.609 Y-10.705
N2982 X63.816 Y-10.128
N2983 X63.842 Y-10.02
N2984 X64. Y-8.732
N2985 Y-4.943
N2986 X63.929 Y-4.773
N2987 X63.759 Y-4.702
N2988 X63.533 Y-4.854
N2989 X63.057 Y-6.045
N2990 X62.302 Y-7.389
N2991 X62.162 Y-7.631
N2992 X61.262 Y-8.732
N2993 X60.733 Y-9.291
N2994 X59.711 Y-10.075
N2995 X59.304 Y-10.289
N2996 X57.875 Y-10.785
N2997 X56.446 Y-10.986
N2998 X55.017 Y-10.778
N2999 X53.588 Y-10.217
N3000 X53.313 Y-10.075
N3001 X52.159 Y-9.207
N3002 X51.729 Y-8.732
N3003 X50.73 Y-7.469
N3004 X50.682 Y-7.389
N3005 X49.952 Y-6.045
N3006 X49.412 Y-4.702
N3007 X49.301 Y-4.392
N3008 X48.955 Y-3.358
N3009 X48.571 Y-2.015
N3010 X48.295 Y-.672
N3011 X48.04 Y.672
N3012 X46.843 Y7.389
N3013 X46.645 Y8.732
N3014 X46.749 Y10.075
N3015 X47.226 Y11.419
N3016 X47.872 Y12.39
N3017 X48.066 Y12.601
N3018 X48.116 Y12.751
N3019 X48.035 Y12.887
N3020 X47.945 Y12.949
N3021 X47.783 Y13.
N3022 X-16.051
N3023 X-16.433 Y12.823
N3024 X-16.544 Y12.417
N3025 X-16.307 Y12.07
N3026 X.705 Y1.948
N3027 X.942 Y1.601
N3028 X.831 Y1.195
N3029 X.449 Y1.018
N3030 X-.001 Z40.412 F600.
N3031 X-16.051 Z39.926
N3032 X-34.7 F1500.
N3033 X-35.154 Y.912
N3034 X-35.512 Y.614
N3035 X-35.701 Y.189
N3036 X-35.638 Y-.396
N3037 X-35.263 Y-.849
N3038 X-34.7 Y-1.018
N3039 X34.698
N3040 X35.259 Y-.85
N3041 X35.635 Y-.399
N3042 X35.699 Y.184
N3043 X35.512 Y.612
N3044 X35.153 Y.911
N3045 X34.698 Y1.018
N3046 X-.001
N3047 X-16.051
N3048 X-16.363 Y1.128
N3049 X-16.539 Y1.408
N3050 X-17.063 Y3.729
N3051 X-17.239 Y4.009
N3052 X-17.551 Y4.119
N3053 X-35.32
N3054 X-36.242 Y3.99
N3055 X-37.093 Y3.615
N3056 X-37.81 Y3.021
N3057 X-38.336 Y2.254
N3058 X-38.633 Y1.372
N3059 X-39.251 Y-2.032
N3060 X-39.219 Y-2.8
N3061 X-38.865 Y-3.483
N3062 X-38.255 Y-3.952
N3063 X-37.504 Y-4.119
N3064 X37.512
N3065 X38.264 Y-3.951
N3066 X38.875 Y-3.481
N3067 X39.227 Y-2.795
N3068 X39.256 Y-2.025
N3069 X38.634 Y1.37
N3070 X38.341 Y2.252
N3071 X37.818 Y3.019
N3072 X37.104 Y3.614
N3073 X36.255 Y3.99
N3074 X35.335 Y4.119
N3075 X-.001
N3076 X-17.551
N3077 X-17.863 Y4.228
N3078 X-18.039 Y4.508
N3079 X-18.563 Y6.817
N3080 X-18.739 Y7.097
N3081 X-19.051 Y7.206
N3082 X-37.904
N3083 X-39.029 Y7.01
N3084 X-40.022 Y6.445
N3085 X-40.765 Y5.578
N3086 X-41.172 Y4.51
N3087 X-42.567 Y-3.035
N3088 X-43.065 Y-5.296
N3089 X-43.078 Y-5.988
N3090 X-42.786 Y-6.615
N3091 X-42.249 Y-7.05
N3092 X-41.575 Y-7.206
N3093 X41.55
N3094 X42.226 Y-7.051
N3095 X42.767 Y-6.617
N3096 X43.064 Y-5.99
N3097 X43.059 Y-5.296
N3098 X42.577 Y-3.042
N3099 X41.182 Y4.507
N3100 X40.77 Y5.577
N3101 X40.023 Y6.445
N3102 X39.026 Y7.01
N3103 X37.897 Y7.206
N3104 X-.001
N3105 X-19.051
N3106 X-19.361 Y7.314
N3107 X-19.538 Y7.591
N3108 X-20.064 Y9.819
N3109 X-20.241 Y10.096
N3110 X-20.551 Y10.204
N3111 X-41.227
N3112 X-42.054 Y10.054
N3113 X-42.775 Y9.624
N3114 X-43.301 Y8.969
N3115 X-43.563 Y8.17
N3116 X-43.698 Y7.235
N3117 X-44.549 Y2.834
N3118 X-45.816 Y-3.934
N3119 X-46.444 Y-6.3
N3120 X-47.281 Y-8.599
N3121 X-47.39 Y-9.148
N3122 X-47.219 Y-9.68
N3123 X-46.813 Y-10.064
N3124 X-46.272 Y-10.204
N3125 X46.319
N3126 X46.849 Y-10.066
N3127 X47.246 Y-9.688
N3128 X47.408 Y-9.166
N3129 X47.296 Y-8.63
N3130 X46.443 Y-6.357
N3131 X45.833 Y-4.006
N3132 X44.303 Y4.175
N3133 X43.563 Y8.172
N3134 X43.3 Y8.97
N3135 X42.775 Y9.625
N3136 X42.053 Y10.054
N3137 X41.226 Y10.204
N3138 X-.001
N3139 X-20.551
N3140 X-20.857 Y10.308
N3141 X-21.035 Y10.578
N3142 X-21.567 Y12.626
N3143 X-21.745 Y12.896
N3144 X-22.051 Y13.
N3145 X-47.644
N3146 X-47.831 Y12.885
N3147 X-47.812 Y12.668
N3148 X-46.892 Y11.419
N3149 X-46.443 Y10.21
N3150 X-46.413 Y10.075
N3151 X-46.308 Y8.732
N3152 X-46.443 Y7.766
N3153 X-47.296 Y3.358
N3154 X-47.549 Y2.015
N3155 X-48.27 Y-2.015
N3156 X-48.553 Y-3.358
N3157 X-48.889 Y-4.702
N3158 X-49.301 Y-6.066
N3159 X-49.801 Y-7.389
N3160 X-50.449 Y-8.732
N3161 X-50.73 Y-9.191
N3162 X-51.342 Y-10.075
N3163 X-52.159 Y-10.931
N3164 X-52.756 Y-11.419
N3165 X-53.588 Y-11.993
N3166 X-55.017 Y-12.547
N3167 X-56.446 Y-12.752
N3168 X-57.875 Y-12.592
N3169 X-59.304 Y-12.022
N3170 X-60.32 Y-11.419
N3171 X-60.733 Y-11.078
N3172 X-61.621 Y-10.075
N3173 X-62.162 Y-9.383
N3174 X-62.545 Y-8.732
N3175 X-63.203 Y-7.389
N3176 X-63.646 Y-6.199
N3177 X-63.849 Y-6.081
N3178 X-64. Y-6.261
N3179 Y-8.732
N3180 X-63.842 Y-10.02
N3181 X-63.816 Y-10.128
N3182 X-63.609 Y-10.705
N3183 X-63.562 Y-10.802
N3184 X-63.211 Y-11.36
N3185 X-63.124 Y-11.465
N3186 X-62.215 Y-12.288
N3187 X-62.097 Y-12.367
N3188 X-61.323 Y-12.743
N3189 X-61.241 Y-12.774
N3190 X-60.785 Y-12.903
N3191 X-60.678 Y-12.921
N3192 X-59.304 Y-13.
N3193 X56.446
N3194 X59.304
N3195 X60.678 Y-12.921
N3196 X60.785 Y-12.903
N3197 X61.241 Y-12.774
N3198 X61.323 Y-12.743
N3199 X62.097 Y-12.367
N3200 X62.215 Y-12.288
N3201 X63.124 Y-11.465
N3202 X63.211 Y-11.36
N3203 X63.562 Y-10.802
N3204 X63.609 Y-10.705
N3205 X63.816 Y-10.128
N3206 X63.842 Y-10.02
N3207 X64. Y-8.732
N3208 Y-6.266
N3209 X63.84 Y-6.075
N3210 X63.624 Y-6.2
N3211 X63.202 Y-7.389
N3212 X62.533 Y-8.732
N3213 X62.162 Y-9.386
N3214 X61.616 Y-10.075
N3215 X60.733 Y-11.07
N3216 X60.317 Y-11.419
N3217 X59.304 Y-12.014
N3218 X57.875 Y-12.583
N3219 X56.446 Y-12.756
N3220 X55.017 Y-12.518
N3221 X53.588 Y-12.
N3222 X52.685 Y-11.419
N3223 X52.159 Y-10.931
N3224 X51.343 Y-10.075
N3225 X50.73 Y-9.188
N3226 X50.487 Y-8.732
N3227 X49.802 Y-7.389
N3228 X49.276 Y-6.045
N3229 X48.873 Y-4.702
N3230 X48.553 Y-3.358
N3231 X48.279 Y-2.015
N3232 X48.038 Y-.672
N3233 X47.299 Y3.358
N3234 X47.049 Y4.702
N3235 X46.443 Y7.77
N3236 X46.308 Y8.732
N3237 X46.412 Y10.075
N3238 X46.443 Y10.211
N3239 X46.892 Y11.419
N3240 X47.812 Y12.667
N3241 X47.831 Y12.885
N3242 X47.644 Y13.
N3243 X-22.051
N3244 X-22.432 Y12.823
N3245 X-22.544 Y12.418
N3246 X-22.307 Y12.071
N3247 X-5.295 Y1.93
N3248 X-5.058 Y1.582
N3249 X-5.169 Y1.177
N3250 X-5.551 Y1.
N3251 X-22.051 Z39.431 F600.
N3252 X-34.357 F1500.
N3253 X-34.801 Y.896
N3254 X-35.152 Y.606
N3255 X-35.339 Y.19
N3256 X-35.279 Y-.386
N3257 X-34.911 Y-.833
N3258 X-34.357 Y-1.
N3259 X.005
N3260 X34.366
N3261 X34.921 Y-.832
N3262 X35.29 Y-.384
N3263 X35.347 Y.194
N3264 X35.16 Y.608
N3265 X34.809 Y.897
N3266 X34.366 Y1.
N3267 X-22.051
N3268 X-22.36 Y1.107
N3269 X-22.537 Y1.383
N3270 X-23.065 Y3.566
N3271 X-23.242 Y3.842
N3272 X-23.551 Y3.949
N3273 X-34.827
N3274 X-35.748 Y3.821
N3275 X-36.599 Y3.447
N3276 X-37.315 Y2.856
N3277 X-37.844 Y2.092
N3278 X-38.144 Y1.212
N3279 X-38.74 Y-1.866
N3280 X-38.717 Y-2.63
N3281 X-38.371 Y-3.312
N3282 X-37.767 Y-3.782
N3283 X-37.021 Y-3.949
N3284 X.005
N3285 X37.008
N3286 X37.763 Y-3.78
N3287 X38.375 Y-3.305
N3288 X38.726 Y-2.616
N3289 X38.75 Y-1.842
N3290 X38.153 Y1.205
N3291 X37.848 Y2.087
N3292 X37.315 Y2.854
N3293 X36.594 Y3.446
N3294 X35.739 Y3.821
N3295 X34.814 Y3.949
N3296 X-23.551
N3297 X-23.863 Y4.058
N3298 X-24.039 Y4.338
N3299 X-24.563 Y6.65
N3300 X-24.739 Y6.93
N3301 X-25.051 Y7.04
N3302 X-37.384
N3303 X-38.522 Y6.842
N3304 X-39.526 Y6.271
N3305 X-40.279 Y5.394
N3306 X-40.69 Y4.314
N3307 X-42.396 Y-4.491
N3308 X-42.497 Y-5.004
N3309 X-42.477 Y-5.75
N3310 X-42.141 Y-6.417
N3311 X-41.552 Y-6.876
N3312 X-40.823 Y-7.04
N3313 X.005
N3314 X40.808
N3315 X41.539 Y-6.876
N3316 X42.129 Y-6.415
N3317 X42.465 Y-5.745
N3318 X42.483 Y-4.997
N3319 X41.634 Y-.466
N3320 X40.68 Y4.352
N3321 X40.267 Y5.417
N3322 X39.52 Y6.282
N3323 X38.526 Y6.845
N3324 X37.4 Y7.04
N3325 X-25.051
N3326 X-25.362 Y7.149
N3327 X-25.538 Y7.428
N3328 X-26.064 Y9.712
N3329 X-26.24 Y9.991
N3330 X-26.551 Y10.1
N3331 X-40.707
N3332 X-41.54 Y9.952
N3333 X-42.271 Y9.526
N3334 X-42.812 Y8.875
N3335 X-43.095 Y8.077
N3336 X-43.309 Y6.806
N3337 X-43.582 Y5.477
N3338 X-45.4 Y-3.909
N3339 X-45.666 Y-5.262
N3340 X-46.447 Y-8.334
N3341 X-46.493 Y-8.963
N3342 X-46.249 Y-9.545
N3343 X-45.768 Y-9.953
N3344 X-45.155 Y-10.1
N3345 X.005
N3346 X45.175
N3347 X45.774 Y-9.957
N3348 X46.244 Y-9.56
N3349 X46.484 Y-8.993
N3350 X46.442 Y-8.379
N3351 X45.667 Y-5.314
N3352 X44.638 Y.118
N3353 X43.104 Y8.073
N3354 X42.823 Y8.872
N3355 X42.283 Y9.525
N3356 X41.551 Y9.951
N3357 X40.717 Y10.1
N3358 X-26.551
N3359 X-26.859 Y10.206
N3360 X-27.036 Y10.48
N3361 X-27.566 Y12.62
N3362 X-27.743 Y12.894
N3363 X-28.051 Y13.
N3364 X-46.388
N3365 X-46.496 Y12.988
N3366 X-47.336 Y12.802
N3367 X-47.421 Y12.727
N3368 X-47.405 Y12.615
N3369 X-46.513 Y11.419
N3370 X-46.443 Y11.279
N3371 X-46.031 Y10.075
N3372 X-45.926 Y8.732
N3373 X-46.15 Y7.389
N3374 X-46.426 Y6.045
N3375 X-48.247 Y-3.358
N3376 X-48.512 Y-4.702
N3377 X-48.807 Y-6.045
N3378 X-49.19 Y-7.389
N3379 X-49.301 Y-7.738
N3380 X-49.651 Y-8.732
N3381 X-50.225 Y-10.075
N3382 X-50.73 Y-10.97
N3383 X-51.03 Y-11.419
N3384 X-52.086 Y-12.688
N3385 X-52.112 Y-12.891
N3386 X-51.94 Y-13.
N3387 X.005
N3388 X51.934
N3389 X52.118 Y-12.882
N3390 X52.087 Y-12.666
N3391 X51.009 Y-11.419
N3392 X50.73 Y-11.001
N3393 X50.23 Y-10.075
N3394 X49.656 Y-8.732
N3395 X49.301 Y-7.805
N3396 X49.171 Y-7.389
N3397 X48.792 Y-6.045
N3398 X48.502 Y-4.702
N3399 X48.234 Y-3.358
N3400 X47.741 Y-.672
N3401 X47.485 Y.672
N3402 X46.688 Y4.702
N3403 X46.443 Y5.927
N3404 X46.156 Y7.389
N3405 X45.935 Y8.732
N3406 X46.041 Y10.075
N3407 X46.443 Y11.258
N3408 X46.523 Y11.419
N3409 X47.416 Y12.615
N3410 X47.432 Y12.727
N3411 X47.346 Y12.802
N3412 X46.496 Y12.988
N3413 X46.389 Y13.
N3414 X-28.051
N3415 Z41.931
N3416 G00 Z42.914
N3417 X-61.177 Y-12.362
N3418 Z42.426
N3419 G01 Z39.926 F600.
N3420 X-61.972 Y-11.419 Z39.894
N3421 X-62.162 Y-11.164 Z39.885
N3422 X-62.76 Y-10.075 Z39.853
N3423 X-63.353 Y-8.732 Z39.814
N3424 X-63.764 Y-7.534 Z39.781
N3425 X-64. Y-7.574 Z39.772
N3426 Y-8.732 Z39.742
N3427 X-63.842 Y-10.021 Z39.708
N3428 X-63.816 Y-10.127 Z39.705
N3429 X-63.609 Y-10.705 Z39.689
N3430 X-63.562 Y-10.802 Z39.686
N3431 X-63.211 Y-11.36 Z39.669
N3432 X-63.124 Y-11.465 Z39.666
N3433 X-62.214 Y-12.289 Z39.633
N3434 X-62.098 Y-12.367 Z39.63
N3435 X-61.323 Y-12.743 Z39.607
N3436 X-61.241 Y-12.774 Z39.605
N3437 X-60.874 Y-12.878 Z39.595
N3438 X-60.82 Y-12.78 Z39.591
N3439 X-60.839 Y-12.762 Z39.59
N3440 X-61.972 Y-11.419 Z39.544
N3441 X-62.162 Y-11.164 Z39.536
N3442 X-62.76 Y-10.075 Z39.504
N3443 X-63.353 Y-8.732 Z39.465
N3444 X-63.764 Y-7.534 Z39.432
N3445 X-63.91 Y-7.456 Z39.431 F1500.
N3446 X-64. Y-7.574
N3447 Y-8.732
N3448 X-63.842 Y-10.021
N3449 X-63.816 Y-10.127
N3450 X-63.609 Y-10.705
N3451 X-63.562 Y-10.802
N3452 X-63.211 Y-11.36
N3453 X-63.124 Y-11.465
N3454 X-62.214 Y-12.289
N3455 X-62.098 Y-12.367
N3456 X-61.323 Y-12.743
N3457 X-61.241 Y-12.774
N3458 X-60.874 Y-12.878
N3459 X-60.82 Y-12.78
N3460 X-60.839 Y-12.762
N3461 X-61.972 Y-11.419
N3462 X-62.162 Y-11.164
N3463 X-62.76 Y-10.075
N3464 X-63.353 Y-8.732
N3465 X-63.764 Y-7.534
N3466 X-63.773 Y-7.513 Z41.931
N3467 G00 Z42.914
N3468 X63.575 Y-8.07
N3469 Z42.426
N3470 G01 Z39.926 F600.
N3471 X63.358 Y-8.732 Z39.908
N3472 X62.751 Y-10.075 Z39.869
N3473 X62.162 Y-11.159 Z39.837
N3474 X61.968 Y-11.419 Z39.828
N3475 X60.837 Y-12.762 Z39.783
N3476 X60.82 Y-12.778 Z39.782
N3477 X60.875 Y-12.877 Z39.778
N3478 X61.241 Y-12.774 Z39.768
N3479 X61.323 Y-12.743 Z39.766
N3480 X61.677 Y-12.571 Z39.755
N3481 X62.097 Y-12.367 Z39.743
N3482 X62.215 Y-12.288 Z39.739
N3483 X63.124 Y-11.465 Z39.707
N3484 X63.211 Y-11.36 Z39.704
N3485 X63.562 Y-10.802 Z39.687
N3486 X63.609 Y-10.705 Z39.684
N3487 X63.816 Y-10.127 Z39.668
N3488 X63.842 Y-10.02 Z39.665
N3489 X64. Y-8.732 Z39.631
N3490 Y-7.579 Z39.601
N3491 X63.889 Y-7.449 Z39.596
N3492 X63.744 Y-7.539 Z39.591
N3493 X63.591 Y-8.021 Z39.578
N3494 X63.358 Y-8.732 Z39.558
N3495 X62.751 Y-10.075 Z39.52
N3496 X62.162 Y-11.159 Z39.488
N3497 X61.968 Y-11.419 Z39.479
N3498 X60.837 Y-12.762 Z39.433
N3499 X60.82 Y-12.778
N3500 X60.875 Y-12.877 Z39.431 F1500.
N3501 X61.241 Y-12.774
N3502 X61.323 Y-12.743
N3503 X61.677 Y-12.571
N3504 X62.097 Y-12.367
N3505 X62.215 Y-12.288
N3506 X63.124 Y-11.465
N3507 X63.211 Y-11.36
N3508 X63.562 Y-10.802
N3509 X63.609 Y-10.705
N3510 X63.816 Y-10.127
N3511 X63.842 Y-10.02
N3512 X64. Y-8.732
N3513 Y-7.579
N3514 X63.889 Y-7.449
N3515 X63.744 Y-7.539
N3516 X63.591 Y-8.021
N3517 X63.358 Y-8.732
N3518 X62.751 Y-10.075
N3519 X62.162 Y-11.159
N3520 X61.968 Y-11.419
N3521 X60.837 Y-12.762
N3522 X60.82 Y-12.778
N3523 X62.252 Y-11.287
N3524 X62.66 Y-11.133
N3525 X63.033 Y-11.357
N3526 X63.073 Y-11.394 Z39.43 F600.
N3527 X63.214 Y-11.356 Z39.425
N3528 X63.562 Y-10.802 Z39.406
N3529 X63.609 Y-10.705 Z39.403
N3530 X63.625 Y-10.661 Z39.401
N3531 X63.801 Y-10.171 Z39.386
N3532 X63.817 Y-10.127 Z39.385
N3533 X63.842 Y-10.021 Z39.381
N3534 X63.983 Y-8.871 Z39.347
N3535 X63.944 Y-8.818 Z39.345
N3536 X63.888 Y-8.852 Z39.343
N3537 X63.591 Y-9.903 Z39.311
N3538 X63.535 Y-10.075 Z39.306
N3539 X63.024 Y-11.256 Z39.268
N3540 X63.033 Y-11.357 Z39.265
N3541 X63.073 Y-11.394 Z39.263
N3542 X63.214 Y-11.356 Z39.258
N3543 X63.562 Y-10.802 Z39.239
N3544 X63.609 Y-10.705 Z39.236
N3545 X63.625 Y-10.661 Z39.235
N3546 X63.801 Y-10.171 Z39.219
N3547 X63.817 Y-10.127 Z39.218
N3548 X63.842 Y-10.021 Z39.215
N3549 X63.983 Y-8.871 Z39.181
N3550 X63.944 Y-8.818 Z39.179
N3551 X63.888 Y-8.852 Z39.176
N3552 X63.591 Y-9.903 Z39.144
N3553 X63.535 Y-10.075 Z39.139
N3554 X63.024 Y-11.256 Z39.101
N3555 X63.033 Y-11.357 Z39.098
N3556 X63.073 Y-11.394 Z39.097
N3557 X63.214 Y-11.356 Z39.092
N3558 X63.562 Y-10.802 Z39.073
N3559 X63.609 Y-10.705 Z39.069
N3560 X63.625 Y-10.661 Z39.068
N3561 X63.801 Y-10.171 Z39.053
N3562 X63.817 Y-10.127 Z39.051
N3563 X63.842 Y-10.021 Z39.048
N3564 X63.983 Y-8.871 Z39.014
N3565 X63.944 Y-8.818 Z39.012
N3566 X63.888 Y-8.852 Z39.01
N3567 X63.591 Y-9.903 Z38.978
N3568 X63.535 Y-10.075 Z38.972
N3569 X63.024 Y-11.256 Z38.935
N3570 X63.033 Y-11.357 Z38.931
N3571 X63.073 Y-11.394 F1500.
N3572 X63.214 Y-11.356
N3573 X63.562 Y-10.802
N3574 X63.609 Y-10.705
N3575 X63.625 Y-10.661
N3576 X63.801 Y-10.171
N3577 X63.817 Y-10.127
N3578 X63.842 Y-10.021
N3579 X63.983 Y-8.871
N3580 X63.944 Y-8.818
N3581 X63.888 Y-8.852
N3582 X63.591 Y-9.903
N3583 X63.535 Y-10.075
N3584 X63.024 Y-11.256
N3585 X63.033 Y-11.357
N3586 Z41.431
N3587 G00 Z42.414
N3588 X18.453 Y-1.
N3589 Z41.931
N3590 G01 Z39.431 F600.
N3591 X33.985 Z38.967
N3592 X34.549 Y-.826 Z38.949
N3593 X34.916 Y-.364 Z38.931
N3594 X34.964 Y.204 F1500.
N3595 X34.774 Y.614
N3596 X34.424 Y.898
N3597 X33.985 Y1.
N3598 X-33.976
N3599 X-34.414 Y.899
N3600 X-34.764 Y.616
N3601 X-34.954 Y.208
N3602 X-34.903 Y-.375
N3603 X-34.535 Y-.829
N3604 X-33.976 Y-1.
N3605 X.004
N3606 X33.985
N3607 X34.549 Y-.826
N3608 X34.916 Y-.364
N3609 X35.143 Y-.107
N3610 X37.262 Y1.042
N3611 X37.496 Y1.317
N3612 X37.484 Y1.678
N3613 X36.944 Y2.559
N3614 X36.174 Y3.248
N3615 X35.238 Y3.687
N3616 X34.215 Y3.837
N3617 X-34.222
N3618 X-35.172 Y3.707
N3619 X-36.052 Y3.326
N3620 X-36.797 Y2.722
N3621 X-37.353 Y1.941
N3622 X-37.678 Y1.038
N3623 X-38.236 Y-1.756
N3624 X-38.215 Y-2.519
N3625 X-37.869 Y-3.201
N3626 X-37.266 Y-3.67
N3627 X-36.521 Y-3.837
N3628 X.004
N3629 X36.559
N3630 X37.298 Y-3.671
N3631 X37.896 Y-3.204
N3632 X38.236 Y-2.526
N3633 X38.253 Y-1.768
N3634 X37.694 Y1.009
N3635 X37.484 Y1.678
N3636 X37.481 Y2.063
N3637 X37.754 Y2.336
N3638 X39.934 Y3.232
N3639 X40.187 Y3.462
N3640 X40.232 Y3.802
N3641 X40.142 Y4.21
N3642 X39.694 Y5.29
N3643 X38.915 Y6.161
N3644 X37.892 Y6.726
N3645 X36.739 Y6.922
N3646 X-36.753
N3647 X-37.902 Y6.726
N3648 X-38.922 Y6.161
N3649 X-39.697 Y5.29
N3650 X-40.139 Y4.211
N3651 X-40.882 Y.803
N3652 X-41.981 Y-4.85
N3653 X-41.959 Y-5.61
N3654 X-41.615 Y-6.289
N3655 X-41.015 Y-6.756
N3656 X-40.273 Y-6.922
N3657 X.004
N3658 X40.283
N3659 X41.035 Y-6.753
N3660 X41.642 Y-6.28
N3661 X41.989 Y-5.592
N3662 X42.009 Y-4.821
N3663 X41.689 Y-3.205
N3664 X41.145 Y-.502
N3665 X40.232 Y3.802
N3666 X40.271 Y4.128
N3667 X40.503 Y4.36
N3668 X42.633 Y5.385
N3669 X42.866 Y5.618
N3670 X42.903 Y5.946
N3671 X42.728 Y6.72
N3672 X42.517 Y7.941
N3673 X42.226 Y8.754
N3674 X41.674 Y9.418
N3675 X40.927 Y9.852
N3676 X40.077 Y10.003
N3677 X-40.085
N3678 X-40.936 Y9.852
N3679 X-41.683 Y9.417
N3680 X-42.235 Y8.752
N3681 X-42.524 Y7.938
N3682 X-42.731 Y6.732
N3683 X-43.9 Y1.417
N3684 X-45.474 Y-6.634
N3685 X-45.81 Y-8.093
N3686 X-45.817 Y-8.786
N3687 X-45.522 Y-9.413
N3688 X-44.982 Y-9.847
N3689 X-44.306 Y-10.003
N3690 X.004
N3691 X44.282
N3692 X44.963 Y-9.846
N3693 X45.508 Y-9.409
N3694 X45.808 Y-8.778
N3695 X45.804 Y-8.079
N3696 X45.499 Y-6.684
N3697 X43.632 Y2.737
N3698 X42.903 Y5.946
N3699 X42.939 Y6.27
N3700 X43.167 Y6.504
N3701 X45.263 Y7.555
N3702 X45.485 Y7.775
N3703 X45.532 Y8.085
N3704 X45.423 Y8.732
N3705 X45.528 Y10.075
N3706 X46.01 Y11.419
N3707 X46.443 Y12.11
N3708 X46.885 Y12.615
N3709 X46.916 Y12.739
N3710 X46.833 Y12.837
N3711 X46.515 Y12.97
N3712 X46.365 Y13.
N3713 X-46.365
N3714 X-46.515 Y12.97
N3715 X-46.839 Y12.836
N3716 X-46.922 Y12.739
N3717 X-46.892 Y12.615
N3718 X-46.443 Y12.1
N3719 X-46.018 Y11.419
N3720 X-45.536 Y10.075
N3721 X-45.43 Y8.732
N3722 X-45.656 Y7.389
N3723 X-46.443 Y3.881
N3724 X-46.838 Y2.015
N3725 X-48.144 Y-4.702
N3726 X-48.413 Y-6.045
N3727 X-48.723 Y-7.389
N3728 X-49.067 Y-8.732
N3729 X-49.301 Y-9.444
N3730 X-49.499 Y-10.075
N3731 X-50.047 Y-11.419
N3732 X-50.73 Y-12.414
N3733 X-50.911 Y-12.604
N3734 X-50.963 Y-12.753
N3735 X-50.884 Y-12.89
N3736 X-50.802 Y-12.948
N3737 X-50.641 Y-13.
N3738 X.004
N3739 X50.641
N3740 X50.802 Y-12.948
N3741 X50.883 Y-12.89
N3742 X50.962 Y-12.753
N3743 X50.91 Y-12.604
N3744 X50.73 Y-12.416
N3745 X50.044 Y-11.419
N3746 X49.466 Y-10.075
N3747 X49.301 Y-9.55
N3748 X49.068 Y-8.732
N3749 X48.72 Y-7.389
N3750 X48.427 Y-6.045
N3751 X48.181 Y-4.702
N3752 X47.65 Y-2.015
N3753 X47.108 Y.672
N3754 X46.844 Y2.015
N3755 X46.564 Y3.358
N3756 X46.443 Y3.921
N3757 X45.65 Y7.389
N3758 X45.532 Y8.085
N3759 Z41.431
N3760 G00 Z43.828
N3761 X-63.03 Y-11.279
N3762 Z41.931
N3763 G01 Z39.431 F600.
N3764 X-63.529 Y-10.075 Z39.393
N3765 X-63.902 Y-8.849 Z39.355
N3766 X-63.951 Y-8.821 Z39.353
N3767 X-63.983 Y-8.866 Z39.351
N3768 X-63.842 Y-10.021 Z39.317
N3769 X-63.817 Y-10.127 Z39.314
N3770 X-63.655 Y-10.577 Z39.3
N3771 X-63.609 Y-10.705 Z39.296
N3772 X-63.562 Y-10.802 Z39.292
N3773 X-63.217 Y-11.352 Z39.273
N3774 X-63.083 Y-11.388 Z39.269
N3775 X-63.03 Y-11.279 Z39.265
N3776 X-63.529 Y-10.075 Z39.226
N3777 X-63.902 Y-8.849 Z39.188
N3778 X-63.951 Y-8.821 Z39.186
N3779 X-63.983 Y-8.866 Z39.185
N3780 X-63.842 Y-10.021 Z39.15
N3781 X-63.817 Y-10.127 Z39.147
N3782 X-63.655 Y-10.577 Z39.133
N3783 X-63.609 Y-10.705 Z39.129
N3784 X-63.562 Y-10.802 Z39.126
N3785 X-63.217 Y-11.352 Z39.106
N3786 X-63.083 Y-11.388 Z39.102
N3787 X-63.03 Y-11.279 Z39.098
N3788 X-63.529 Y-10.075 Z39.06
N3789 X-63.902 Y-8.849 Z39.022
N3790 X-63.951 Y-8.821 Z39.02
N3791 X-63.983 Y-8.866 Z39.018
N3792 X-63.842 Y-10.021 Z38.984
N3793 X-63.817 Y-10.127 Z38.98
N3794 X-63.655 Y-10.577 Z38.966
N3795 X-63.609 Y-10.705 Z38.962
N3796 X-63.562 Y-10.802 Z38.959
N3797 X-63.217 Y-11.352 Z38.94
N3798 X-63.083 Y-11.388 Z38.935
N3799 X-63.03 Y-11.279 Z38.931
N3800 X-63.529 Y-10.075 F1500.
N3801 X-63.902 Y-8.849
N3802 X-63.951 Y-8.821
N3803 X-63.983 Y-8.866
N3804 X-63.842 Y-10.021
N3805 X-63.817 Y-10.127
N3806 X-63.655 Y-10.577
N3807 X-63.609 Y-10.705
N3808 X-63.562 Y-10.802
N3809 X-63.217 Y-11.352
N3810 X-63.083 Y-11.388
N3811 X-63.03 Y-11.279
N3812 Z41.431
N3813 G00 Z42.331
N3814 X-18.103 Y1.
N3815 Z41.431
N3816 G01 Z38.931 F600.
N3817 X-33.498 Z38.489
N3818 X-34.123 Y.781 Z38.469
N3819 X-34.474 Y.219 Z38.45
N3820 X-34.432 Y-.357 Z38.433
N3821 X-34.065 Y-.824 F1500.
N3822 X-33.498 Y-1.
N3823 X-.003
N3824 X33.493
N3825 X34.056 Y-.826
N3826 X34.424 Y-.365
N3827 X34.468 Y.223
N3828 X34.275 Y.624
N3829 X33.927 Y.901
N3830 X33.493 Y1.
N3831 X-33.498
N3832 X-33.933 Y.901
N3833 X-34.281 Y.622
N3834 X-34.474 Y.219
N3835 X-34.432 Y-.357
N3836 X-34.425 Y-.692
N3837 X-34.63 Y-.956
N3838 X-34.956 Y-1.032
N3839 X-37.105 Y-.786
N3840 X-37.452 Y-.876
N3841 X-37.65 Y-1.174
N3842 X-37.777 Y-1.744
N3843 X-37.771 Y-2.492
N3844 X-37.442 Y-3.165
N3845 X-36.856 Y-3.629
N3846 X-36.126 Y-3.795
N3847 X-.003
N3848 X36.122
N3849 X36.855 Y-3.629
N3850 X37.444 Y-3.162
N3851 X37.774 Y-2.486
N3852 X37.779 Y-1.735
N3853 X37.174 Y.927
N3854 X36.825 Y1.854
N3855 X36.243 Y2.655
N3856 X35.468 Y3.273
N3857 X34.557 Y3.662
N3858 X33.575 Y3.795
N3859 X-33.564
N3860 X-34.554 Y3.661
N3861 X-35.472 Y3.267
N3862 X-36.253 Y2.643
N3863 X-36.838 Y1.833
N3864 X-37.186 Y.896
N3865 X-37.65 Y-1.174
N3866 X-37.824 Y-1.454
N3867 X-38.135 Y-1.565
N3868 X-40.492 Y-1.577
N3869 X-40.805 Y-1.689
N3870 X-40.979 Y-1.974
N3871 X-41.548 Y-4.791
N3872 X-41.526 Y-5.555
N3873 X-41.181 Y-6.236
N3874 X-40.578 Y-6.705
N3875 X-39.833 Y-6.872
N3876 X-.003
N3877 X39.875
N3878 X40.615 Y-6.706
N3879 X41.213 Y-6.239
N3880 X41.553 Y-5.561
N3881 X41.57 Y-4.803
N3882 X40.695 Y-.668
N3883 X39.575 Y4.087
N3884 X39.212 Y4.991
N3885 X38.624 Y5.77
N3886 X37.854 Y6.368
N3887 X36.955 Y6.744
N3888 X35.988 Y6.872
N3889 X-35.999
N3890 X-37.185 Y6.676
N3891 X-38.244 Y6.11
N3892 X-39.065 Y5.233
N3893 X-39.56 Y4.139
N3894 X-40.979 Y-1.974
N3895 X-41.147 Y-2.254
N3896 X-41.453 Y-2.37
N3897 X-43.818 Y-2.441
N3898 X-44.126 Y-2.559
N3899 X-44.294 Y-2.843
N3900 X-45.046 Y-6.626
N3901 X-45.315 Y-7.994
N3902 X-45.3 Y-8.713
N3903 X-44.979 Y-9.355
N3904 X-44.413 Y-9.798
N3905 X-43.712 Y-9.956
N3906 X-.003
N3907 X43.688
N3908 X44.412 Y-9.793
N3909 X44.996 Y-9.336
N3910 X45.329 Y-8.673
N3911 X45.345 Y-7.932
N3912 X43.993 Y-1.308
N3913 X42.459 Y5.259
N3914 X42.099 Y6.564
N3915 X41.837 Y7.892
N3916 X41.538 Y8.708
N3917 X40.978 Y9.372
N3918 X40.225 Y9.805
N3919 X39.37 Y9.956
N3920 X-39.379
N3921 X-40.235 Y9.805
N3922 X-40.988 Y9.37
N3923 X-41.548 Y8.704
N3924 X-41.845 Y7.887
N3925 X-42.075 Y6.653
N3926 X-43.103 Y2.687
N3927 X-43.989 Y-1.314
N3928 X-44.294 Y-2.843
N3929 X-44.46 Y-3.127
N3930 X-44.767 Y-3.246
N3931 X-47.111 Y-3.327
N3932 X-47.419 Y-3.447
N3933 X-47.585 Y-3.732
N3934 X-48.035 Y-6.045
N3935 X-48.299 Y-7.389
N3936 X-48.61 Y-8.732
N3937 X-48.948 Y-10.075
N3938 X-49.301 Y-11.135
N3939 X-49.438 Y-11.419
N3940 X-50.33 Y-12.616
N3941 X-50.346 Y-12.727
N3942 X-50.26 Y-12.799
N3943 X-49.351 Y-12.989
N3944 X-49.249 Y-13.
N3945 X-.003
N3946 X49.249
N3947 X49.351 Y-12.989
N3948 X50.26 Y-12.799
N3949 X50.345 Y-12.727
N3950 X50.329 Y-12.616
N3951 X49.435 Y-11.419
N3952 X49.301 Y-11.141
N3953 X48.94 Y-10.075
N3954 X48.618 Y-8.732
N3955 X48.341 Y-7.389
N3956 X47.53 Y-3.358
N3957 X46.97 Y-.672
N3958 X46.675 Y.672
N3959 X46.06 Y3.358
N3960 X45.743 Y4.702
N3961 X45.4 Y6.045
N3962 X45.014 Y7.426
N3963 X44.779 Y8.732
N3964 X44.885 Y10.075
N3965 X45.014 Y10.562
N3966 X45.372 Y11.419
N3967 X46.367 Y12.737
N3968 X46.383 Y12.909
N3969 X46.236 Y13.
N3970 X-46.234
N3971 X-46.384 Y12.907
N3972 X-46.368 Y12.731
N3973 X-45.379 Y11.419
N3974 X-45.014 Y10.538
N3975 X-44.893 Y10.075
N3976 X-44.787 Y8.732
N3977 X-45.014 Y7.449
N3978 X-45.753 Y4.702
N3979 X-46.068 Y3.358
N3980 X-46.671 Y.672
N3981 X-46.965 Y-.672
N3982 X-47.251 Y-2.015
N3983 X-47.585 Y-3.732
N3984 X-47.545 Y-4.042
N3985 X-47.33 Y-4.268
N3986 X-47.022 Y-4.322
N3987 X-17.415 Y.005
N3988 X-17.097 Y.187
N3989 X-16.988 Y.536
N3990 X-17.147 Y.866
N3991 X-17.487 Y1.
N3992 X-32.874 Z37.986 F600.
N3993 X-33.482 Y.794 Z37.967
N3994 X-33.84 Y.261 Z37.948
N3995 X-33.844 Y-.246 Z37.933
N3996 X-33.646 Y-.636 F1500.
N3997 X-33.301 Y-.905
N3998 X-32.874 Y-1.
N3999 X-.002
N4000 X32.871
N4001 X33.447 Y-.817
N4002 X33.813 Y-.335
N4003 X33.834 Y.269
N4004 X33.632 Y.648
N4005 X33.29 Y.908
N4006 X32.871 Y1.
N4007 X-32.874
N4008 X-33.296 Y.907
N4009 X-33.64 Y.644
N4010 X-33.84 Y.261
N4011 X-33.844 Y-.246
N4012 X-33.87 Y-.568
N4013 X-34.087 Y-.807
N4014 X-34.406 Y-.863
N4015 X-36.498 Y-.537
N4016 X-36.851 Y-.614
N4017 X-37.06 Y-.908
N4018 X-37.278 Y-1.791
N4019 X-37.282 Y-2.523
N4020 X-36.968 Y-3.183
N4021 X-36.397 Y-3.641
N4022 X-35.684 Y-3.804
N4023 X-.002
N4024 X35.685
N4025 X36.396 Y-3.641
N4026 X36.966 Y-3.184
N4027 X37.279 Y-2.525
N4028 X37.273 Y-1.795
N4029 X36.535 Y1.023
N4030 X36.017 Y2.138
N4031 X35.171 Y3.03
N4032 X34.084 Y3.605
N4033 X32.871 Y3.804
N4034 X-32.874
N4035 X-33.857 Y3.675
N4036 X-34.773 Y3.296
N4037 X-35.56 Y2.694
N4038 X-36.165 Y1.909
N4039 X-36.546 Y.994
N4040 X-37.06 Y-.908
N4041 X-37.243 Y-1.184
N4042 X-37.558 Y-1.284
N4043 X-39.877 Y-1.22
N4044 X-40.194 Y-1.322
N4045 X-40.376 Y-1.601
N4046 X-41.109 Y-4.802
N4047 X-41.103 Y-5.551
N4048 X-40.775 Y-6.225
N4049 X-40.188 Y-6.69
N4050 X-39.457 Y-6.856
N4051 X-.002
N4052 X39.451
N4053 X40.183 Y-6.69
N4054 X40.772 Y-6.225
N4055 X41.102 Y-5.551
N4056 X41.11 Y-4.8
N4057 X40.068 Y-.369
N4058 X38.852 Y4.018
N4059 X38.441 Y4.945
N4060 X37.808 Y5.739
N4061 X36.995 Y6.345
N4062 X36.054 Y6.726
N4063 X35.048 Y6.856
N4064 X-34.99
N4065 X-36.198 Y6.671
N4066 X-37.295 Y6.133
N4067 X-38.182 Y5.292
N4068 X-38.776 Y4.224
N4069 X-38.872 Y3.95
N4070 X-40.376 Y-1.601
N4071 X-40.556 Y-1.878
N4072 X-40.87 Y-1.982
N4073 X-43.212 Y-1.945
N4074 X-43.527 Y-2.051
N4075 X-43.706 Y-2.331
N4076 X-44.895 Y-7.883
N4077 X-44.874 Y-8.635
N4078 X-44.534 Y-9.306
N4079 X-43.941 Y-9.768
N4080 X-43.207 Y-9.932
N4081 X-.002
N4082 X43.227
N4083 X43.962 Y-9.766
N4084 X44.554 Y-9.301
N4085 X44.888 Y-8.627
N4086 X44.901 Y-7.874
N4087 X43.158 Y-.052
N4088 X42.839 Y1.233
N4089 X41.683 Y5.259
N4090 X41.25 Y6.545
N4091 X40.976 Y7.873
N4092 X40.671 Y8.688
N4093 X40.107 Y9.35
N4094 X39.351 Y9.782
N4095 X38.494 Y9.932
N4096 X-38.46
N4097 X-39.317 Y9.782
N4098 X-40.072 Y9.35
N4099 X-40.636 Y8.688
N4100 X-40.941 Y7.874
N4101 X-41.279 Y6.32
N4102 X-42.125 Y3.838
N4103 X-43.706 Y-2.331
N4104 X-43.884 Y-2.61
N4105 X-44.196 Y-2.717
N4106 X-46.531 Y-2.703
N4107 X-46.845 Y-2.811
N4108 X-47.022 Y-3.092
N4109 X-47.082 Y-3.358
N4110 X-47.377 Y-4.702
N4111 X-48.186 Y-8.732
N4112 X-48.495 Y-10.075
N4113 X-48.977 Y-11.419
N4114 X-49.301 Y-11.959
N4115 X-49.853 Y-12.616
N4116 X-49.879 Y-12.736
N4117 X-49.795 Y-12.826
N4118 X-49.372 Y-12.975
N4119 X-49.225 Y-13.
N4120 X-.002
N4121 X49.225
N4122 X49.372 Y-12.975
N4123 X49.793 Y-12.826
N4124 X49.877 Y-12.736
N4125 X49.851 Y-12.616
N4126 X49.301 Y-11.962
N4127 X48.975 Y-11.419
N4128 X48.493 Y-10.075
N4129 X47.374 Y-4.702
N4130 X47.084 Y-3.358
N4131 X46.777 Y-2.015
N4132 X46.139 Y.672
N4133 X45.805 Y2.015
N4134 X45.014 Y4.849
N4135 X44.659 Y6.045
N4136 X44.189 Y7.389
N4137 X43.936 Y8.732
N4138 X44.043 Y10.075
N4139 X44.534 Y11.419
N4140 X45.014 Y12.161
N4141 X45.428 Y12.618
N4142 X45.461 Y12.741
N4143 X45.38 Y12.84
N4144 X45.085 Y12.969
N4145 X44.936 Y13.
N4146 X-44.935
N4147 X-45.085 Y12.967
N4148 X-45.349 Y12.845
N4149 X-45.43 Y12.743
N4150 X-45.395 Y12.617
N4151 X-45.014 Y12.202
N4152 X-44.5 Y11.419
N4153 X-44.009 Y10.075
N4154 X-43.902 Y8.732
N4155 X-44.154 Y7.389
N4156 X-44.654 Y6.045
N4157 X-45.014 Y4.901
N4158 X-45.797 Y2.015
N4159 X-46.146 Y.672
N4160 X-46.778 Y-2.015
N4161 X-47.022 Y-3.092
N4162 X-46.991 Y-3.405
N4163 X-46.78 Y-3.638
N4164 X-46.472 Y-3.699
N4165 X-16.425 Y.061
N4166 X-16.102 Y.238
N4167 X-15.988 Y.588
N4168 X-16.145 Y.921
N4169 X-16.487 Y1.057
N4170 X-31.803 Z37.487 F600.
N4171 X-32.35 Y.905 Z37.471
N4172 X-32.739 Y.492 Z37.454
N4173 X-32.839 Y-.21 Z37.433
N4174 X-32.64 Y-.646 F1500.
N4175 X-32.269 Y-.949
N4176 X-31.803 Y-1.057
N4177 X31.75
N4178 X32.258 Y-.923
N4179 X32.636 Y-.557
N4180 X32.783 Y-.052
N4181 X32.664 Y.461
N4182 X32.258 Y.905
N4183 X31.712 Y1.057
N4184 X-.046
N4185 X-31.803
N4186 X-32.35 Y.905
N4187 X-32.739 Y.492
N4188 X-32.85 Y.149
N4189 X-32.839 Y-.21
N4190 X-32.905 Y-.576
N4191 X-33.205 Y-.794
N4192 X-33.573 Y-.746
N4193 X-35.392 Y.271
N4194 X-35.81 Y.303
N4195 X-36.105 Y.007
N4196 X-36.701 Y-1.914
N4197 X-36.729 Y-2.616
N4198 X-36.443 Y-3.257
N4199 X-35.901 Y-3.705
N4200 X-35.218 Y-3.865
N4201 X35.228
N4202 X35.908 Y-3.705
N4203 X36.446 Y-3.26
N4204 X36.73 Y-2.622
N4205 X36.7 Y-1.923
N4206 X35.984 Y.318
N4207 X35.675 Y.896
N4208 X35.133 Y1.797
N4209 X34.525 Y2.65
N4210 X33.71 Y3.308
N4211 X32.749 Y3.723
N4212 X31.712 Y3.865
N4213 X-.046
N4214 X-31.803
N4215 X-32.841 Y3.723
N4216 X-33.802 Y3.308
N4217 X-34.617 Y2.65
N4218 X-35.225 Y1.797
N4219 X-35.595 Y1.157
N4220 X-35.894 Y.555
N4221 X-36.105 Y.007
N4222 X-36.317 Y-.248
N4223 X-36.641 Y-.316
N4224 X-38.858 Y-.018
N4225 X-39.197 Y-.095
N4226 X-39.405 Y-.374
N4227 X-39.573 Y-.985
N4228 X-40.607 Y-4.868
N4229 X-40.611 Y-5.599
N4230 X-40.297 Y-6.26
N4231 X-39.726 Y-6.717
N4232 X-39.013 Y-6.881
N4233 X39.019
N4234 X39.729 Y-6.718
N4235 X40.297 Y-6.262
N4236 X40.609 Y-5.604
N4237 X40.603 Y-4.876
N4238 X39.834 Y-1.882
N4239 X38.925 Y1.074
N4240 X38.781 Y1.444
N4241 X38.166 Y2.596
N4242 X37.1 Y4.568
N4243 X36.432 Y5.521
N4244 X35.532 Y6.257
N4245 X34.466 Y6.722
N4246 X33.313 Y6.881
N4247 X-.046
N4248 X-33.401
N4249 X-34.551 Y6.722
N4250 X-35.616 Y6.259
N4251 X-36.517 Y5.525
N4252 X-37.185 Y4.575
N4253 X-38.142 Y2.771
N4254 X-38.718 Y1.614
N4255 X-39.405 Y-.374
N4256 X-39.595 Y-.642
N4257 X-39.911 Y-.733
N4258 X-42.228 Y-.609
N4259 X-42.547 Y-.703
N4260 X-42.736 Y-.975
N4261 X-44.445 Y-7.873
N4262 X-44.449 Y-8.62
N4263 X-44.128 Y-9.294
N4264 X-43.545 Y-9.762
N4265 X-42.817 Y-9.929
N4266 X42.796
N4267 X43.534 Y-9.759
N4268 X44.125 Y-9.285
N4269 X44.45 Y-8.601
N4270 X44.445 Y-7.844
N4271 X44.188 Y-6.759
N4272 X43.864 Y-5.412
N4273 X42.878 Y-1.497
N4274 X42.026 Y1.447
N4275 X41.609 Y2.583
N4276 X41.201 Y3.458
N4277 X40.488 Y4.642
N4278 X39.798 Y5.986
N4279 X39.514 Y6.812
N4280 X39.31 Y7.877
N4281 X39.003 Y8.689
N4282 X38.439 Y9.349
N4283 X37.685 Y9.779
N4284 X36.829 Y9.929
N4285 X-.046
N4286 X-36.917
N4287 X-37.772 Y9.779
N4288 X-38.526 Y9.35
N4289 X-39.09 Y8.69
N4290 X-39.397 Y7.879
N4291 X-39.603 Y6.81
N4292 X-39.889 Y5.98
N4293 X-40.717 Y4.402
N4294 X-41.572 Y2.684
N4295 X-42.212 Y.874
N4296 X-42.736 Y-.975
N4297 X-42.925 Y-1.247
N4298 X-43.241 Y-1.342
N4299 X-45.583 Y-1.234
N4300 X-45.901 Y-1.33
N4301 X-46.089 Y-1.603
N4302 X-46.201 Y-2.015
N4303 X-46.443 Y-2.953
N4304 X-47.486 Y-7.389
N4305 X-47.79 Y-8.732
N4306 X-48.069 Y-10.075
N4307 X-48.55 Y-11.419
N4308 X-49.301 Y-12.504
N4309 X-49.381 Y-12.588
N4310 X-49.448 Y-12.76
N4311 X-49.374 Y-12.93
N4312 X-49.372 Y-12.932
N4313 X-49.202 Y-13.
N4314 X49.194
N4315 X49.419 Y-12.852
N4316 X49.37 Y-12.587
N4317 X49.301 Y-12.515
N4318 X48.54 Y-11.419
N4319 X48.059 Y-10.075
N4320 X47.779 Y-8.732
N4321 X47.493 Y-7.389
N4322 X47.175 Y-6.045
N4323 X46.21 Y-2.015
N4324 X45.46 Y.672
N4325 X45.075 Y2.015
N4326 X45.014 Y2.211
N4327 X44.607 Y3.358
N4328 X44.066 Y4.702
N4329 X43.607 Y5.554
N4330 X43.555 Y5.632
N4331 X43.221 Y6.045
N4332 X42.531 Y7.389
N4333 X42.274 Y8.732
N4334 X42.383 Y10.075
N4335 X42.883 Y11.419
N4336 X43.585 Y12.405
N4337 X43.794 Y12.613
N4338 X43.844 Y12.752
N4339 X43.767 Y12.879
N4340 X43.656 Y12.953
N4341 X43.5 Y13.
N4342 X-.046
N4343 X-43.506
N4344 X-43.655 Y12.963
N4345 X-43.865 Y12.854
N4346 X-43.942 Y12.747
N4347 X-43.901 Y12.621
N4348 X-43.585 Y12.299
N4349 X-42.973 Y11.419
N4350 X-42.47 Y10.075
N4351 X-42.361 Y8.732
N4352 X-42.619 Y7.389
N4353 X-43.312 Y6.045
N4354 X-43.585 Y5.628
N4355 X-44.078 Y4.734
N4356 X-44.108 Y4.668
N4357 X-44.599 Y3.358
N4358 X-45.014 Y2.219
N4359 X-45.08 Y2.015
N4360 X-45.464 Y.672
N4361 X-45.836 Y-.672
N4362 X-46.089 Y-1.603
N4363 X-46.071 Y-1.919
N4364 X-45.866 Y-2.161
N4365 X-45.556 Y-2.231
N4366 X-14.405 Y.903
N4367 X-14.075 Y1.074
N4368 X-13.955 Y1.425
N4369 X-14.11 Y1.762
N4370 X-14.455 Y1.9
N4371 X-27.546 Z37.054 F600.
N4372 X-28.562 Y1.605 Z37.023
N4373 X-29.263 Y.812 Z36.992
N4374 X-29.99 Y-.506 Z36.948
N4375 X-30.12 Y-1.013 Z36.933
N4376 X-29.986 Y-1.459 F1500.
N4377 X-29.65 Y-1.782
N4378 X-29.199 Y-1.9
N4379 X29.208
N4380 X29.672 Y-1.776
N4381 X30.013 Y-1.438
N4382 X30.14 Y-.976
N4383 X30.02 Y-.511
N4384 X29.243 Y.884
N4385 X28.821 Y1.422
N4386 X28.235 Y1.777
N4387 X27.561 Y1.9
N4388 X.008
N4389 X-27.546
N4390 X-28.244 Y1.767
N4391 X-28.844 Y1.387
N4392 X-29.263 Y.812
N4393 X-29.99 Y-.506
N4394 X-30.12 Y-1.013
N4395 X-30.217 Y-1.327
N4396 X-30.488 Y-1.514
N4397 X-30.816 Y-1.491
N4398 X-32.829 Y-.629
N4399 X-33.152 Y-.604
N4400 X-33.422 Y-.783
N4401 X-34.726 Y-2.303
N4402 X-36.178 Y-3.683
N4403 X-36.349 Y-4.05
N4404 X-36.204 Y-4.428
N4405 X-35.831 Y-4.586
N4406 X35.925
N4407 X36.283 Y-4.431
N4408 X36.416 Y-4.063
N4409 X36.239 Y-3.714
N4410 X35.073 Y-2.711
N4411 X34.031 Y-1.58
N4412 X32.492 Y.574
N4413 X31.965 Y1.509
N4414 X31.621 Y2.132
N4415 X30.9 Y3.144
N4416 X29.933 Y3.925
N4417 X28.792 Y4.417
N4418 X27.561 Y4.586
N4419 X.008
N4420 X-27.546
N4421 X-28.823 Y4.404
N4422 X-29.999 Y3.874
N4423 X-30.981 Y3.037
N4424 X-31.691 Y1.96
N4425 X-32.073 Y1.245
N4426 X-32.584 Y.389
N4427 X-33.422 Y-.783
N4428 X-33.674 Y-.956
N4429 X-33.981 Y-.95
N4430 X-35.713 Y-.352
N4431 X-35.999 Y-.34
N4432 X-36.244 Y-.486
N4433 X-37.483 Y-1.712
N4434 X-38.833 Y-2.813
N4435 X-39.413 Y-3.364
N4436 X-39.764 Y-4.082
N4437 X-40.021 Y-4.995
N4438 X-40.052 Y-5.694
N4439 X-39.769 Y-6.333
N4440 X-39.231 Y-6.779
N4441 X-38.551 Y-6.938
N4442 X38.563
N4443 X39.242 Y-6.779
N4444 X39.777 Y-6.333
N4445 X40.058 Y-5.695
N4446 X40.024 Y-4.999
N4447 X39.743 Y-4.019
N4448 X39.396 Y-3.307
N4449 X38.826 Y-2.756
N4450 X36.738 Y-1.055
N4451 X35.823 Y-.05
N4452 X35. Y1.031
N4453 X33.958 Y2.759
N4454 X33.055 Y4.564
N4455 X32.403 Y5.539
N4456 X31.507 Y6.296
N4457 X30.436 Y6.775
N4458 X29.274 Y6.938
N4459 X.008
N4460 X-29.344
N4461 X-30.527 Y6.766
N4462 X-31.613 Y6.264
N4463 X-32.51 Y5.473
N4464 X-33.145 Y4.459
N4465 X-34.028 Y2.581
N4466 X-35.143 Y.832
N4467 X-36.244 Y-.486
N4468 X-36.531 Y-.641
N4469 X-36.852 Y-.587
N4470 X-38.958 Y.562
N4471 X-39.255 Y.62
N4472 X-39.531 Y.495
N4473 X-40.485 Y-.293
N4474 X-41.443 Y-1.099
N4475 X-42.184 Y-2.108
N4476 X-42.665 Y-3.264
N4477 X-43.926 Y-7.931
N4478 X-43.935 Y-8.664
N4479 X-43.622 Y-9.328
N4480 X-43.051 Y-9.788
N4481 X-42.336 Y-9.952
N4482 X42.344
N4483 X43.053 Y-9.79
N4484 X43.62 Y-9.333
N4485 X43.931 Y-8.676
N4486 X43.924 Y-7.948
N4487 X42.64 Y-3.188
N4488 X42.167 Y-2.055
N4489 X41.446 Y-1.062
N4490 X40.516 Y-.26
N4491 X40.447 Y-.214
N4492 X38.804 Y1.14
N4493 X38.062 Y1.966
N4494 X37.399 Y2.856
N4495 X36.486 Y4.433
N4496 X35.677 Y6.065
N4497 X35.397 Y6.972
N4498 X35.224 Y7.905
N4499 X34.92 Y8.715
N4500 X34.359 Y9.374
N4501 X33.608 Y9.803
N4502 X32.755 Y9.952
N4503 X.008
N4504 X-32.81
N4505 X-33.662 Y9.804
N4506 X-34.414 Y9.374
N4507 X-34.975 Y8.716
N4508 X-35.279 Y7.906
N4509 X-35.689 Y6.161
N4510 X-36.371 Y4.616
N4511 X-37.192 Y3.14
N4512 X-38.285 Y1.75
N4513 X-39.531 Y.495
N4514 X-39.826 Y.369
N4515 X-40.137 Y.448
N4516 X-42.337 Y1.874
N4517 X-42.565 Y1.953
N4518 X-42.803 Y1.916
N4519 X-43.5 Y1.623
N4520 X-43.651 Y1.524
N4521 X-44.462 Y.751
N4522 X-44.585 Y.564
N4523 X-45.047 Y-.672
N4524 X-45.479 Y-2.015
N4525 X-46.237 Y-4.702
N4526 X-46.605 Y-6.045
N4527 X-46.931 Y-7.389
N4528 X-47.563 Y-10.075
N4529 X-47.872 Y-11.049
N4530 X-48.048 Y-11.419
N4531 X-49.053 Y-12.762
N4532 X-49.193 Y-12.89
N4533 X-49.15 Y-13.
N4534 X49.147
N4535 X49.193 Y-12.882
N4536 X49.062 Y-12.762
N4537 X48.055 Y-11.419
N4538 X47.872 Y-11.031
N4539 X47.569 Y-10.075
N4540 X46.601 Y-6.045
N4541 X46.443 Y-5.421
N4542 X46.242 Y-4.702
N4543 X45.474 Y-2.015
N4544 X45.032 Y-.672
N4545 X44.593 Y.554
N4546 X44.458 Y.756
N4547 X43.641 Y1.499
N4548 X43.516 Y1.582
N4549 X42.591 Y2.015
N4550 X42.156 Y2.31
N4551 X40.893 Y3.358
N4552 X40.727 Y3.515
N4553 X39.824 Y4.702
N4554 X39.07 Y6.045
N4555 X38.423 Y7.389
N4556 X38.169 Y8.732
N4557 X38.277 Y10.075
N4558 X38.77 Y11.419
N4559 X39.298 Y12.216
N4560 X39.674 Y12.619
N4561 X39.71 Y12.743
N4562 X39.63 Y12.845
N4563 X39.368 Y12.967
N4564 X39.22 Y13.
N4565 X.008
N4566 X-39.221
N4567 X-39.368 Y12.97
N4568 X-39.679 Y12.838
N4569 X-39.76 Y12.741
N4570 X-39.727 Y12.619
N4571 X-39.298 Y12.148
N4572 X-38.825 Y11.419
N4573 X-38.332 Y10.075
N4574 X-38.224 Y8.732
N4575 X-38.478 Y7.389
N4576 X-39.069 Y6.045
N4577 X-39.298 Y5.558
N4578 X-39.809 Y4.702
N4579 X-40.727 Y3.595
N4580 X-40.936 Y3.358
N4581 X-42.156 Y2.256
N4582 X-42.566 Y2.015
N4583 X-42.803 Y1.916
N4584 X-43.055 Y1.682
N4585 X-43.096 Y1.341
N4586 X-42.908 Y1.054
N4587 X-42.578 Y.956
N4588 X-12.535 Y2.814
N4589 X-12.167 Y2.685
N4590 X-12.004 Y2.331
N4591 X-12.145 Y1.967
N4592 X-12.504 Y1.815
N4593 X-26.385 Z36.531 F600.
N4594 X-27.411 Y1.498 Z36.499
N4595 X-28.078 Y.657 Z36.467
N4596 X-28.427 Y-.156 Z36.442
N4597 X-28.516 Y-.449 Z36.433
N4598 X-28.432 Y-1.113 F1500.
N4599 X-27.999 Y-1.624
N4600 X-27.357 Y-1.815
N4601 X27.347
N4602 X27.909 Y-1.673
N4603 X28.335 Y-1.28
N4604 X28.522 Y-.732
N4605 X28.425 Y-.16
N4606 X28.077 Y.657
N4607 X27.687 Y1.264
N4608 X27.092 Y1.672
N4609 X26.384 Y1.815
N4610 X0
N4611 X-26.385
N4612 X-27.093 Y1.672
N4613 X-27.688 Y1.264
N4614 X-28.078 Y.657
N4615 X-28.427 Y-.156
N4616 X-28.516 Y-.449
N4617 X-28.731 Y-.782
N4618 X-29.121 Y-.854
N4619 X-31.212 Y-.375
N4620 X-31.543 Y-.412
N4621 X-31.776 Y-.649
N4622 X-32.526 Y-2.054
N4623 X-33.408 Y-3.38
N4624 X-33.563 Y-3.787
N4625 X-33.481 Y-4.215
N4626 X-33.186 Y-4.536
N4627 X-32.767 Y-4.655
N4628 X32.692
N4629 X33.124 Y-4.535
N4630 X33.433 Y-4.208
N4631 X33.528 Y-3.769
N4632 X33.383 Y-3.344
N4633 X31.892 Y-.88
N4634 X30.702 Y1.742
N4635 X30.196 Y2.706
N4636 X29.474 Y3.52
N4637 X28.579 Y4.138
N4638 X27.562 Y4.524
N4639 X26.482 Y4.655
N4640 X0
N4641 X-26.549
N4642 X-27.61 Y4.526
N4643 X-28.61 Y4.145
N4644 X-29.488 Y3.535
N4645 X-30.195 Y2.732
N4646 X-30.688 Y1.782
N4647 X-31.746 Y-.584
N4648 X-31.776 Y-.649
N4649 X-31.997 Y-.878
N4650 X-32.312 Y-.928
N4651 X-34.31 Y-.592
N4652 X-34.598 Y-.629
N4653 X-34.817 Y-.821
N4654 X-36.425 Y-3.039
N4655 X-38.085 Y-4.727
N4656 X-39.053 Y-5.507
N4657 X-39.43 Y-5.975
N4658 X-39.452 Y-6.576
N4659 X-39.109 Y-7.07
N4660 X-38.539 Y-7.26
N4661 X38.518
N4662 X39.104 Y-7.066
N4663 X39.458 Y-6.56
N4664 X39.442 Y-5.943
N4665 X39.06 Y-5.458
N4666 X38.272 Y-4.843
N4667 X36.54 Y-3.226
N4668 X35.091 Y-1.23
N4669 X33.849 Y1.036
N4670 X33.073 Y2.848
N4671 X32.396 Y4.7
N4672 X31.836 Y5.737
N4673 X30.989 Y6.555
N4674 X29.933 Y7.079
N4675 X28.769 Y7.26
N4676 X0
N4677 X-28.825
N4678 X-29.993 Y7.075
N4679 X-31.048 Y6.54
N4680 X-31.887 Y5.705
N4681 X-32.428 Y4.653
N4682 X-33.446 Y1.95
N4683 X-34.71 Y-.647
N4684 X-34.817 Y-.821
N4685 X-35.064 Y-1.024
N4686 X-35.383 Y-1.037
N4687 X-37.45 Y-.43
N4688 X-37.748 Y-.435
N4689 X-37.99 Y-.609
N4690 X-38.551 Y-1.321
N4691 X-40.018 Y-2.798
N4692 X-40.834 Y-3.384
N4693 X-41.543 Y-3.884
N4694 X-42.107 Y-4.543
N4695 X-42.493 Y-5.32
N4696 X-43.312 Y-8.053
N4697 X-43.343 Y-8.749
N4698 X-43.06 Y-9.386
N4699 X-42.524 Y-9.831
N4700 X-41.846 Y-9.99
N4701 X41.848
N4702 X42.529 Y-9.83
N4703 X43.067 Y-9.382
N4704 X43.349 Y-8.742
N4705 X43.315 Y-8.043
